(G-CODE GENERATED BY FLATCAM v8.994 - www.flatcam.org - Version Date: 2020/11/7)

(Name: nanoRIghtAux-User_Drawings.gbr_follow_cnc)
(Type: G-code from Geometry)
(Units: MM)

(Created on Monday, 19 June 2023 at 10:52)

(This preprocessor is the default preprocessor used by FlatCAM.)
(It is made to work with MACH3 compatible motion controllers.)

(TOOL DIAMETER: 0.1 mm)
(Feedrate_XY: 120.0 mm/min)
(Feedrate_Z: 60.0 mm/min)
(Feedrate rapids 1500.0 mm/min)

(Z_Cut: -0.3 mm)
(Z_Move: 2.0 mm)
(Z Start: None mm)
(Z End: 15.0 mm)
(X,Y End: None mm)
(Steps per circle: 64)
(Preprocessor Geometry: default)

(X range:  136.0839 ...  219.8431  mm)
(Y range: -128.6763 ...  -70.6141  mm)

(Spindle Speed: 0.0 RPM)
G21
G90
G94

G01 F120.00

M5
G00 Z15.0000
G00 X0.0000 Y0.0000
T1
M6    
(MSG, Change to Tool Dia = 0.1000)
M0
G00 Z15.0000

M03
G01 F120.00
G00 X136.2926 Y-81.0746
G01 F60.00
G01 Z-0.3000
G01 F120.00
G01 X136.2926 Y-82.0746
G00 Z2.0000
G00 X136.2926 Y-81.0746
G01 F60.00
G01 Z-0.3000
G01 F120.00
G01 X136.7688 Y-81.0746
G00 Z2.0000
G00 X136.6259 Y-81.5508
G01 F60.00
G01 Z-0.3000
G01 F120.00
G01 X136.2926 Y-81.5508
G00 Z2.0000
G00 X136.7688 Y-82.0746
G01 F60.00
G01 Z-0.3000
G01 F120.00
G01 X136.2926 Y-82.0746
G00 Z2.0000
G00 X136.4354 Y-82.7322
G01 F60.00
G01 Z-0.3000
G01 F120.00
G01 X136.5783 Y-82.6846
G00 Z2.0000
G00 X136.4354 Y-82.7322
G01 F60.00
G01 Z-0.3000
G01 F120.00
G01 X136.3402 Y-82.8275
G00 Z2.0000
G00 X136.3402 Y-82.8275
G01 F60.00
G01 Z-0.3000
G01 F120.00
G01 X136.2926 Y-82.9227
G00 Z2.0000
G00 X136.2926 Y-82.9227
G01 F60.00
G01 Z-0.3000
G01 F120.00
G01 X136.2449 Y-83.1132
G00 Z2.0000
G00 X136.2449 Y-83.1132
G01 F60.00
G01 Z-0.3000
G01 F120.00
G01 X136.2449 Y-83.2560
G00 Z2.0000
G00 X136.2449 Y-83.2560
G01 F60.00
G01 Z-0.3000
G01 F120.00
G01 X136.2926 Y-83.4465
G00 Z2.0000
G00 X136.2926 Y-83.4465
G01 F60.00
G01 Z-0.3000
G01 F120.00
G01 X136.3402 Y-83.5418
G00 Z2.0000
G00 X136.3402 Y-83.5418
G01 F60.00
G01 Z-0.3000
G01 F120.00
G01 X136.4354 Y-83.6370
G00 Z2.0000
G00 X136.4354 Y-83.6370
G01 F60.00
G01 Z-0.3000
G01 F120.00
G01 X136.5783 Y-83.6846
G00 Z2.0000
G00 X136.5783 Y-83.6846
G01 F60.00
G01 Z-0.3000
G01 F120.00
G01 X136.6735 Y-83.6846
G00 Z2.0000
G00 X136.6735 Y-83.6846
G01 F60.00
G01 Z-0.3000
G01 F120.00
G01 X136.8164 Y-83.6370
G00 Z2.0000
G00 X136.8164 Y-83.6370
G01 F60.00
G01 Z-0.3000
G01 F120.00
G01 X136.8640 Y-83.5894
G00 Z2.0000
G00 X136.8640 Y-83.5894
G01 F60.00
G01 Z-0.3000
G01 F120.00
G01 X136.8640 Y-83.2560
G00 Z2.0000
G00 X136.8640 Y-83.2560
G01 F60.00
G01 Z-0.3000
G01 F120.00
G01 X136.6735 Y-83.2560
G00 Z2.0000
G00 X136.8164 Y-82.7322
G01 F60.00
G01 Z-0.3000
G01 F120.00
G01 X136.7211 Y-82.6846
G00 Z2.0000
G00 X136.7211 Y-82.6846
G01 F60.00
G01 Z-0.3000
G01 F120.00
G01 X136.5783 Y-82.6846
G00 Z2.0000
G00 X137.2926 Y-82.6846
G01 F60.00
G01 Z-0.3000
G01 F120.00
G01 X137.2926 Y-83.6846
G00 Z2.0000
G00 X137.0545 Y-82.0746
G01 F60.00
G01 Z-0.3000
G01 F120.00
G01 X137.3878 Y-81.0746
G00 Z2.0000
G00 X137.3878 Y-81.0746
G01 F60.00
G01 Z-0.3000
G01 F120.00
G01 X137.7211 Y-82.0746
G00 Z2.0000
G00 X137.6259 Y-81.7889
G01 F60.00
G01 Z-0.3000
G01 F120.00
G01 X137.1497 Y-81.7889
G00 Z2.0000
G00 X138.2449 Y-82.7322
G01 F60.00
G01 Z-0.3000
G01 F120.00
G01 X138.3878 Y-82.6846
G00 Z2.0000
G00 X138.3878 Y-82.6846
G01 F60.00
G01 Z-0.3000
G01 F120.00
G01 X138.4830 Y-82.6846
G00 Z2.0000
G00 X138.4830 Y-82.6846
G01 F60.00
G01 Z-0.3000
G01 F120.00
G01 X138.6259 Y-82.7322
G00 Z2.0000
G00 X138.6259 Y-82.7322
G01 F60.00
G01 Z-0.3000
G01 F120.00
G01 X138.6735 Y-82.7799
G00 Z2.0000
G00 X138.2449 Y-82.7322
G01 F60.00
G01 Z-0.3000
G01 F120.00
G01 X138.1497 Y-82.8275
G00 Z2.0000
G00 X138.1497 Y-82.8275
G01 F60.00
G01 Z-0.3000
G01 F120.00
G01 X138.1021 Y-82.9227
G00 Z2.0000
G00 X138.1021 Y-82.9227
G01 F60.00
G01 Z-0.3000
G01 F120.00
G01 X138.0545 Y-83.1132
G00 Z2.0000
G00 X138.0545 Y-83.1132
G01 F60.00
G01 Z-0.3000
G01 F120.00
G01 X138.0545 Y-83.2560
G00 Z2.0000
G00 X138.0545 Y-83.2560
G01 F60.00
G01 Z-0.3000
G01 F120.00
G01 X138.1021 Y-83.4465
G00 Z2.0000
G00 X138.1021 Y-83.4465
G01 F60.00
G01 Z-0.3000
G01 F120.00
G01 X138.1497 Y-83.5418
G00 Z2.0000
G00 X138.1497 Y-83.5418
G01 F60.00
G01 Z-0.3000
G01 F120.00
G01 X138.2449 Y-83.6370
G00 Z2.0000
G00 X138.2449 Y-83.6370
G01 F60.00
G01 Z-0.3000
G01 F120.00
G01 X138.3878 Y-83.6846
G00 Z2.0000
G00 X138.3878 Y-83.6846
G01 F60.00
G01 Z-0.3000
G01 F120.00
G01 X138.4830 Y-83.6846
G00 Z2.0000
G00 X138.4830 Y-83.6846
G01 F60.00
G01 Z-0.3000
G01 F120.00
G01 X138.6259 Y-83.6370
G00 Z2.0000
G00 X138.6259 Y-83.6370
G01 F60.00
G01 Z-0.3000
G01 F120.00
G01 X138.6735 Y-83.5894
G00 Z2.0000
G00 X139.1021 Y-83.6846
G01 F60.00
G01 Z-0.3000
G01 F120.00
G01 X139.1021 Y-82.6846
G00 Z2.0000
G00 X139.1021 Y-82.6846
G01 F60.00
G01 Z-0.3000
G01 F120.00
G01 X139.3402 Y-82.6846
G00 Z2.0000
G00 X139.3402 Y-82.6846
G01 F60.00
G01 Z-0.3000
G01 F120.00
G01 X139.4830 Y-82.7322
G00 Z2.0000
G00 X139.4830 Y-82.7322
G01 F60.00
G01 Z-0.3000
G01 F120.00
G01 X139.5783 Y-82.8275
G00 Z2.0000
G00 X139.5783 Y-82.8275
G01 F60.00
G01 Z-0.3000
G01 F120.00
G01 X139.6259 Y-82.9227
G00 Z2.0000
G00 X139.6259 Y-82.9227
G01 F60.00
G01 Z-0.3000
G01 F120.00
G01 X139.6735 Y-83.1132
G00 Z2.0000
G00 X139.6735 Y-83.1132
G01 F60.00
G01 Z-0.3000
G01 F120.00
G01 X139.6735 Y-83.2560
G00 Z2.0000
G00 X139.6735 Y-83.2560
G01 F60.00
G01 Z-0.3000
G01 F120.00
G01 X139.6259 Y-83.4465
G00 Z2.0000
G00 X139.6259 Y-83.4465
G01 F60.00
G01 Z-0.3000
G01 F120.00
G01 X139.5783 Y-83.5418
G00 Z2.0000
G00 X139.5783 Y-83.5418
G01 F60.00
G01 Z-0.3000
G01 F120.00
G01 X139.4830 Y-83.6370
G00 Z2.0000
G00 X139.4830 Y-83.6370
G01 F60.00
G01 Z-0.3000
G01 F120.00
G01 X139.3402 Y-83.6846
G00 Z2.0000
G00 X139.3402 Y-83.6846
G01 F60.00
G01 Z-0.3000
G01 F120.00
G01 X139.1021 Y-83.6846
G00 Z2.0000
G00 X137.7688 Y-83.6846
G01 F60.00
G01 Z-0.3000
G01 F120.00
G01 X137.2926 Y-83.6846
G00 Z2.0000
G00 X137.5125 Y-87.4298
G01 F60.00
G01 Z-0.3000
G01 F120.00
G01 X137.0363 Y-87.4298
G00 Z2.0000
G00 X137.9411 Y-87.4298
G01 F60.00
G01 Z-0.3000
G01 F120.00
G01 X137.9411 Y-88.4298
G00 Z2.0000
G00 X137.9411 Y-87.4298
G01 F60.00
G01 Z-0.3000
G01 F120.00
G01 X138.1792 Y-87.4298
G00 Z2.0000
G00 X138.1792 Y-87.4298
G01 F60.00
G01 Z-0.3000
G01 F120.00
G01 X138.3220 Y-87.4774
G00 Z2.0000
G00 X138.3220 Y-87.4774
G01 F60.00
G01 Z-0.3000
G01 F120.00
G01 X138.4173 Y-87.5727
G00 Z2.0000
G00 X138.4173 Y-87.5727
G01 F60.00
G01 Z-0.3000
G01 F120.00
G01 X138.4649 Y-87.6679
G00 Z2.0000
G00 X138.4649 Y-87.6679
G01 F60.00
G01 Z-0.3000
G01 F120.00
G01 X138.5125 Y-87.8584
G00 Z2.0000
G00 X138.5125 Y-87.8584
G01 F60.00
G01 Z-0.3000
G01 F120.00
G01 X138.5125 Y-88.0012
G00 Z2.0000
G00 X138.5125 Y-88.0012
G01 F60.00
G01 Z-0.3000
G01 F120.00
G01 X138.4649 Y-88.1917
G00 Z2.0000
G00 X138.4649 Y-88.1917
G01 F60.00
G01 Z-0.3000
G01 F120.00
G01 X138.4173 Y-88.2870
G00 Z2.0000
G00 X138.4173 Y-88.2870
G01 F60.00
G01 Z-0.3000
G01 F120.00
G01 X138.3220 Y-88.3822
G00 Z2.0000
G00 X138.3220 Y-88.3822
G01 F60.00
G01 Z-0.3000
G01 F120.00
G01 X138.1792 Y-88.4298
G00 Z2.0000
G00 X138.1792 Y-88.4298
G01 F60.00
G01 Z-0.3000
G01 F120.00
G01 X137.9411 Y-88.4298
G00 Z2.0000
G00 X137.5125 Y-88.4298
G01 F60.00
G01 Z-0.3000
G01 F120.00
G01 X137.0363 Y-88.4298
G00 Z2.0000
G00 X137.0363 Y-88.4298
G01 F60.00
G01 Z-0.3000
G01 F120.00
G01 X137.0363 Y-87.4298
G00 Z2.0000
G00 X137.0363 Y-87.9060
G01 F60.00
G01 Z-0.3000
G01 F120.00
G01 X137.3696 Y-87.9060
G00 Z2.0000
G00 X136.7030 Y-88.4298
G01 F60.00
G01 Z-0.3000
G01 F120.00
G01 X136.2268 Y-88.4298
G00 Z2.0000
G00 X136.2268 Y-88.4298
G01 F60.00
G01 Z-0.3000
G01 F120.00
G01 X136.2268 Y-87.4298
G00 Z2.0000
G00 X136.2268 Y-89.0398
G01 F60.00
G01 Z-0.3000
G01 F120.00
G01 X136.7030 Y-89.0398
G00 Z2.0000
G00 X136.2268 Y-89.0398
G01 F60.00
G01 Z-0.3000
G01 F120.00
G01 X136.1792 Y-89.5160
G00 Z2.0000
G00 X136.1792 Y-89.5160
G01 F60.00
G01 Z-0.3000
G01 F120.00
G01 X136.2268 Y-89.4684
G00 Z2.0000
G00 X136.2268 Y-89.4684
G01 F60.00
G01 Z-0.3000
G01 F120.00
G01 X136.3220 Y-89.4208
G00 Z2.0000
G00 X136.3220 Y-89.4208
G01 F60.00
G01 Z-0.3000
G01 F120.00
G01 X136.5601 Y-89.4208
G00 Z2.0000
G00 X136.5601 Y-89.4208
G01 F60.00
G01 Z-0.3000
G01 F120.00
G01 X136.6553 Y-89.4684
G00 Z2.0000
G00 X136.6553 Y-89.4684
G01 F60.00
G01 Z-0.3000
G01 F120.00
G01 X136.7030 Y-89.5160
G00 Z2.0000
G00 X136.7030 Y-89.5160
G01 F60.00
G01 Z-0.3000
G01 F120.00
G01 X136.7506 Y-89.6112
G00 Z2.0000
G00 X136.7506 Y-89.6112
G01 F60.00
G01 Z-0.3000
G01 F120.00
G01 X136.7506 Y-89.8493
G00 Z2.0000
G00 X136.7506 Y-89.8493
G01 F60.00
G01 Z-0.3000
G01 F120.00
G01 X136.7030 Y-89.9446
G00 Z2.0000
G00 X136.7030 Y-89.9446
G01 F60.00
G01 Z-0.3000
G01 F120.00
G01 X136.6553 Y-89.9922
G00 Z2.0000
G00 X136.6553 Y-89.9922
G01 F60.00
G01 Z-0.3000
G01 F120.00
G01 X136.5601 Y-90.0398
G00 Z2.0000
G00 X136.5601 Y-90.0398
G01 F60.00
G01 Z-0.3000
G01 F120.00
G01 X136.3220 Y-90.0398
G00 Z2.0000
G00 X136.3220 Y-90.0398
G01 F60.00
G01 Z-0.3000
G01 F120.00
G01 X136.2268 Y-89.9922
G00 Z2.0000
G00 X136.2268 Y-89.9922
G01 F60.00
G01 Z-0.3000
G01 F120.00
G01 X136.1792 Y-89.9446
G00 Z2.0000
G00 X137.1315 Y-89.7065
G01 F60.00
G01 Z-0.3000
G01 F120.00
G01 X137.3696 Y-88.9922
G00 Z2.0000
G00 X137.1315 Y-89.7065
G01 F60.00
G01 Z-0.3000
G01 F120.00
G01 X137.7506 Y-89.7065
G00 Z2.0000
G00 X137.6077 Y-89.3732
G01 F60.00
G01 Z-0.3000
G01 F120.00
G01 X137.6077 Y-90.0398
G00 Z2.0000
G00 X138.0839 Y-89.9446
G01 F60.00
G01 Z-0.3000
G01 F120.00
G01 X138.1315 Y-89.9922
G00 Z2.0000
G00 X138.1315 Y-89.9922
G01 F60.00
G01 Z-0.3000
G01 F120.00
G01 X138.2268 Y-90.0398
G00 Z2.0000
G00 X138.2268 Y-90.0398
G01 F60.00
G01 Z-0.3000
G01 F120.00
G01 X138.4649 Y-90.0398
G00 Z2.0000
G00 X138.4649 Y-90.0398
G01 F60.00
G01 Z-0.3000
G01 F120.00
G01 X138.5601 Y-89.9922
G00 Z2.0000
G00 X138.5601 Y-89.9922
G01 F60.00
G01 Z-0.3000
G01 F120.00
G01 X138.6077 Y-89.9446
G00 Z2.0000
G00 X138.6077 Y-89.9446
G01 F60.00
G01 Z-0.3000
G01 F120.00
G01 X138.6553 Y-89.8493
G00 Z2.0000
G00 X138.6553 Y-89.8493
G01 F60.00
G01 Z-0.3000
G01 F120.00
G01 X138.6553 Y-89.6112
G00 Z2.0000
G00 X138.6553 Y-89.6112
G01 F60.00
G01 Z-0.3000
G01 F120.00
G01 X138.6077 Y-89.5160
G00 Z2.0000
G00 X138.6077 Y-89.5160
G01 F60.00
G01 Z-0.3000
G01 F120.00
G01 X138.5601 Y-89.4684
G00 Z2.0000
G00 X138.5601 Y-89.4684
G01 F60.00
G01 Z-0.3000
G01 F120.00
G01 X138.4649 Y-89.4208
G00 Z2.0000
G00 X138.4649 Y-89.4208
G01 F60.00
G01 Z-0.3000
G01 F120.00
G01 X138.2268 Y-89.4208
G00 Z2.0000
G00 X138.2268 Y-89.4208
G01 F60.00
G01 Z-0.3000
G01 F120.00
G01 X138.1315 Y-89.4684
G00 Z2.0000
G00 X138.1315 Y-89.4684
G01 F60.00
G01 Z-0.3000
G01 F120.00
G01 X138.0839 Y-89.5160
G00 Z2.0000
G00 X138.0839 Y-89.5160
G01 F60.00
G01 Z-0.3000
G01 F120.00
G01 X138.1315 Y-89.0398
G00 Z2.0000
G00 X138.1315 Y-89.0398
G01 F60.00
G01 Z-0.3000
G01 F120.00
G01 X138.6077 Y-89.0398
G00 Z2.0000
G00 X139.0363 Y-89.3255
G01 F60.00
G01 Z-0.3000
G01 F120.00
G01 X139.1315 Y-89.2779
G00 Z2.0000
G00 X139.1315 Y-89.2779
G01 F60.00
G01 Z-0.3000
G01 F120.00
G01 X139.2268 Y-89.1827
G00 Z2.0000
G00 X139.2268 Y-89.1827
G01 F60.00
G01 Z-0.3000
G01 F120.00
G01 X139.3220 Y-89.0398
G00 Z2.0000
G00 X139.3220 Y-89.0398
G01 F60.00
G01 Z-0.3000
G01 F120.00
G01 X139.3220 Y-90.0398
G00 Z2.0000
G00 X139.0363 Y-90.0398
G01 F60.00
G01 Z-0.3000
G01 F120.00
G01 X139.6077 Y-90.0398
G00 Z2.0000
G00 X139.3220 Y-92.8498
G01 F60.00
G01 Z-0.3000
G01 F120.00
G01 X138.9887 Y-93.8498
G00 Z2.0000
G00 X139.3220 Y-92.8498
G01 F60.00
G01 Z-0.3000
G01 F120.00
G01 X139.6553 Y-93.8498
G00 Z2.0000
G00 X139.5601 Y-93.5641
G01 F60.00
G01 Z-0.3000
G01 F120.00
G01 X139.0839 Y-93.5641
G00 Z2.0000
G00 X138.7030 Y-93.4212
G01 F60.00
G01 Z-0.3000
G01 F120.00
G01 X138.7030 Y-93.2784
G00 Z2.0000
G00 X138.7030 Y-93.4212
G01 F60.00
G01 Z-0.3000
G01 F120.00
G01 X138.6553 Y-93.6117
G00 Z2.0000
G00 X138.6553 Y-93.6117
G01 F60.00
G01 Z-0.3000
G01 F120.00
G01 X138.6077 Y-93.7070
G00 Z2.0000
G00 X138.6077 Y-93.7070
G01 F60.00
G01 Z-0.3000
G01 F120.00
G01 X138.5125 Y-93.8022
G00 Z2.0000
G00 X138.5125 Y-93.8022
G01 F60.00
G01 Z-0.3000
G01 F120.00
G01 X138.3696 Y-93.8498
G00 Z2.0000
G00 X138.3696 Y-93.8498
G01 F60.00
G01 Z-0.3000
G01 F120.00
G01 X138.1315 Y-93.8498
G00 Z2.0000
G00 X138.1315 Y-93.8498
G01 F60.00
G01 Z-0.3000
G01 F120.00
G01 X138.1315 Y-92.8498
G00 Z2.0000
G00 X138.1315 Y-92.8498
G01 F60.00
G01 Z-0.3000
G01 F120.00
G01 X138.3696 Y-92.8498
G00 Z2.0000
G00 X138.3696 Y-92.8498
G01 F60.00
G01 Z-0.3000
G01 F120.00
G01 X138.5125 Y-92.8974
G00 Z2.0000
G00 X138.5125 Y-92.8974
G01 F60.00
G01 Z-0.3000
G01 F120.00
G01 X138.6077 Y-92.9927
G00 Z2.0000
G00 X138.6077 Y-92.9927
G01 F60.00
G01 Z-0.3000
G01 F120.00
G01 X138.6553 Y-93.0879
G00 Z2.0000
G00 X138.6553 Y-93.0879
G01 F60.00
G01 Z-0.3000
G01 F120.00
G01 X138.7030 Y-93.2784
G00 Z2.0000
G00 X137.7982 Y-92.8498
G01 F60.00
G01 Z-0.3000
G01 F120.00
G01 X137.4649 Y-93.3736
G00 Z2.0000
G00 X137.4649 Y-93.3736
G01 F60.00
G01 Z-0.3000
G01 F120.00
G01 X137.4649 Y-93.8498
G00 Z2.0000
G00 X137.4649 Y-93.3736
G01 F60.00
G01 Z-0.3000
G01 F120.00
G01 X137.1315 Y-92.8498
G00 Z2.0000
G00 X136.7982 Y-93.3260
G01 F60.00
G01 Z-0.3000
G01 F120.00
G01 X136.2268 Y-93.3260
G00 Z2.0000
G00 X136.7982 Y-92.8498
G01 F60.00
G01 Z-0.3000
G01 F120.00
G01 X136.7982 Y-93.8498
G00 Z2.0000
G00 X136.2268 Y-92.8498
G01 F60.00
G01 Z-0.3000
G01 F120.00
G01 X136.2268 Y-93.8498
G00 Z2.0000
G00 X136.2268 Y-96.6598
G01 F60.00
G01 Z-0.3000
G01 F120.00
G01 X136.2268 Y-97.6598
G00 Z2.0000
G00 X136.2268 Y-97.1360
G01 F60.00
G01 Z-0.3000
G01 F120.00
G01 X136.7982 Y-97.1360
G00 Z2.0000
G00 X136.7982 Y-96.6598
G01 F60.00
G01 Z-0.3000
G01 F120.00
G01 X136.7982 Y-97.6598
G00 Z2.0000
G00 X137.1315 Y-96.6598
G01 F60.00
G01 Z-0.3000
G01 F120.00
G01 X137.4649 Y-97.1836
G00 Z2.0000
G00 X137.4649 Y-97.1836
G01 F60.00
G01 Z-0.3000
G01 F120.00
G01 X137.4649 Y-97.6598
G00 Z2.0000
G00 X137.4649 Y-97.1836
G01 F60.00
G01 Z-0.3000
G01 F120.00
G01 X137.7982 Y-96.6598
G00 Z2.0000
G00 X138.1315 Y-96.6598
G01 F60.00
G01 Z-0.3000
G01 F120.00
G01 X138.3696 Y-96.6598
G00 Z2.0000
G00 X138.3696 Y-96.6598
G01 F60.00
G01 Z-0.3000
G01 F120.00
G01 X138.5125 Y-96.7074
G00 Z2.0000
G00 X138.5125 Y-96.7074
G01 F60.00
G01 Z-0.3000
G01 F120.00
G01 X138.6077 Y-96.8027
G00 Z2.0000
G00 X138.6077 Y-96.8027
G01 F60.00
G01 Z-0.3000
G01 F120.00
G01 X138.6553 Y-96.8979
G00 Z2.0000
G00 X138.6553 Y-96.8979
G01 F60.00
G01 Z-0.3000
G01 F120.00
G01 X138.7030 Y-97.0884
G00 Z2.0000
G00 X138.7030 Y-97.0884
G01 F60.00
G01 Z-0.3000
G01 F120.00
G01 X138.7030 Y-97.2312
G00 Z2.0000
G00 X138.7030 Y-97.2312
G01 F60.00
G01 Z-0.3000
G01 F120.00
G01 X138.6553 Y-97.4217
G00 Z2.0000
G00 X138.6553 Y-97.4217
G01 F60.00
G01 Z-0.3000
G01 F120.00
G01 X138.6077 Y-97.5170
G00 Z2.0000
G00 X138.6077 Y-97.5170
G01 F60.00
G01 Z-0.3000
G01 F120.00
G01 X138.5125 Y-97.6122
G00 Z2.0000
G00 X138.5125 Y-97.6122
G01 F60.00
G01 Z-0.3000
G01 F120.00
G01 X138.3696 Y-97.6598
G00 Z2.0000
G00 X138.3696 Y-97.6598
G01 F60.00
G01 Z-0.3000
G01 F120.00
G01 X138.1315 Y-97.6598
G00 Z2.0000
G00 X138.1315 Y-97.6598
G01 F60.00
G01 Z-0.3000
G01 F120.00
G01 X138.1315 Y-96.6598
G00 Z2.0000
G00 X139.1315 Y-96.6598
G01 F60.00
G01 Z-0.3000
G01 F120.00
G01 X139.5125 Y-96.6598
G00 Z2.0000
G00 X139.5125 Y-96.6598
G01 F60.00
G01 Z-0.3000
G01 F120.00
G01 X139.6077 Y-96.7074
G00 Z2.0000
G00 X139.6077 Y-96.7074
G01 F60.00
G01 Z-0.3000
G01 F120.00
G01 X139.6553 Y-96.7551
G00 Z2.0000
G00 X139.6553 Y-96.7551
G01 F60.00
G01 Z-0.3000
G01 F120.00
G01 X139.7030 Y-96.8503
G00 Z2.0000
G00 X139.7030 Y-96.8503
G01 F60.00
G01 Z-0.3000
G01 F120.00
G01 X139.7030 Y-96.9932
G00 Z2.0000
G00 X139.7030 Y-96.9932
G01 F60.00
G01 Z-0.3000
G01 F120.00
G01 X139.6553 Y-97.0884
G00 Z2.0000
G00 X139.6553 Y-97.0884
G01 F60.00
G01 Z-0.3000
G01 F120.00
G01 X139.6077 Y-97.1360
G00 Z2.0000
G00 X139.6077 Y-97.1360
G01 F60.00
G01 Z-0.3000
G01 F120.00
G01 X139.5125 Y-97.1836
G00 Z2.0000
G00 X139.5125 Y-97.1836
G01 F60.00
G01 Z-0.3000
G01 F120.00
G01 X139.1315 Y-97.1836
G00 Z2.0000
G00 X139.1315 Y-97.6598
G01 F60.00
G01 Z-0.3000
G01 F120.00
G01 X139.1315 Y-96.6598
G00 Z2.0000
G00 X139.0363 Y-100.1298
G01 F60.00
G01 Z-0.3000
G01 F120.00
