(G-CODE GENERATED BY FLATCAM v8.994 - www.flatcam.org - Version Date: 2020/11/7)

(Name: nanoRIghtAux-F_Cu.gbr_iso_combined_cnc)
(Type: G-code from Geometry)
(Units: MM)

(Created on Monday, 19 June 2023 at 10:53)

(This preprocessor is the default preprocessor used by FlatCAM.)
(It is made to work with MACH3 compatible motion controllers.)

(TOOL DIAMETER: 0.1 mm)
(Feedrate_XY: 120.0 mm/min)
(Feedrate_Z: 60.0 mm/min)
(Feedrate rapids 1500.0 mm/min)

(Z_Cut: 0.0 mm)
(Z_Move: 2.0 mm)
(Z Start: None mm)
(Z End: 15.0 mm)
(X,Y End: None mm)
(Steps per circle: 64)
(Preprocessor Geometry: default)

(X range:  140.0700 ...  215.4800  mm)
(Y range: -124.0900 ...  -74.0300  mm)

(Spindle Speed: 0.0 RPM)
G21
G90
G94

G01 F120.00

M5
G00 Z15.0000
G00 X0.0000 Y0.0000
T1
M6    
(MSG, Change to Tool Dia = 0.1000)
M0
G00 Z15.0000

M03
G01 F120.00
G00 X141.8018 Y-82.0693
G01 F60.00
G01 Z0.0000
G01 F120.00
G01 X141.8806 Y-82.1065
G01 X141.9637 Y-82.1362
G01 X142.0494 Y-82.1577
G01 X142.1368 Y-82.1707
G01 X142.2250 Y-82.1750
G01 X142.3132 Y-82.1707
G01 X142.4006 Y-82.1577
G01 X142.4863 Y-82.1362
G01 X142.5694 Y-82.1065
G01 X142.6493 Y-82.0687
G01 X142.7250 Y-82.0233
G01 X142.7960 Y-81.9707
G01 X142.8614 Y-81.9114
G01 X142.9207 Y-81.8460
G01 X142.9733 Y-81.7750
G01 X143.0187 Y-81.6993
G01 X143.0565 Y-81.6194
G01 X143.0862 Y-81.5363
G01 X143.1077 Y-81.4506
G01 X143.1207 Y-81.3632
G01 X143.1250 Y-81.2750
G01 X143.1207 Y-81.1868
G01 X143.1077 Y-81.0994
G01 X143.0862 Y-81.0137
G01 X143.0565 Y-80.9306
G01 X143.0187 Y-80.8507
G01 X142.9733 Y-80.7750
G01 X142.9207 Y-80.7040
G01 X142.8614 Y-80.6386
G01 X142.7960 Y-80.5793
G01 X142.7250 Y-80.5267
G01 X142.6493 Y-80.4813
G01 X142.5694 Y-80.4435
G01 X142.4863 Y-80.4138
G01 X142.4006 Y-80.3923
G01 X142.3132 Y-80.3793
G01 X142.2250 Y-80.3750
G01 X142.1368 Y-80.3793
G01 X142.0494 Y-80.3923
G01 X141.9637 Y-80.4138
G01 X141.8806 Y-80.4435
G01 X141.8007 Y-80.4813
G01 X141.7250 Y-80.5267
G01 X141.6540 Y-80.5793
G01 X141.5886 Y-80.6386
G01 X141.5293 Y-80.7040
G01 X141.4767 Y-80.7750
G01 X141.4313 Y-80.8507
G01 X141.3935 Y-80.9306
G01 X141.3638 Y-81.0137
G01 X141.3423 Y-81.0994
G01 X141.3293 Y-81.1868
G01 X141.3250 Y-81.2750
G01 X141.3293 Y-81.3632
G01 X141.3423 Y-81.4506
G01 X141.3638 Y-81.5363
G01 X141.3935 Y-81.6194
G01 X141.4313 Y-81.6993
G01 X141.4767 Y-81.7750
G01 X141.5293 Y-81.8460
G01 X141.5886 Y-81.9114
G01 X141.6540 Y-81.9707
G01 X141.7250 Y-82.0233
G01 X141.8018 Y-82.0693
G00 Z2.0000
G00 X144.3407 Y-82.0687
G01 F60.00
G01 Z0.0000
G01 F120.00
G01 X144.4206 Y-82.1065
G01 X144.5037 Y-82.1362
G01 X144.5894 Y-82.1577
G01 X144.6768 Y-82.1707
G01 X144.7650 Y-82.1750
G01 X144.8532 Y-82.1707
G01 X144.9406 Y-82.1577
G01 X145.0263 Y-82.1362
G01 X145.1094 Y-82.1065
G01 X145.1893 Y-82.0687
G01 X145.2650 Y-82.0233
G01 X145.3360 Y-81.9707
G01 X145.4014 Y-81.9114
G01 X145.4607 Y-81.8460
G01 X145.5133 Y-81.7750
G01 X145.5587 Y-81.6993
G01 X145.5965 Y-81.6194
G01 X145.6262 Y-81.5363
G01 X145.6477 Y-81.4506
G01 X145.6607 Y-81.3632
G01 X145.6650 Y-81.2750
G01 X145.6607 Y-81.1868
G01 X145.6477 Y-81.0994
G01 X145.6262 Y-81.0137
G01 X145.5965 Y-80.9306
G01 X145.5587 Y-80.8507
G01 X145.5133 Y-80.7750
G01 X145.4607 Y-80.7040
G01 X145.4014 Y-80.6386
G01 X145.3360 Y-80.5793
G01 X145.2650 Y-80.5267
G01 X145.1893 Y-80.4813
G01 X145.1094 Y-80.4435
G01 X145.0263 Y-80.4138
G01 X144.9406 Y-80.3923
G01 X144.8532 Y-80.3793
G01 X144.7650 Y-80.3750
G01 X144.6768 Y-80.3793
G01 X144.5894 Y-80.3923
G01 X144.5037 Y-80.4138
G01 X144.4206 Y-80.4435
G01 X144.3407 Y-80.4813
G01 X144.2650 Y-80.5267
G01 X144.1940 Y-80.5793
G01 X144.1286 Y-80.6386
G01 X144.0693 Y-80.7040
G01 X144.0167 Y-80.7750
G01 X143.9713 Y-80.8507
G01 X143.9335 Y-80.9306
G01 X143.9038 Y-81.0137
G01 X143.8823 Y-81.0994
G01 X143.8693 Y-81.1868
G01 X143.8650 Y-81.2750
G01 X143.8693 Y-81.3632
G01 X143.8823 Y-81.4506
G01 X143.9038 Y-81.5363
G01 X143.9335 Y-81.6194
G01 X143.9713 Y-81.6993
G01 X144.0167 Y-81.7750
G01 X144.0693 Y-81.8460
G01 X144.1286 Y-81.9114
G01 X144.1940 Y-81.9707
G01 X144.2650 Y-82.0233
G01 X144.3407 Y-82.0687
G00 Z2.0000
G00 X146.4465 Y-82.1743
G01 F60.00
G01 Z0.0000
G01 F120.00
G01 X146.4550 Y-82.1750
G01 X148.1550 Y-82.1750
G01 X148.1648 Y-82.1740
G01 X148.1741 Y-82.1712
G01 X148.1828 Y-82.1666
G01 X148.1904 Y-82.1604
G01 X148.1966 Y-82.1528
G01 X148.2012 Y-82.1441
G01 X148.2040 Y-82.1348
G01 X148.2050 Y-82.1250
G01 X148.2050 Y-80.4250
G01 X148.2040 Y-80.4152
G01 X148.2012 Y-80.4059
G01 X148.1966 Y-80.3972
G01 X148.1904 Y-80.3896
G01 X148.1828 Y-80.3834
G01 X148.1741 Y-80.3788
G01 X148.1648 Y-80.3760
G01 X148.1550 Y-80.3750
G01 X146.4550 Y-80.3750
G01 X146.4452 Y-80.3760
G01 X146.4359 Y-80.3788
G01 X146.4272 Y-80.3834
G01 X146.4196 Y-80.3896
G01 X146.4134 Y-80.3972
G01 X146.4088 Y-80.4059
G01 X146.4060 Y-80.4152
G01 X146.4050 Y-80.4250
G01 X146.4050 Y-82.1262
G01 X146.4060 Y-82.1348
G01 X146.4084 Y-82.1430
G01 X146.4121 Y-82.1507
G01 X146.4171 Y-82.1577
G01 X146.4233 Y-82.1637
G01 X146.4304 Y-82.1685
G01 X146.4382 Y-82.1721
G01 X146.4465 Y-82.1743
G00 Z2.0000
G00 X146.8807 Y-84.6087
G01 F60.00
G01 Z0.0000
G01 F120.00
G01 X146.9606 Y-84.6465
G01 X147.0437 Y-84.6762
G01 X147.1294 Y-84.6977
G01 X147.2168 Y-84.7107
G01 X147.3050 Y-84.7150
G01 X147.3932 Y-84.7107
G01 X147.4806 Y-84.6977
G01 X147.5663 Y-84.6762
G01 X147.6494 Y-84.6465
G01 X147.7293 Y-84.6087
G01 X147.8050 Y-84.5633
G01 X147.8760 Y-84.5107
G01 X147.9414 Y-84.4514
G01 X148.0007 Y-84.3860
G01 X148.0533 Y-84.3150
G01 X148.0987 Y-84.2393
G01 X148.1365 Y-84.1594
G01 X148.1662 Y-84.0763
G01 X148.1877 Y-83.9906
G01 X148.2007 Y-83.9032
G01 X148.2050 Y-83.8150
G01 X148.2007 Y-83.7268
G01 X148.1877 Y-83.6394
G01 X148.1662 Y-83.5537
G01 X148.1365 Y-83.4706
G01 X148.0987 Y-83.3907
G01 X148.0533 Y-83.3150
G01 X148.0007 Y-83.2440
G01 X147.9414 Y-83.1786
G01 X147.8760 Y-83.1193
G01 X147.8050 Y-83.0667
G01 X147.7293 Y-83.0213
G01 X147.6494 Y-82.9835
G01 X147.5663 Y-82.9538
G01 X147.4806 Y-82.9323
G01 X147.3932 Y-82.9193
G01 X147.3050 Y-82.9150
G01 X147.2168 Y-82.9193
G01 X147.1294 Y-82.9323
G01 X147.0437 Y-82.9538
G01 X146.9606 Y-82.9835
G01 X146.8807 Y-83.0213
G01 X146.8050 Y-83.0667
G01 X146.7340 Y-83.1193
G01 X146.6686 Y-83.1786
G01 X146.6093 Y-83.2440
G01 X146.5567 Y-83.3150
G01 X146.5113 Y-83.3907
G01 X146.4735 Y-83.4706
G01 X146.4438 Y-83.5537
G01 X146.4223 Y-83.6394
G01 X146.4093 Y-83.7268
G01 X146.4050 Y-83.8150
G01 X146.4093 Y-83.9032
G01 X146.4223 Y-83.9906
G01 X146.4438 Y-84.0763
G01 X146.4735 Y-84.1594
G01 X146.5113 Y-84.2393
G01 X146.5567 Y-84.3150
G01 X146.6093 Y-84.3860
G01 X146.6686 Y-84.4514
G01 X146.7340 Y-84.5107
G01 X146.8050 Y-84.5633
G01 X146.8807 Y-84.6087
G00 Z2.0000
G00 X144.3407 Y-84.6087
G01 F60.00
G01 Z0.0000
G01 F120.00
G01 X144.4206 Y-84.6465
G01 X144.5037 Y-84.6762
G01 X144.5894 Y-84.6977
G01 X144.6768 Y-84.7107
G01 X144.7650 Y-84.7150
G01 X144.8532 Y-84.7107
G01 X144.9406 Y-84.6977
G01 X145.0263 Y-84.6762
G01 X145.1094 Y-84.6465
G01 X145.1893 Y-84.6087
G01 X145.2650 Y-84.5633
G01 X145.3360 Y-84.5107
G01 X145.4014 Y-84.4514
G01 X145.4607 Y-84.3860
G01 X145.5133 Y-84.3150
G01 X145.5587 Y-84.2393
G01 X145.5965 Y-84.1594
G01 X145.6262 Y-84.0763
G01 X145.6477 Y-83.9906
G01 X145.6607 Y-83.9032
G01 X145.6650 Y-83.8150
G01 X145.6607 Y-83.7268
G01 X145.6477 Y-83.6394
G01 X145.6262 Y-83.5537
G01 X145.5965 Y-83.4706
G01 X145.5587 Y-83.3907
G01 X145.5133 Y-83.3150
G01 X145.4607 Y-83.2440
G01 X145.4014 Y-83.1786
G01 X145.3360 Y-83.1193
G01 X145.2650 Y-83.0667
G01 X145.1893 Y-83.0213
G01 X145.1094 Y-82.9835
G01 X145.0263 Y-82.9538
G01 X144.9406 Y-82.9323
G01 X144.8532 Y-82.9193
G01 X144.7650 Y-82.9150
G01 X144.6768 Y-82.9193
G01 X144.5894 Y-82.9323
G01 X144.5037 Y-82.9538
G01 X144.4206 Y-82.9835
G01 X144.3407 Y-83.0213
G01 X144.2650 Y-83.0667
G01 X144.1940 Y-83.1193
G01 X144.1286 Y-83.1786
G01 X144.0693 Y-83.2440
G01 X144.0167 Y-83.3150
G01 X143.9713 Y-83.3907
G01 X143.9335 Y-83.4706
G01 X143.9038 Y-83.5537
G01 X143.8823 Y-83.6394
G01 X143.8693 Y-83.7268
G01 X143.8650 Y-83.8150
G01 X143.8693 Y-83.9032
G01 X143.8823 Y-83.9906
G01 X143.9038 Y-84.0763
G01 X143.9335 Y-84.1594
G01 X143.9713 Y-84.2393
G01 X144.0167 Y-84.3150
G01 X144.0693 Y-84.3860
G01 X144.1286 Y-84.4514
G01 X144.1940 Y-84.5107
G01 X144.2650 Y-84.5633
G01 X144.3407 Y-84.6087
G00 Z2.0000
G00 X141.8007 Y-84.6087
G01 F60.00
G01 Z0.0000
G01 F120.00
G01 X141.8806 Y-84.6465
G01 X141.9637 Y-84.6762
G01 X142.0494 Y-84.6977
G01 X142.1368 Y-84.7107
G01 X142.2250 Y-84.7150
G01 X142.3132 Y-84.7107
G01 X142.4006 Y-84.6977
G01 X142.4863 Y-84.6762
G01 X142.5694 Y-84.6465
G01 X142.6493 Y-84.6087
G01 X142.7250 Y-84.5633
G01 X142.7960 Y-84.5107
G01 X142.8614 Y-84.4514
G01 X142.9207 Y-84.3860
G01 X142.9733 Y-84.3150
G01 X143.0187 Y-84.2393
G01 X143.0565 Y-84.1594
G01 X143.0862 Y-84.0763
G01 X143.1077 Y-83.9906
G01 X143.1207 Y-83.9032
G01 X143.1250 Y-83.8150
G01 X143.1207 Y-83.7268
G01 X143.1077 Y-83.6394
G01 X143.0862 Y-83.5537
G01 X143.0565 Y-83.4706
G01 X143.0187 Y-83.3907
G01 X142.9733 Y-83.3150
G01 X142.9207 Y-83.2440
G01 X142.8614 Y-83.1786
G01 X142.7960 Y-83.1193
G01 X142.7250 Y-83.0667
G01 X142.6493 Y-83.0213
G01 X142.5694 Y-82.9835
G01 X142.4863 Y-82.9538
G01 X142.4006 Y-82.9323
G01 X142.3132 Y-82.9193
G01 X142.2250 Y-82.9150
G01 X142.1368 Y-82.9193
G01 X142.0494 Y-82.9323
G01 X141.9637 Y-82.9538
G01 X141.8806 Y-82.9835
G01 X141.8007 Y-83.0213
G01 X141.7250 Y-83.0667
G01 X141.6540 Y-83.1193
G01 X141.5886 Y-83.1786
G01 X141.5293 Y-83.2440
G01 X141.4767 Y-83.3150
G01 X141.4313 Y-83.3907
G01 X141.3935 Y-83.4706
G01 X141.3638 Y-83.5537
G01 X141.3423 Y-83.6394
G01 X141.3293 Y-83.7268
G01 X141.3250 Y-83.8150
G01 X141.3293 Y-83.9032
G01 X141.3423 Y-83.9906
G01 X141.3638 Y-84.0763
G01 X141.3935 Y-84.1594
G01 X141.4313 Y-84.2393
G01 X141.4767 Y-84.3150
G01 X141.5293 Y-84.3860
G01 X141.5886 Y-84.4514
G01 X141.6540 Y-84.5107
G01 X141.7250 Y-84.5633
G01 X141.8007 Y-84.6087
G00 Z2.0000
G00 X141.8157 Y-88.4237
G01 F60.00
G01 Z0.0000
G01 F120.00
G01 X141.8956 Y-88.4615
G01 X141.9787 Y-88.4912
G01 X142.0644 Y-88.5127
G01 X142.1518 Y-88.5257
G01 X142.2400 Y-88.5300
G01 X142.3282 Y-88.5257
G01 X142.4156 Y-88.5127
G01 X142.5013 Y-88.4912
G01 X142.5844 Y-88.4615
G01 X142.6643 Y-88.4237
G01 X142.7400 Y-88.3783
G01 X142.8110 Y-88.3257
G01 X142.8764 Y-88.2664
G01 X142.9357 Y-88.2010
G01 X142.9883 Y-88.1300
G01 X143.0337 Y-88.0543
G01 X143.0715 Y-87.9744
G01 X143.1012 Y-87.8913
G01 X143.1227 Y-87.8056
G01 X143.1357 Y-87.7182
G01 X143.1400 Y-87.6300
G01 X143.1357 Y-87.5418
G01 X143.1227 Y-87.4544
G01 X143.1012 Y-87.3687
G01 X143.0715 Y-87.2856
G01 X143.0337 Y-87.2057
G01 X142.9883 Y-87.1300
G01 X142.9357 Y-87.0590
G01 X142.8764 Y-86.9936
G01 X142.8110 Y-86.9343
G01 X142.7400 Y-86.8817
G01 X142.6643 Y-86.8363
G01 X142.5844 Y-86.7985
G01 X142.5013 Y-86.7688
G01 X142.4156 Y-86.7473
G01 X142.3282 Y-86.7343
G01 X142.2400 Y-86.7300
G01 X142.1518 Y-86.7343
G01 X142.0644 Y-86.7473
G01 X141.9787 Y-86.7688
G01 X141.8956 Y-86.7985
G01 X141.8157 Y-86.8363
G01 X141.7400 Y-86.8817
G01 X141.6690 Y-86.9343
G01 X141.6036 Y-86.9936
G01 X141.5443 Y-87.0590
G01 X141.4917 Y-87.1300
G01 X141.4463 Y-87.2057
G01 X141.4085 Y-87.2856
G01 X141.3788 Y-87.3687
G01 X141.3573 Y-87.4544
G01 X141.3443 Y-87.5418
G01 X141.3400 Y-87.6300
G01 X141.3443 Y-87.7182
G01 X141.3573 Y-87.8056
G01 X141.3788 Y-87.8913
G01 X141.4085 Y-87.9744
G01 X141.4463 Y-88.0543
G01 X141.4917 Y-88.1300
G01 X141.5443 Y-88.2010
G01 X141.6036 Y-88.2664
G01 X141.6690 Y-88.3257
G01 X141.7400 Y-88.3783
G01 X141.8157 Y-88.4237
G00 Z2.0000
G00 X141.8157 Y-90.9637
G01 F60.00
G01 Z0.0000
G01 F120.00
G01 X141.8956 Y-91.0015
G01 X141.9787 Y-91.0312
G01 X142.0644 Y-91.0527
G01 X142.1518 Y-91.0657
G01 X142.2400 Y-91.0700
G01 X142.3282 Y-91.0657
G01 X142.4156 Y-91.0527
G01 X142.5013 Y-91.0312
G01 X142.5844 Y-91.0015
G01 X142.6643 Y-90.9637
G01 X142.7400 Y-90.9183
G01 X142.8110 Y-90.8657
G01 X142.8764 Y-90.8064
G01 X142.9357 Y-90.7410
G01 X142.9883 Y-90.6700
G01 X143.0337 Y-90.5943
G01 X143.0715 Y-90.5144
G01 X143.1012 Y-90.4313
G01 X143.1227 Y-90.3456
G01 X143.1357 Y-90.2582
G01 X143.1400 Y-90.1700
G01 X143.1357 Y-90.0818
G01 X143.1227 Y-89.9944
G01 X143.1012 Y-89.9087
G01 X143.0715 Y-89.8256
G01 X143.0337 Y-89.7457
G01 X142.9883 Y-89.6700
G01 X142.9357 Y-89.5990
G01 X142.8764 Y-89.5336
G01 X142.8110 Y-89.4743
G01 X142.7400 Y-89.4217
G01 X142.6643 Y-89.3763
G01 X142.5844 Y-89.3385
G01 X142.5013 Y-89.3088
G01 X142.4156 Y-89.2873
G01 X142.3282 Y-89.2743
G01 X142.2400 Y-89.2700
G01 X142.1518 Y-89.2743
G01 X142.0644 Y-89.2873
G01 X141.9787 Y-89.3088
G01 X141.8956 Y-89.3385
G01 X141.8157 Y-89.3763
G01 X141.7400 Y-89.4217
G01 X141.6690 Y-89.4743
G01 X141.6036 Y-89.5336
G01 X141.5443 Y-89.5990
G01 X141.4917 Y-89.6700
G01 X141.4463 Y-89.7457
G01 X141.4085 Y-89.8256
G01 X141.3788 Y-89.9087
G01 X141.3573 Y-89.9944
G01 X141.3443 Y-90.0818
G01 X141.3400 Y-90.1700
G01 X141.3443 Y-90.2582
G01 X141.3573 Y-90.3456
G01 X141.3788 Y-90.4313
G01 X141.4085 Y-90.5144
G01 X141.4463 Y-90.5943
G01 X141.4917 Y-90.6700
G01 X141.5443 Y-90.7410
G01 X141.6036 Y-90.8064
G01 X141.6690 Y-90.8657
G01 X141.7400 Y-90.9183
G01 X141.8157 Y-90.9637
G00 Z2.0000
G00 X144.3557 Y-90.9637
G01 F60.00
G01 Z0.0000
G01 F120.00
G01 X144.4356 Y-91.0015
G01 X144.5187 Y-91.0312
G01 X144.6044 Y-91.0527
G01 X144.6918 Y-91.0657
G01 X144.7800 Y-91.0700
G01 X144.8682 Y-91.0657
G01 X144.9556 Y-91.0527
G01 X145.0413 Y-91.0312
G01 X145.1244 Y-91.0015
G01 X145.2043 Y-90.9637
G01 X145.2800 Y-90.9183
G01 X145.3510 Y-90.8657
G01 X145.4164 Y-90.8064
G01 X145.4757 Y-90.7410
G01 X145.5283 Y-90.6700
G01 X145.5737 Y-90.5943
G01 X145.6115 Y-90.5144
G01 X145.6412 Y-90.4313
G01 X145.6627 Y-90.3456
G01 X145.6757 Y-90.2582
G01 X145.6800 Y-90.1700
G01 X145.6757 Y-90.0818
G01 X145.6627 Y-89.9944
G01 X145.6412 Y-89.9087
G01 X145.6115 Y-89.8256
G01 X145.5737 Y-89.7457
G01 X145.5283 Y-89.6700
G01 X145.4757 Y-89.5990
G01 X145.4164 Y-89.5336
G01 X145.3510 Y-89.4743
G01 X145.2800 Y-89.4217
G01 X145.2043 Y-89.3763
G01 X145.1244 Y-89.3385
G01 X145.0413 Y-89.3088
G01 X144.9556 Y-89.2873
G01 X144.8682 Y-89.2743
G01 X144.7800 Y-89.2700
G01 X144.6918 Y-89.2743
G01 X144.6044 Y-89.2873
G01 X144.5187 Y-89.3088
G01 X144.4356 Y-89.3385
G01 X144.3557 Y-89.3763
G01 X144.2800 Y-89.4217
G01 X144.2090 Y-89.4743
G01 X144.1436 Y-89.5336
G01 X144.0843 Y-89.5990
G01 X144.0317 Y-89.6700
G01 X143.9863 Y-89.7457
G01 X143.9485 Y-89.8256
G01 X143.9188 Y-89.9087
G01 X143.8973 Y-89.9944
G01 X143.8843 Y-90.0818
G01 X143.8800 Y-90.1700
G01 X143.8843 Y-90.2582
G01 X143.8973 Y-90.3456
G01 X143.9188 Y-90.4313
G01 X143.9485 Y-90.5144
G01 X143.9863 Y-90.5943
G01 X144.0317 Y-90.6700
G01 X144.0843 Y-90.7410
G01 X144.1436 Y-90.8064
G01 X144.2090 Y-90.8657
G01 X144.2800 Y-90.9183
G01 X144.3557 Y-90.9637
G00 Z2.0000
G00 X146.8957 Y-90.9637
G01 F60.00
G01 Z0.0000
G01 F120.00
G01 X146.9756 Y-91.0015
G01 X147.0587 Y-91.0312
G01 X147.1444 Y-91.0527
G01 X147.2318 Y-91.0657
G01 X147.3200 Y-91.0700
G01 X147.4082 Y-91.0657
G01 X147.4956 Y-91.0527
G01 X147.5813 Y-91.0312
G01 X147.6644 Y-91.0015
G01 X147.7443 Y-90.9637
G01 X147.8200 Y-90.9183
G01 X147.8910 Y-90.8657
G01 X147.9564 Y-90.8064
G01 X148.0157 Y-90.7410
G01 X148.0683 Y-90.6700
G01 X148.1137 Y-90.5943
G01 X148.1515 Y-90.5144
G01 X148.1812 Y-90.4313
G01 X148.2027 Y-90.3456
G01 X148.2157 Y-90.2582
G01 X148.2200 Y-90.1700
G01 X148.2157 Y-90.0818
G01 X148.2027 Y-89.9944
G01 X148.1812 Y-89.9087
G01 X148.1515 Y-89.8256
G01 X148.1137 Y-89.7457
G01 X148.0683 Y-89.6700
G01 X148.0157 Y-89.5990
G01 X147.9564 Y-89.5336
G01 X147.8910 Y-89.4743
G01 X147.8200 Y-89.4217
G01 X147.7443 Y-89.3763
G01 X147.6644 Y-89.3385
G01 X147.5813 Y-89.3088
G01 X147.4956 Y-89.2873
G01 X147.4082 Y-89.2743
G01 X147.3200 Y-89.2700
G01 X147.2318 Y-89.2743
G01 X147.1444 Y-89.2873
G01 X147.0587 Y-89.3088
G01 X146.9756 Y-89.3385
G01 X146.8957 Y-89.3763
G01 X146.8200 Y-89.4217
G01 X146.7490 Y-89.4743
G01 X146.6836 Y-89.5336
G01 X146.6243 Y-89.5990
G01 X146.5717 Y-89.6700
G01 X146.5263 Y-89.7457
G01 X146.4885 Y-89.8256
G01 X146.4588 Y-89.9087
G01 X146.4373 Y-89.9944
G01 X146.4243 Y-90.0818
G01 X146.4200 Y-90.1700
G01 X146.4243 Y-90.2582
G01 X146.4373 Y-90.3456
G01 X146.4588 Y-90.4313
G01 X146.4885 Y-90.5144
G01 X146.5263 Y-90.5943
G01 X146.5717 Y-90.6700
G01 X146.6243 Y-90.7410
G01 X146.6836 Y-90.8064
G01 X146.7490 Y-90.8657
G01 X146.8200 Y-90.9183
G01 X146.8957 Y-90.9637
G00 Z2.0000
G00 X146.4627 Y-88.5295
G01 F60.00
G01 Z0.0000
G01 F120.00
G01 X146.4700 Y-88.5300
G01 X148.1700 Y-88.5300
G01 X148.1798 Y-88.5290
G01 X148.1891 Y-88.5262
G01 X148.1978 Y-88.5216
G01 X148.2054 Y-88.5154
G01 X148.2116 Y-88.5078
G01 X148.2162 Y-88.4991
G01 X148.2190 Y-88.4898
G01 X148.2200 Y-88.4800
G01 X148.2200 Y-86.7800
G01 X148.2190 Y-86.7702
G01 X148.2162 Y-86.7609
G01 X148.2116 Y-86.7522
G01 X148.2054 Y-86.7446
G01 X148.1978 Y-86.7384
G01 X148.1891 Y-86.7338
G01 X148.1798 Y-86.7310
G01 X148.1700 Y-86.7300
G01 X146.4700 Y-86.7300
G01 X146.4602 Y-86.7310
G01 X146.4509 Y-86.7338
G01 X146.4422 Y-86.7384
G01 X146.4346 Y-86.7446
G01 X146.4284 Y-86.7522
G01 X146.4238 Y-86.7609
G01 X146.4210 Y-86.7702
G01 X146.4200 Y-86.7800
G01 X146.4200 Y-88.4812
G01 X146.4210 Y-88.4898
G01 X146.4234 Y-88.4980
G01 X146.4271 Y-88.5057
G01 X146.4330 Y-88.5136
G01 X146.4392 Y-88.5194
G01 X146.4464 Y-88.5241
G01 X146.4543 Y-88.5275
G01 X146.4627 Y-88.5295
G00 Z2.0000
G00 X144.3557 Y-88.4237
G01 F60.00
G01 Z0.0000
G01 F120.00
G01 X144.4356 Y-88.4615
G01 X144.5187 Y-88.4912
G01 X144.6044 Y-88.5127
G01 X144.6918 Y-88.5257
G01 X144.7800 Y-88.5300
G01 X144.8682 Y-88.5257
G01 X144.9556 Y-88.5127
G01 X145.0413 Y-88.4912
G01 X145.1244 Y-88.4615
G01 X145.2043 Y-88.4237
G01 X145.2800 Y-88.3783
G01 X145.3510 Y-88.3257
G01 X145.4164 Y-88.2664
G01 X145.4757 Y-88.2010
G01 X145.5283 Y-88.1300
G01 X145.5737 Y-88.0543
G01 X145.6115 Y-87.9744
G01 X145.6412 Y-87.8913
G01 X145.6627 Y-87.8056
G01 X145.6757 Y-87.7182
G01 X145.6800 Y-87.6300
G01 X145.6757 Y-87.5418
G01 X145.6627 Y-87.4544
G01 X145.6412 Y-87.3687
G01 X145.6115 Y-87.2856
G01 X145.5737 Y-87.2057
G01 X145.5283 Y-87.1300
G01 X145.4757 Y-87.0590
G01 X145.4164 Y-86.9936
G01 X145.3510 Y-86.9343
G01 X145.2800 Y-86.8817
G01 X145.2043 Y-86.8363
G01 X145.1244 Y-86.7985
G01 X145.0413 Y-86.7688
G01 X144.9556 Y-86.7473
G01 X144.8682 Y-86.7343
G01 X144.7800 Y-86.7300
G01 X144.6918 Y-86.7343
G01 X144.6044 Y-86.7473
G01 X144.5187 Y-86.7688
G01 X144.4356 Y-86.7985
G01 X144.3557 Y-86.8363
G01 X144.2800 Y-86.8817
G01 X144.2090 Y-86.9343
G01 X144.1436 Y-86.9936
G01 X144.0843 Y-87.0590
G01 X144.0317 Y-87.1300
G01 X143.9863 Y-87.2057
G01 X143.9485 Y-87.2856
G01 X143.9188 Y-87.3687
G01 X143.8973 Y-87.4544
G01 X143.8843 Y-87.5418
G01 X143.8800 Y-87.6300
G01 X143.8843 Y-87.7182
G01 X143.8973 Y-87.8056
G01 X143.9188 Y-87.8913
G01 X143.9485 Y-87.9744
G01 X143.9863 Y-88.0543
G01 X144.0317 Y-88.1300
G01 X144.0843 Y-88.2010
G01 X144.1436 Y-88.2664
G01 X144.2090 Y-88.3257
G01 X144.2800 Y-88.3783
G01 X144.3557 Y-88.4237
G00 Z2.0000
G00 X144.3407 Y-94.7737
G01 F60.00
G01 Z0.0000
G01 F120.00
G01 X144.4206 Y-94.8115
G01 X144.5037 Y-94.8412
G01 X144.5894 Y-94.8627
G01 X144.6768 Y-94.8757
G01 X144.7650 Y-94.8800
G01 X144.8532 Y-94.8757
G01 X144.9406 Y-94.8627
G01 X145.0263 Y-94.8412
G01 X145.1094 Y-94.8115
G01 X145.1893 Y-94.7737
G01 X145.2650 Y-94.7283
G01 X145.3360 Y-94.6757
G01 X145.4014 Y-94.6164
G01 X145.4607 Y-94.5510
G01 X145.5133 Y-94.4800
G01 X145.5587 Y-94.4043
G01 X145.5965 Y-94.3244
G01 X145.6262 Y-94.2413
G01 X145.6477 Y-94.1556
G01 X145.6607 Y-94.0682
G01 X145.6650 Y-93.9800
G01 X145.6607 Y-93.8918
G01 X145.6477 Y-93.8044
G01 X145.6262 Y-93.7187
G01 X145.5965 Y-93.6356
G01 X145.5587 Y-93.5557
G01 X145.5133 Y-93.4800
G01 X145.4607 Y-93.4090
G01 X145.4014 Y-93.3436
G01 X145.3360 Y-93.2843
G01 X145.2650 Y-93.2317
G01 X145.1893 Y-93.1863
G01 X145.1094 Y-93.1485
G01 X145.0263 Y-93.1188
G01 X144.9406 Y-93.0973
G01 X144.8532 Y-93.0843
G01 X144.7650 Y-93.0800
G01 X144.6768 Y-93.0843
G01 X144.5894 Y-93.0973
G01 X144.5037 Y-93.1188
G01 X144.4206 Y-93.1485
G01 X144.3407 Y-93.1863
G01 X144.2650 Y-93.2317
G01 X144.1940 Y-93.2843
G01 X144.1286 Y-93.3436
G01 X144.0693 Y-93.4090
G01 X144.0167 Y-93.4800
G01 X143.9713 Y-93.5557
G01 X143.9335 Y-93.6356
G01 X143.9038 Y-93.7187
G01 X143.8823 Y-93.8044
G01 X143.8693 Y-93.8918
G01 X143.8650 Y-93.9800
G01 X143.8693 Y-94.0682
G01 X143.8823 Y-94.1556
G01 X143.9038 Y-94.2413
G01 X143.9335 Y-94.3244
G01 X143.9713 Y-94.4043
G01 X144.0167 Y-94.4800
G01 X144.0693 Y-94.5510
G01 X144.1286 Y-94.6164
G01 X144.1940 Y-94.6757
G01 X144.2650 Y-94.7283
G01 X144.3407 Y-94.7737
G00 Z2.0000
G00 X146.4465 Y-94.8793
G01 F60.00
G01 Z0.0000
G01 F120.00
G01 X146.4550 Y-94.8800
G01 X148.1550 Y-94.8800
G01 X148.1648 Y-94.8790
G01 X148.1741 Y-94.8762
G01 X148.1828 Y-94.8716
G01 X148.1904 Y-94.8654
G01 X148.1966 Y-94.8578
G01 X148.2012 Y-94.8491
G01 X148.2040 Y-94.8398
G01 X148.2050 Y-94.8300
G01 X148.2050 Y-93.1300
G01 X148.2040 Y-93.1202
G01 X148.2012 Y-93.1109
G01 X148.1966 Y-93.1022
G01 X148.1904 Y-93.0946
G01 X148.1828 Y-93.0884
G01 X148.1741 Y-93.0838
G01 X148.1648 Y-93.0810
G01 X148.1550 Y-93.0800
G01 X146.4550 Y-93.0800
G01 X146.4452 Y-93.0810
G01 X146.4359 Y-93.0838
G01 X146.4272 Y-93.0884
G01 X146.4196 Y-93.0946
G01 X146.4134 Y-93.1022
G01 X146.4088 Y-93.1109
G01 X146.4060 Y-93.1202
G01 X146.4050 Y-93.1300
G01 X146.4050 Y-94.8312
G01 X146.4060 Y-94.8398
G01 X146.4084 Y-94.8480
G01 X146.4121 Y-94.8557
G01 X146.4171 Y-94.8627
G01 X146.4233 Y-94.8687
G01 X146.4304 Y-94.8735
G01 X146.4382 Y-94.8771
G01 X146.4465 Y-94.8793
G00 Z2.0000
G00 X146.4465 Y-98.6893
G01 F60.00
G01 Z0.0000
G01 F120.00
G01 X146.4550 Y-98.6900
G01 X148.1550 Y-98.6900
G01 X148.1648 Y-98.6890
G01 X148.1741 Y-98.6862
G01 X148.1828 Y-98.6816
G01 X148.1904 Y-98.6754
G01 X148.1966 Y-98.6678
G01 X148.2012 Y-98.6591
G01 X148.2040 Y-98.6498
G01 X148.2050 Y-98.6400
G01 X148.2050 Y-96.9400
G01 X148.2040 Y-96.9302
G01 X148.2012 Y-96.9209
G01 X148.1966 Y-96.9122
G01 X148.1904 Y-96.9046
G01 X148.1828 Y-96.8984
G01 X148.1741 Y-96.8938
G01 X148.1648 Y-96.8910
G01 X148.1550 Y-96.8900
G01 X146.4550 Y-96.8900
G01 X146.4452 Y-96.8910
G01 X146.4359 Y-96.8938
G01 X146.4272 Y-96.8984
G01 X146.4196 Y-96.9046
G01 X146.4134 Y-96.9122
G01 X146.4088 Y-96.9209
G01 X146.4060 Y-96.9302
G01 X146.4050 Y-96.9400
G01 X146.4050 Y-98.6412
G01 X146.4060 Y-98.6498
G01 X146.4084 Y-98.6580
G01 X146.4121 Y-98.6657
G01 X146.4171 Y-98.6727
G01 X146.4233 Y-98.6787
G01 X146.4304 Y-98.6835
G01 X146.4382 Y-98.6871
G01 X146.4465 Y-98.6893
G00 Z2.0000
G00 X144.3407 Y-98.5837
G01 F60.00
G01 Z0.0000
G01 F120.00
G01 X144.4206 Y-98.6215
G01 X144.5037 Y-98.6512
G01 X144.5894 Y-98.6727
G01 X144.6768 Y-98.6857
G01 X144.7650 Y-98.6900
G01 X144.8532 Y-98.6857
G01 X144.9406 Y-98.6727
G01 X145.0263 Y-98.6512
G01 X145.1094 Y-98.6215
G01 X145.1893 Y-98.5837
G01 X145.2650 Y-98.5383
G01 X145.3360 Y-98.4857
G01 X145.4014 Y-98.4264
G01 X145.4607 Y-98.3610
G01 X145.5133 Y-98.2900
G01 X145.5587 Y-98.2143
G01 X145.5965 Y-98.1344
G01 X145.6262 Y-98.0513
G01 X145.6477 Y-97.9656
G01 X145.6607 Y-97.8782
G01 X145.6650 Y-97.7900
G01 X145.6607 Y-97.7018
G01 X145.6477 Y-97.6144
G01 X145.6262 Y-97.5287
G01 X145.5965 Y-97.4456
G01 X145.5587 Y-97.3657
G01 X145.5133 Y-97.2900
G01 X145.4607 Y-97.2190
G01 X145.4014 Y-97.1536
G01 X145.3360 Y-97.0943
G01 X145.2650 Y-97.0417
G01 X145.1893 Y-96.9963
G01 X145.1094 Y-96.9585
G01 X145.0263 Y-96.9288
G01 X144.9406 Y-96.9073
G01 X144.8532 Y-96.8943
G01 X144.7650 Y-96.8900
G01 X144.6768 Y-96.8943
G01 X144.5894 Y-96.9073
G01 X144.5037 Y-96.9288
G01 X144.4206 Y-96.9585
G01 X144.3407 Y-96.9963
G01 X144.2650 Y-97.0417
G01 X144.1940 Y-97.0943
G01 X144.1286 Y-97.1536
G01 X144.0693 Y-97.2190
G01 X144.0167 Y-97.2900
G01 X143.9713 Y-97.3657
G01 X143.9335 Y-97.4456
G01 X143.9038 Y-97.5287
G01 X143.8823 Y-97.6144
G01 X143.8693 Y-97.7018
G01 X143.8650 Y-97.7900
G01 X143.8693 Y-97.8782
G01 X143.8823 Y-97.9656
G01 X143.9038 Y-98.0513
G01 X143.9335 Y-98.1344
G01 X143.9713 Y-98.2143
G01 X144.0167 Y-98.2900
G01 X144.0693 Y-98.3610
G01 X144.1286 Y-98.4264
G01 X144.1940 Y-98.4857
G01 X144.2650 Y-98.5383
G01 X144.3407 Y-98.5837
G00 Z2.0000
G00 X141.8007 Y-98.5837
G01 F60.00
G01 Z0.0000
G01 F120.00
G01 X141.8806 Y-98.6215
G01 X141.9637 Y-98.6512
G01 X142.0494 Y-98.6727
G01 X142.1368 Y-98.6857
G01 X142.2250 Y-98.6900
G01 X142.3132 Y-98.6857
G01 X142.4006 Y-98.6727
G01 X142.4863 Y-98.6512
G01 X142.5694 Y-98.6215
G01 X142.6493 Y-98.5837
G01 X142.7250 Y-98.5383
G01 X142.7960 Y-98.4857
G01 X142.8614 Y-98.4264
G01 X142.9207 Y-98.3610
G01 X142.9733 Y-98.2900
G01 X143.0187 Y-98.2143
G01 X143.0565 Y-98.1344
G01 X143.0862 Y-98.0513
G01 X143.1077 Y-97.9656
G01 X143.1207 Y-97.8782
G01 X143.1250 Y-97.7900
G01 X143.1207 Y-97.7018
G01 X143.1077 Y-97.6144
G01 X143.0862 Y-97.5287
G01 X143.0565 Y-97.4456
G01 X143.0187 Y-97.3657
G01 X142.9733 Y-97.2900
G01 X142.9207 Y-97.2190
G01 X142.8614 Y-97.1536
G01 X142.7960 Y-97.0943
G01 X142.7250 Y-97.0417
G01 X142.6493 Y-96.9963
G01 X142.5694 Y-96.9585
G01 X142.4863 Y-96.9288
G01 X142.4006 Y-96.9073
G01 X142.3132 Y-96.8943
G01 X142.2250 Y-96.8900
G01 X142.1368 Y-96.8943
G01 X142.0494 Y-96.9073
G01 X141.9637 Y-96.9288
G01 X141.8806 Y-96.9585
G01 X141.8007 Y-96.9963
G01 X141.7250 Y-97.0417
G01 X141.6540 Y-97.0943
G01 X141.5886 Y-97.1536
G01 X141.5293 Y-97.2190
G01 X141.4767 Y-97.2900
G01 X141.4313 Y-97.3657
G01 X141.3935 Y-97.4456
G01 X141.3638 Y-97.5287
G01 X141.3423 Y-97.6144
G01 X141.3293 Y-97.7018
G01 X141.3250 Y-97.7900
G01 X141.3293 Y-97.8782
G01 X141.3423 Y-97.9656
G01 X141.3638 Y-98.0513
G01 X141.3935 Y-98.1344
G01 X141.4313 Y-98.2143
G01 X141.4767 Y-98.2900
G01 X141.5293 Y-98.3610
G01 X141.5886 Y-98.4264
G01 X141.6540 Y-98.4857
G01 X141.7250 Y-98.5383
G01 X141.8007 Y-98.5837
G00 Z2.0000
G00 X141.8018 Y-94.7743
G01 F60.00
G01 Z0.0000
G01 F120.00
G01 X141.8806 Y-94.8115
G01 X141.9637 Y-94.8412
G01 X142.0494 Y-94.8627
G01 X142.1368 Y-94.8757
G01 X142.2250 Y-94.8800
G01 X142.3132 Y-94.8757
G01 X142.4006 Y-94.8627
G01 X142.4863 Y-94.8412
G01 X142.5694 Y-94.8115
G01 X142.6493 Y-94.7737
G01 X142.7250 Y-94.7283
G01 X142.7960 Y-94.6757
G01 X142.8614 Y-94.6164
G01 X142.9207 Y-94.5510
G01 X142.9733 Y-94.4800
G01 X143.0187 Y-94.4043
G01 X143.0565 Y-94.3244
G01 X143.0862 Y-94.2413
G01 X143.1077 Y-94.1556
G01 X143.1207 Y-94.0682
G01 X143.1250 Y-93.9800
G01 X143.1207 Y-93.8918
G01 X143.1077 Y-93.8044
G01 X143.0862 Y-93.7187
G01 X143.0565 Y-93.6356
G01 X143.0187 Y-93.5557
G01 X142.9733 Y-93.4800
G01 X142.9207 Y-93.4090
G01 X142.8614 Y-93.3436
G01 X142.7960 Y-93.2843
G01 X142.7250 Y-93.2317
G01 X142.6493 Y-93.1863
G01 X142.5694 Y-93.1485
G01 X142.4863 Y-93.1188
G01 X142.4006 Y-93.0973
G01 X142.3132 Y-93.0843
G01 X142.2250 Y-93.0800
G01 X142.1368 Y-93.0843
G01 X142.0494 Y-93.0973
G01 X141.9637 Y-93.1188
G01 X141.8806 Y-93.1485
G01 X141.8007 Y-93.1863
G01 X141.7250 Y-93.2317
G01 X141.6540 Y-93.2843
G01 X141.5886 Y-93.3436
G01 X141.5293 Y-93.4090
G01 X141.4767 Y-93.4800
G01 X141.4313 Y-93.5557
G01 X141.3935 Y-93.6356
G01 X141.3638 Y-93.7187
G01 X141.3423 Y-93.8044
G01 X141.3293 Y-93.8918
G01 X141.3250 Y-93.9800
G01 X141.3293 Y-94.0682
G01 X141.3423 Y-94.1556
G01 X141.3638 Y-94.2413
G01 X141.3935 Y-94.3244
G01 X141.4313 Y-94.4043
G01 X141.4767 Y-94.4800
G01 X141.5293 Y-94.5510
G01 X141.5886 Y-94.6164
G01 X141.6540 Y-94.6757
G01 X141.7250 Y-94.7283
G01 X141.8018 Y-94.7743
G00 Z2.0000
G00 X141.8157 Y-102.3937
G01 F60.00
G01 Z0.0000
G01 F120.00
G01 X141.8956 Y-102.4315
G01 X141.9787 Y-102.4612
G01 X142.0644 Y-102.4827
G01 X142.1518 Y-102.4957
G01 X142.2400 Y-102.5000
G01 X142.3282 Y-102.4957
G01 X142.4156 Y-102.4827
G01 X142.5013 Y-102.4612
G01 X142.5844 Y-102.4315
G01 X142.6643 Y-102.3937
G01 X142.7400 Y-102.3483
G01 X142.8110 Y-102.2957
G01 X142.8764 Y-102.2364
G01 X142.9357 Y-102.1710
G01 X142.9883 Y-102.1000
G01 X143.0337 Y-102.0243
G01 X143.0715 Y-101.9444
G01 X143.1012 Y-101.8613
G01 X143.1227 Y-101.7756
G01 X143.1357 Y-101.6882
G01 X143.1400 Y-101.6000
G01 X143.1357 Y-101.5118
G01 X143.1227 Y-101.4244
G01 X143.1012 Y-101.3387
G01 X143.0715 Y-101.2556
G01 X143.0337 Y-101.1757
G01 X142.9883 Y-101.1000
G01 X142.9357 Y-101.0290
G01 X142.8764 Y-100.9636
G01 X142.8110 Y-100.9043
G01 X142.7400 Y-100.8517
G01 X142.6643 Y-100.8063
G01 X142.5844 Y-100.7685
G01 X142.5013 Y-100.7388
G01 X142.4156 Y-100.7173
G01 X142.3282 Y-100.7043
G01 X142.2400 Y-100.7000
G01 X142.1518 Y-100.7043
G01 X142.0644 Y-100.7173
G01 X141.9787 Y-100.7388
G01 X141.8956 Y-100.7685
G01 X141.8157 Y-100.8063
G01 X141.7400 Y-100.8517
G01 X141.6690 Y-100.9043
G01 X141.6036 Y-100.9636
G01 X141.5443 Y-101.0290
G01 X141.4917 Y-101.1000
G01 X141.4463 Y-101.1757
G01 X141.4085 Y-101.2556
G01 X141.3788 Y-101.3387
G01 X141.3573 Y-101.4244
G01 X141.3443 Y-101.5118
G01 X141.3400 Y-101.6000
G01 X141.3443 Y-101.6882
G01 X141.3573 Y-101.7756
G01 X141.3788 Y-101.8613
G01 X141.4085 Y-101.9444
G01 X141.4463 Y-102.0243
G01 X141.4917 Y-102.1000
G01 X141.5443 Y-102.1710
G01 X141.6036 Y-102.2364
G01 X141.6690 Y-102.2957
G01 X141.7400 Y-102.3483
G01 X141.8157 Y-102.3937
G00 Z2.0000
G00 X144.3557 Y-102.3937
G01 F60.00
G01 Z0.0000
G01 F120.00
G01 X144.4356 Y-102.4315
G01 X144.5187 Y-102.4612
G01 X144.6044 Y-102.4827
G01 X144.6918 Y-102.4957
G01 X144.7800 Y-102.5000
G01 X144.8682 Y-102.4957
G01 X144.9556 Y-102.4827
G01 X145.0413 Y-102.4612
G01 X145.1244 Y-102.4315
G01 X145.2043 Y-102.3937
G01 X145.2800 Y-102.3483
G01 X145.3510 Y-102.2957
G01 X145.4164 Y-102.2364
G01 X145.4757 Y-102.1710
G01 X145.5283 Y-102.1000
G01 X145.5737 Y-102.0243
G01 X145.6115 Y-101.9444
G01 X145.6412 Y-101.8613
G01 X145.6627 Y-101.7756
G01 X145.6757 Y-101.6882
G01 X145.6800 Y-101.6000
G01 X145.6757 Y-101.5118
G01 X145.6627 Y-101.4244
G01 X145.6412 Y-101.3387
G01 X145.6115 Y-101.2556
G01 X145.5737 Y-101.1757
G01 X145.5283 Y-101.1000
G01 X145.4757 Y-101.0290
G01 X145.4164 Y-100.9636
G01 X145.3510 Y-100.9043
G01 X145.2800 Y-100.8517
G01 X145.2043 Y-100.8063
G01 X145.1244 Y-100.7685
G01 X145.0413 Y-100.7388
G01 X144.9556 Y-100.7173
G01 X144.8682 Y-100.7043
G01 X144.7800 Y-100.7000
G01 X144.6918 Y-100.7043
G01 X144.6044 Y-100.7173
G01 X144.5187 Y-100.7388
G01 X144.4356 Y-100.7685
G01 X144.3557 Y-100.8063
G01 X144.2800 Y-100.8517
G01 X144.2090 Y-100.9043
G01 X144.1436 Y-100.9636
G01 X144.0843 Y-101.0290
G01 X144.0317 Y-101.1000
G01 X143.9863 Y-101.1757
G01 X143.9485 Y-101.2556
G01 X143.9188 Y-101.3387
G01 X143.8973 Y-101.4244
G01 X143.8843 Y-101.5118
G01 X143.8800 Y-101.6000
G01 X143.8843 Y-101.6882
G01 X143.8973 Y-101.7756
G01 X143.9188 Y-101.8613
G01 X143.9485 Y-101.9444
G01 X143.9863 Y-102.0243
G01 X144.0317 Y-102.1000
G01 X144.0843 Y-102.1710
G01 X144.1436 Y-102.2364
G01 X144.2090 Y-102.2957
G01 X144.2800 Y-102.3483
G01 X144.3557 Y-102.3937
G00 Z2.0000
G00 X146.4615 Y-102.4993
G01 F60.00
G01 Z0.0000
G01 F120.00
G01 X146.4700 Y-102.5000
G01 X148.1700 Y-102.5000
G01 X148.1798 Y-102.4990
G01 X148.1891 Y-102.4962
G01 X148.1978 Y-102.4916
G01 X148.2054 Y-102.4854
G01 X148.2116 Y-102.4778
G01 X148.2162 Y-102.4691
G01 X148.2190 Y-102.4598
G01 X148.2200 Y-102.4500
G01 X148.2200 Y-100.7500
G01 X148.2190 Y-100.7402
G01 X148.2162 Y-100.7309
G01 X148.2116 Y-100.7222
G01 X148.2054 Y-100.7146
G01 X148.1978 Y-100.7084
G01 X148.1891 Y-100.7038
G01 X148.1798 Y-100.7010
G01 X148.1700 Y-100.7000
G01 X146.4700 Y-100.7000
G01 X146.4602 Y-100.7010
G01 X146.4509 Y-100.7038
G01 X146.4422 Y-100.7084
G01 X146.4346 Y-100.7146
G01 X146.4284 Y-100.7222
G01 X146.4238 Y-100.7309
G01 X146.4210 Y-100.7402
G01 X146.4200 Y-100.7500
G01 X146.4200 Y-102.4512
G01 X146.4210 Y-102.4598
G01 X146.4234 Y-102.4680
G01 X146.4271 Y-102.4757
G01 X146.4321 Y-102.4827
G01 X146.4383 Y-102.4887
G01 X146.4454 Y-102.4935
G01 X146.4532 Y-102.4971
G01 X146.4615 Y-102.4993
G00 Z2.0000
G00 X146.4465 Y-106.3093
G01 F60.00
G01 Z0.0000
G01 F120.00
G01 X146.4550 Y-106.3100
G01 X148.1550 Y-106.3100
G01 X148.1648 Y-106.3090
G01 X148.1741 Y-106.3062
G01 X148.1828 Y-106.3016
G01 X148.1904 Y-106.2954
G01 X148.1966 Y-106.2878
G01 X148.2012 Y-106.2791
G01 X148.2040 Y-106.2698
G01 X148.2050 Y-106.2600
G01 X148.2050 Y-104.5600
G01 X148.2040 Y-104.5502
G01 X148.2012 Y-104.5409
G01 X148.1966 Y-104.5322
G01 X148.1904 Y-104.5246
G01 X148.1828 Y-104.5184
G01 X148.1741 Y-104.5138
G01 X148.1648 Y-104.5110
G01 X148.1550 Y-104.5100
G01 X146.4550 Y-104.5100
G01 X146.4452 Y-104.5110
G01 X146.4359 Y-104.5138
G01 X146.4272 Y-104.5184
G01 X146.4196 Y-104.5246
G01 X146.4134 Y-104.5322
G01 X146.4088 Y-104.5409
G01 X146.4060 Y-104.5502
G01 X146.4050 Y-104.5600
G01 X146.4050 Y-106.2612
G01 X146.4060 Y-106.2698
G01 X146.4084 Y-106.2780
G01 X146.4121 Y-106.2857
G01 X146.4171 Y-106.2927
G01 X146.4233 Y-106.2987
G01 X146.4304 Y-106.3035
G01 X146.4382 Y-106.3071
G01 X146.4465 Y-106.3093
G00 Z2.0000
G00 X144.3418 Y-106.2043
G01 F60.00
G01 Z0.0000
G01 F120.00
G01 X144.4206 Y-106.2415
G01 X144.5037 Y-106.2712
G01 X144.5894 Y-106.2927
G01 X144.6768 Y-106.3057
G01 X144.7650 Y-106.3100
G01 X144.8532 Y-106.3057
G01 X144.9406 Y-106.2927
G01 X145.0263 Y-106.2712
G01 X145.1094 Y-106.2415
G01 X145.1893 Y-106.2037
G01 X145.2650 Y-106.1583
G01 X145.3360 Y-106.1057
G01 X145.4014 Y-106.0464
G01 X145.4607 Y-105.9810
G01 X145.5133 Y-105.9100
G01 X145.5587 Y-105.8343
G01 X145.5965 Y-105.7544
G01 X145.6262 Y-105.6713
G01 X145.6477 Y-105.5856
G01 X145.6607 Y-105.4982
G01 X145.6650 Y-105.4100
G01 X145.6607 Y-105.3218
G01 X145.6477 Y-105.2344
G01 X145.6262 Y-105.1487
G01 X145.5965 Y-105.0656
G01 X145.5587 Y-104.9857
G01 X145.5133 Y-104.9100
G01 X145.4607 Y-104.8390
G01 X145.4014 Y-104.7736
G01 X145.3360 Y-104.7143
G01 X145.2650 Y-104.6617
G01 X145.1893 Y-104.6163
G01 X145.1094 Y-104.5785
G01 X145.0263 Y-104.5488
G01 X144.9406 Y-104.5273
G01 X144.8532 Y-104.5143
G01 X144.7650 Y-104.5100
G01 X144.6768 Y-104.5143
G01 X144.5894 Y-104.5273
G01 X144.5037 Y-104.5488
G01 X144.4206 Y-104.5785
G01 X144.3407 Y-104.6163
G01 X144.2650 Y-104.6617
G01 X144.1940 Y-104.7143
G01 X144.1286 Y-104.7736
G01 X144.0693 Y-104.8390
G01 X144.0167 Y-104.9100
G01 X143.9713 Y-104.9857
G01 X143.9335 Y-105.0656
G01 X143.9038 Y-105.1487
G01 X143.8823 Y-105.2344
G01 X143.8693 Y-105.3218
G01 X143.8650 Y-105.4100
G01 X143.8693 Y-105.4982
G01 X143.8823 Y-105.5856
G01 X143.9038 Y-105.6713
G01 X143.9335 Y-105.7544
G01 X143.9713 Y-105.8343
G01 X144.0167 Y-105.9100
G01 X144.0693 Y-105.9810
G01 X144.1286 Y-106.0464
G01 X144.1940 Y-106.1057
G01 X144.2650 Y-106.1583
G01 X144.3418 Y-106.2043
G00 Z2.0000
G00 X141.8007 Y-106.2037
G01 F60.00
G01 Z0.0000
G01 F120.00
G01 X141.8806 Y-106.2415
G01 X141.9637 Y-106.2712
G01 X142.0494 Y-106.2927
G01 X142.1368 Y-106.3057
G01 X142.2250 Y-106.3100
G01 X142.3132 Y-106.3057
G01 X142.4006 Y-106.2927
G01 X142.4863 Y-106.2712
G01 X142.5694 Y-106.2415
G01 X142.6493 Y-106.2037
G01 X142.7250 Y-106.1583
G01 X142.7960 Y-106.1057
G01 X142.8614 Y-106.0464
G01 X142.9207 Y-105.9810
G01 X142.9733 Y-105.9100
G01 X143.0187 Y-105.8343
G01 X143.0565 Y-105.7544
G01 X143.0862 Y-105.6713
G01 X143.1077 Y-105.5856
G01 X143.1207 Y-105.4982
G01 X143.1250 Y-105.4100
G01 X143.1207 Y-105.3218
G01 X143.1077 Y-105.2344
G01 X143.0862 Y-105.1487
G01 X143.0565 Y-105.0656
G01 X143.0187 Y-104.9857
G01 X142.9733 Y-104.9100
G01 X142.9207 Y-104.8390
G01 X142.8614 Y-104.7736
G01 X142.7960 Y-104.7143
G01 X142.7250 Y-104.6617
G01 X142.6493 Y-104.6163
G01 X142.5694 Y-104.5785
G01 X142.4863 Y-104.5488
G01 X142.4006 Y-104.5273
G01 X142.3132 Y-104.5143
G01 X142.2250 Y-104.5100
G01 X142.1368 Y-104.5143
G01 X142.0494 Y-104.5273
G01 X141.9637 Y-104.5488
G01 X141.8806 Y-104.5785
G01 X141.8007 Y-104.6163
G01 X141.7250 Y-104.6617
G01 X141.6540 Y-104.7143
G01 X141.5886 Y-104.7736
G01 X141.5293 Y-104.8390
G01 X141.4767 Y-104.9100
G01 X141.4313 Y-104.9857
G01 X141.3935 Y-105.0656
G01 X141.3638 Y-105.1487
G01 X141.3423 Y-105.2344
G01 X141.3293 Y-105.3218
G01 X141.3250 Y-105.4100
G01 X141.3293 Y-105.4982
G01 X141.3423 Y-105.5856
G01 X141.3638 Y-105.6713
G01 X141.3935 Y-105.7544
G01 X141.4313 Y-105.8343
G01 X141.4767 Y-105.9100
G01 X141.5293 Y-105.9810
G01 X141.5886 Y-106.0464
G01 X141.6540 Y-106.1057
G01 X141.7250 Y-106.1583
G01 X141.8007 Y-106.2037
G00 Z2.0000
G00 X143.0868 Y-110.0143
G01 F60.00
G01 Z0.0000
G01 F120.00
G01 X143.1656 Y-110.0515
G01 X143.2487 Y-110.0812
G01 X143.3344 Y-110.1027
G01 X143.4218 Y-110.1157
G01 X143.5100 Y-110.1200
G01 X143.5982 Y-110.1157
G01 X143.6856 Y-110.1027
G01 X143.7713 Y-110.0812
G01 X143.8544 Y-110.0515
G01 X143.9343 Y-110.0137
G01 X144.0100 Y-109.9683
G01 X144.0810 Y-109.9157
G01 X144.1464 Y-109.8564
G01 X144.2057 Y-109.7910
G01 X144.2583 Y-109.7200
G01 X144.3037 Y-109.6443
G01 X144.3415 Y-109.5644
G01 X144.3712 Y-109.4813
G01 X144.3927 Y-109.3956
G01 X144.4057 Y-109.3082
G01 X144.4100 Y-109.2200
G01 X144.4057 Y-109.1318
G01 X144.3927 Y-109.0444
G01 X144.3712 Y-108.9587
G01 X144.3415 Y-108.8756
G01 X144.3037 Y-108.7957
G01 X144.2583 Y-108.7200
G01 X144.2057 Y-108.6490
G01 X144.1464 Y-108.5836
G01 X144.0810 Y-108.5243
G01 X144.0100 Y-108.4717
G01 X143.9343 Y-108.4263
G01 X143.8544 Y-108.3885
G01 X143.7713 Y-108.3588
G01 X143.6856 Y-108.3373
G01 X143.5982 Y-108.3243
G01 X143.5100 Y-108.3200
G01 X143.4218 Y-108.3243
G01 X143.3344 Y-108.3373
G01 X143.2487 Y-108.3588
G01 X143.1656 Y-108.3885
G01 X143.0857 Y-108.4263
G01 X143.0100 Y-108.4717
G01 X142.9390 Y-108.5243
G01 X142.8736 Y-108.5836
G01 X142.8143 Y-108.6490
G01 X142.7617 Y-108.7200
G01 X142.7163 Y-108.7957
G01 X142.6785 Y-108.8756
G01 X142.6488 Y-108.9587
G01 X142.6273 Y-109.0444
G01 X142.6143 Y-109.1318
G01 X142.6100 Y-109.2200
G01 X142.6143 Y-109.3082
G01 X142.6273 Y-109.3956
G01 X142.6488 Y-109.4813
G01 X142.6785 Y-109.5644
G01 X142.7163 Y-109.6443
G01 X142.7617 Y-109.7200
G01 X142.8143 Y-109.7910
G01 X142.8736 Y-109.8564
G01 X142.9390 Y-109.9157
G01 X143.0100 Y-109.9683
G01 X143.0868 Y-110.0143
G00 Z2.0000
G00 X140.1115 Y-110.1193
G01 F60.00
G01 Z0.0000
G01 F120.00
G01 X140.1200 Y-110.1200
G01 X141.8200 Y-110.1200
G01 X141.8298 Y-110.1190
G01 X141.8391 Y-110.1162
G01 X141.8478 Y-110.1116
G01 X141.8554 Y-110.1054
G01 X141.8616 Y-110.0978
G01 X141.8662 Y-110.0891
G01 X141.8690 Y-110.0798
G01 X141.8700 Y-110.0700
G01 X141.8700 Y-108.3700
G01 X141.8690 Y-108.3602
G01 X141.8662 Y-108.3509
G01 X141.8616 Y-108.3422
G01 X141.8554 Y-108.3346
G01 X141.8478 Y-108.3284
G01 X141.8391 Y-108.3238
G01 X141.8298 Y-108.3210
G01 X141.8200 Y-108.3200
G01 X140.1200 Y-108.3200
G01 X140.1102 Y-108.3210
G01 X140.1009 Y-108.3238
G01 X140.0922 Y-108.3284
G01 X140.0846 Y-108.3346
G01 X140.0784 Y-108.3422
G01 X140.0738 Y-108.3509
G01 X140.0710 Y-108.3602
G01 X140.0700 Y-108.3700
G01 X140.0700 Y-110.0712
G01 X140.0710 Y-110.0798
G01 X140.0734 Y-110.0880
G01 X140.0771 Y-110.0957
G01 X140.0821 Y-110.1027
G01 X140.0883 Y-110.1087
G01 X140.0954 Y-110.1135
G01 X140.1032 Y-110.1171
G01 X140.1115 Y-110.1193
G00 Z2.0000
G00 X146.4865 Y-110.1343
G01 F60.00
G01 Z0.0000
G01 F120.00
G01 X146.4950 Y-110.1350
G01 X148.1950 Y-110.1350
G01 X148.2048 Y-110.1340
G01 X148.2141 Y-110.1312
G01 X148.2228 Y-110.1266
G01 X148.2304 Y-110.1204
G01 X148.2366 Y-110.1128
G01 X148.2412 Y-110.1041
G01 X148.2440 Y-110.0948
G01 X148.2450 Y-110.0850
G01 X148.2450 Y-108.3850
G01 X148.2440 Y-108.3752
G01 X148.2412 Y-108.3659
G01 X148.2366 Y-108.3572
G01 X148.2304 Y-108.3496
G01 X148.2228 Y-108.3434
G01 X148.2141 Y-108.3388
G01 X148.2048 Y-108.3360
G01 X148.1950 Y-108.3350
G01 X146.4950 Y-108.3350
G01 X146.4852 Y-108.3360
G01 X146.4759 Y-108.3388
G01 X146.4672 Y-108.3434
G01 X146.4596 Y-108.3496
G01 X146.4534 Y-108.3572
G01 X146.4488 Y-108.3659
G01 X146.4460 Y-108.3752
G01 X146.4450 Y-108.3850
G01 X146.4450 Y-110.0862
G01 X146.4460 Y-110.0948
G01 X146.4484 Y-110.1030
G01 X146.4521 Y-110.1107
G01 X146.4571 Y-110.1177
G01 X146.4633 Y-110.1237
G01 X146.4704 Y-110.1285
G01 X146.4782 Y-110.1321
G01 X146.4865 Y-110.1343
G00 Z2.0000
G00 X146.9218 Y-112.5693
G01 F60.00
G01 Z0.0000
G01 F120.00
G01 X147.0006 Y-112.6065
G01 X147.0837 Y-112.6362
G01 X147.1694 Y-112.6577
G01 X147.2568 Y-112.6707
G01 X147.3450 Y-112.6750
G01 X147.4332 Y-112.6707
G01 X147.5206 Y-112.6577
G01 X147.6063 Y-112.6362
G01 X147.6894 Y-112.6065
G01 X147.7693 Y-112.5687
G01 X147.8450 Y-112.5233
G01 X147.9160 Y-112.4707
G01 X147.9814 Y-112.4114
G01 X148.0407 Y-112.3460
G01 X148.0933 Y-112.2750
G01 X148.1387 Y-112.1993
G01 X148.1765 Y-112.1194
G01 X148.2062 Y-112.0363
G01 X148.2277 Y-111.9506
G01 X148.2407 Y-111.8632
G01 X148.2450 Y-111.7750
G01 X148.2407 Y-111.6868
G01 X148.2277 Y-111.5994
G01 X148.2062 Y-111.5137
G01 X148.1765 Y-111.4306
G01 X148.1387 Y-111.3507
G01 X148.0933 Y-111.2750
G01 X148.0407 Y-111.2040
G01 X147.9814 Y-111.1386
G01 X147.9160 Y-111.0793
G01 X147.8450 Y-111.0267
G01 X147.7693 Y-110.9813
G01 X147.6894 Y-110.9435
G01 X147.6063 Y-110.9138
G01 X147.5206 Y-110.8923
G01 X147.4332 Y-110.8793
G01 X147.3450 Y-110.8750
G01 X147.2568 Y-110.8793
G01 X147.1694 Y-110.8923
G01 X147.0837 Y-110.9138
G01 X147.0006 Y-110.9435
G01 X146.9207 Y-110.9813
G01 X146.8450 Y-111.0267
G01 X146.7740 Y-111.0793
G01 X146.7086 Y-111.1386
G01 X146.6493 Y-111.2040
G01 X146.5967 Y-111.2750
G01 X146.5513 Y-111.3507
G01 X146.5135 Y-111.4306
G01 X146.4838 Y-111.5137
G01 X146.4623 Y-111.5994
G01 X146.4493 Y-111.6868
G01 X146.4450 Y-111.7750
G01 X146.4493 Y-111.8632
G01 X146.4623 Y-111.9506
G01 X146.4838 Y-112.0363
G01 X146.5135 Y-112.1194
G01 X146.5513 Y-112.1993
G01 X146.5967 Y-112.2750
G01 X146.6493 Y-112.3460
G01 X146.7086 Y-112.4114
G01 X146.7740 Y-112.4707
G01 X146.8450 Y-112.5233
G01 X146.9218 Y-112.5693
G00 Z2.0000
G00 X146.9207 Y-115.1087
G01 F60.00
G01 Z0.0000
G01 F120.00
G01 X147.0006 Y-115.1465
G01 X147.0837 Y-115.1762
G01 X147.1694 Y-115.1977
G01 X147.2568 Y-115.2107
G01 X147.3450 Y-115.2150
G01 X147.4332 Y-115.2107
G01 X147.5206 Y-115.1977
G01 X147.6063 Y-115.1762
G01 X147.6894 Y-115.1465
G01 X147.7693 Y-115.1087
G01 X147.8450 Y-115.0633
G01 X147.9160 Y-115.0107
G01 X147.9814 Y-114.9514
G01 X148.0407 Y-114.8860
G01 X148.0933 Y-114.8150
G01 X148.1387 Y-114.7393
G01 X148.1765 Y-114.6594
G01 X148.2062 Y-114.5763
G01 X148.2277 Y-114.4906
G01 X148.2407 Y-114.4032
G01 X148.2450 Y-114.3150
G01 X148.2407 Y-114.2268
G01 X148.2277 Y-114.1394
G01 X148.2062 Y-114.0537
G01 X148.1765 Y-113.9706
G01 X148.1387 Y-113.8907
G01 X148.0933 Y-113.8150
G01 X148.0407 Y-113.7440
G01 X147.9814 Y-113.6786
G01 X147.9160 Y-113.6193
G01 X147.8450 Y-113.5667
G01 X147.7693 Y-113.5213
G01 X147.6894 Y-113.4835
G01 X147.6063 Y-113.4538
G01 X147.5206 Y-113.4323
G01 X147.4332 Y-113.4193
G01 X147.3450 Y-113.4150
G01 X147.2568 Y-113.4193
G01 X147.1694 Y-113.4323
G01 X147.0837 Y-113.4538
G01 X147.0006 Y-113.4835
G01 X146.9207 Y-113.5213
G01 X146.8450 Y-113.5667
G01 X146.7740 Y-113.6193
G01 X146.7086 Y-113.6786
G01 X146.6493 Y-113.7440
G01 X146.5967 Y-113.8150
G01 X146.5513 Y-113.8907
G01 X146.5135 Y-113.9706
G01 X146.4838 Y-114.0537
G01 X146.4623 Y-114.1394
G01 X146.4493 Y-114.2268
G01 X146.4450 Y-114.3150
G01 X146.4493 Y-114.4032
G01 X146.4623 Y-114.4906
G01 X146.4838 Y-114.5763
G01 X146.5135 Y-114.6594
G01 X146.5513 Y-114.7393
G01 X146.5967 Y-114.8150
G01 X146.6493 Y-114.8860
G01 X146.7086 Y-114.9514
G01 X146.7740 Y-115.0107
G01 X146.8450 Y-115.0633
G01 X146.9207 Y-115.1087
G00 Z2.0000
G00 X150.2715 Y-124.0893
G01 F60.00
G01 Z0.0000
G01 F120.00
G01 X150.2800 Y-124.0900
G01 X151.9800 Y-124.0900
G01 X151.9898 Y-124.0890
G01 X151.9991 Y-124.0862
G01 X152.0078 Y-124.0816
G01 X152.0154 Y-124.0754
G01 X152.0216 Y-124.0678
G01 X152.0262 Y-124.0591
G01 X152.0290 Y-124.0498
G01 X152.0300 Y-124.0400
G01 X152.0300 Y-122.3400
G01 X152.0290 Y-122.3302
G01 X152.0262 Y-122.3209
G01 X152.0216 Y-122.3122
G01 X152.0154 Y-122.3046
G01 X152.0078 Y-122.2984
G01 X151.9991 Y-122.2938
G01 X151.9898 Y-122.2910
G01 X151.9800 Y-122.2900
G01 X150.2800 Y-122.2900
G01 X150.2702 Y-122.2910
G01 X150.2609 Y-122.2938
G01 X150.2522 Y-122.2984
G01 X150.2446 Y-122.3046
G01 X150.2384 Y-122.3122
G01 X150.2338 Y-122.3209
G01 X150.2310 Y-122.3302
G01 X150.2300 Y-122.3400
G01 X150.2300 Y-124.0412
G01 X150.2310 Y-124.0498
G01 X150.2334 Y-124.0580
G01 X150.2371 Y-124.0657
G01 X150.2421 Y-124.0727
G01 X150.2483 Y-124.0787
G01 X150.2554 Y-124.0835
G01 X150.2632 Y-124.0871
G01 X150.2715 Y-124.0893
G00 Z2.0000
G00 X153.2457 Y-123.9837
G01 F60.00
G01 Z0.0000
G01 F120.00
G01 X153.3256 Y-124.0215
G01 X153.4087 Y-124.0512
G01 X153.4944 Y-124.0727
G01 X153.5818 Y-124.0857
G01 X153.6700 Y-124.0900
G01 X153.7582 Y-124.0857
G01 X153.8456 Y-124.0727
G01 X153.9313 Y-124.0512
G01 X154.0144 Y-124.0215
G01 X154.0943 Y-123.9837
G01 X154.1700 Y-123.9383
G01 X154.2410 Y-123.8857
G01 X154.3064 Y-123.8264
G01 X154.3657 Y-123.7610
G01 X154.4183 Y-123.6900
G01 X154.4637 Y-123.6143
G01 X154.5015 Y-123.5344
G01 X154.5312 Y-123.4513
G01 X154.5527 Y-123.3656
G01 X154.5657 Y-123.2782
G01 X154.5700 Y-123.1900
G01 X154.5657 Y-123.1018
G01 X154.5527 Y-123.0144
G01 X154.5312 Y-122.9287
G01 X154.5015 Y-122.8456
G01 X154.4637 Y-122.7657
G01 X154.4183 Y-122.6900
G01 X154.3657 Y-122.6190
G01 X154.3064 Y-122.5536
G01 X154.2410 Y-122.4943
G01 X154.1700 Y-122.4417
G01 X154.0943 Y-122.3963
G01 X154.0144 Y-122.3585
G01 X153.9313 Y-122.3288
G01 X153.8456 Y-122.3073
G01 X153.7582 Y-122.2943
G01 X153.6700 Y-122.2900
G01 X153.5818 Y-122.2943
G01 X153.4944 Y-122.3073
G01 X153.4087 Y-122.3288
G01 X153.3256 Y-122.3585
G01 X153.2457 Y-122.3963
G01 X153.1700 Y-122.4417
G01 X153.0990 Y-122.4943
G01 X153.0336 Y-122.5536
G01 X152.9743 Y-122.6190
G01 X152.9217 Y-122.6900
G01 X152.8763 Y-122.7657
G01 X152.8385 Y-122.8456
G01 X152.8088 Y-122.9287
G01 X152.7873 Y-123.0144
G01 X152.7743 Y-123.1018
G01 X152.7700 Y-123.1900
G01 X152.7743 Y-123.2782
G01 X152.7873 Y-123.3656
G01 X152.8088 Y-123.4513
G01 X152.8385 Y-123.5344
G01 X152.8763 Y-123.6143
G01 X152.9217 Y-123.6900
G01 X152.9743 Y-123.7610
G01 X153.0336 Y-123.8264
G01 X153.0990 Y-123.8857
G01 X153.1700 Y-123.9383
G01 X153.2457 Y-123.9837
G00 Z2.0000
G00 X158.3493 Y-113.7796
G01 F60.00
G01 Z0.0000
G01 F120.00
G01 X158.4247 Y-113.8153
G01 X158.5033 Y-113.8434
G01 X158.5842 Y-113.8637
G01 X158.6667 Y-113.8759
G01 X158.7500 Y-113.8800
G01 X158.8333 Y-113.8759
G01 X158.9158 Y-113.8637
G01 X158.9967 Y-113.8434
G01 X159.0753 Y-113.8153
G01 X159.1507 Y-113.7796
G01 X159.2222 Y-113.7367
G01 X159.2892 Y-113.6871
G01 X159.3510 Y-113.6310
G01 X159.4071 Y-113.5692
G01 X159.4567 Y-113.5022
G01 X159.4996 Y-113.4307
G01 X159.5353 Y-113.3553
G01 X159.5634 Y-113.2767
G01 X159.5837 Y-113.1958
G01 X159.5959 Y-113.1133
G01 X159.6000 Y-113.0300
G01 X159.5959 Y-112.9467
G01 X159.5837 Y-112.8642
G01 X159.5634 Y-112.7833
G01 X159.5353 Y-112.7047
G01 X159.4996 Y-112.6293
G01 X159.4567 Y-112.5578
G01 X159.4071 Y-112.4908
G01 X159.3510 Y-112.4290
G01 X159.2892 Y-112.3729
G01 X159.2222 Y-112.3233
G01 X159.1507 Y-112.2804
G01 X159.0753 Y-112.2447
G01 X158.9967 Y-112.2166
G01 X158.9158 Y-112.1963
G01 X158.8333 Y-112.1841
G01 X158.7500 Y-112.1800
G01 X158.6667 Y-112.1841
G01 X158.5842 Y-112.1963
G01 X158.5033 Y-112.2166
G01 X158.4247 Y-112.2447
G01 X158.3493 Y-112.2804
G01 X158.2778 Y-112.3233
G01 X158.2108 Y-112.3729
G01 X158.1490 Y-112.4290
G01 X158.0929 Y-112.4908
G01 X158.0433 Y-112.5578
G01 X158.0004 Y-112.6293
G01 X157.9647 Y-112.7047
G01 X157.9366 Y-112.7833
G01 X157.9163 Y-112.8642
G01 X157.9041 Y-112.9467
G01 X157.9000 Y-113.0300
G01 X157.9041 Y-113.1133
G01 X157.9163 Y-113.1958
G01 X157.9366 Y-113.2767
G01 X157.9647 Y-113.3553
G01 X158.0004 Y-113.4307
G01 X158.0433 Y-113.5022
G01 X158.0929 Y-113.5692
G01 X158.1490 Y-113.6310
G01 X158.2108 Y-113.6871
G01 X158.2778 Y-113.7367
G01 X158.3493 Y-113.7796
G00 Z2.0000
G00 X158.3504 Y-111.2402
G01 F60.00
G01 Z0.0000
G01 F120.00
G01 X158.4247 Y-111.2753
G01 X158.5033 Y-111.3034
G01 X158.5842 Y-111.3237
G01 X158.6667 Y-111.3359
G01 X158.7500 Y-111.3400
G01 X158.8333 Y-111.3359
G01 X158.9158 Y-111.3237
G01 X158.9967 Y-111.3034
G01 X159.0753 Y-111.2753
G01 X159.1507 Y-111.2396
G01 X159.2222 Y-111.1967
G01 X159.2892 Y-111.1471
G01 X159.3510 Y-111.0910
G01 X159.4071 Y-111.0292
G01 X159.4567 Y-110.9622
G01 X159.4996 Y-110.8907
G01 X159.5353 Y-110.8153
G01 X159.5634 Y-110.7367
G01 X159.5837 Y-110.6558
G01 X159.5959 Y-110.5733
G01 X159.6000 Y-110.4900
G01 X159.5959 Y-110.4067
G01 X159.5837 Y-110.3242
G01 X159.5634 Y-110.2433
G01 X159.5353 Y-110.1647
G01 X159.4996 Y-110.0893
G01 X159.4567 Y-110.0178
G01 X159.4071 Y-109.9508
G01 X159.3510 Y-109.8890
G01 X159.2892 Y-109.8329
G01 X159.2222 Y-109.7833
G01 X159.1507 Y-109.7404
G01 X159.0753 Y-109.7047
G01 X158.9967 Y-109.6766
G01 X158.9158 Y-109.6563
G01 X158.8333 Y-109.6441
G01 X158.7500 Y-109.6400
G01 X158.6667 Y-109.6441
G01 X158.5842 Y-109.6563
G01 X158.5033 Y-109.6766
G01 X158.4247 Y-109.7047
G01 X158.3493 Y-109.7404
G01 X158.2778 Y-109.7833
G01 X158.2108 Y-109.8329
G01 X158.1490 Y-109.8890
G01 X158.0929 Y-109.9508
G01 X158.0433 Y-110.0178
G01 X158.0004 Y-110.0893
G01 X157.9647 Y-110.1647
G01 X157.9366 Y-110.2433
G01 X157.9163 Y-110.3242
G01 X157.9041 Y-110.4067
G01 X157.9000 Y-110.4900
G01 X157.9041 Y-110.5733
G01 X157.9163 Y-110.6558
G01 X157.9366 Y-110.7367
G01 X157.9647 Y-110.8153
G01 X158.0004 Y-110.8907
G01 X158.0433 Y-110.9622
G01 X158.0929 Y-111.0292
G01 X158.1490 Y-111.0910
G01 X158.2108 Y-111.1471
G01 X158.2778 Y-111.1967
G01 X158.3504 Y-111.2402
G00 Z2.0000
G00 X158.3493 Y-108.6996
G01 F60.00
G01 Z0.0000
G01 F120.00
G01 X158.4247 Y-108.7353
G01 X158.5033 Y-108.7634
G01 X158.5842 Y-108.7837
G01 X158.6667 Y-108.7959
G01 X158.7500 Y-108.8000
G01 X158.8333 Y-108.7959
G01 X158.9158 Y-108.7837
G01 X158.9967 Y-108.7634
G01 X159.0753 Y-108.7353
G01 X159.1507 Y-108.6996
G01 X159.2222 Y-108.6567
G01 X159.2892 Y-108.6071
G01 X159.3510 Y-108.5510
G01 X159.4071 Y-108.4892
G01 X159.4567 Y-108.4222
G01 X159.4996 Y-108.3507
G01 X159.5353 Y-108.2753
G01 X159.5634 Y-108.1967
G01 X159.5837 Y-108.1158
G01 X159.5959 Y-108.0333
G01 X159.6000 Y-107.9500
G01 X159.5959 Y-107.8667
G01 X159.5837 Y-107.7842
G01 X159.5634 Y-107.7033
G01 X159.5353 Y-107.6247
G01 X159.4996 Y-107.5493
G01 X159.4567 Y-107.4778
G01 X159.4071 Y-107.4108
G01 X159.3510 Y-107.3490
G01 X159.2892 Y-107.2929
G01 X159.2222 Y-107.2433
G01 X159.1507 Y-107.2004
G01 X159.0753 Y-107.1647
G01 X158.9967 Y-107.1366
G01 X158.9158 Y-107.1163
G01 X158.8333 Y-107.1041
G01 X158.7500 Y-107.1000
G01 X158.6667 Y-107.1041
G01 X158.5842 Y-107.1163
G01 X158.5033 Y-107.1366
G01 X158.4247 Y-107.1647
G01 X158.3493 Y-107.2004
G01 X158.2778 Y-107.2433
G01 X158.2108 Y-107.2929
G01 X158.1490 Y-107.3490
G01 X158.0929 Y-107.4108
G01 X158.0433 Y-107.4778
G01 X158.0004 Y-107.5493
G01 X157.9647 Y-107.6247
G01 X157.9366 Y-107.7033
G01 X157.9163 Y-107.7842
G01 X157.9041 Y-107.8667
G01 X157.9000 Y-107.9500
G01 X157.9041 Y-108.0333
G01 X157.9163 Y-108.1158
G01 X157.9366 Y-108.1967
G01 X157.9647 Y-108.2753
G01 X158.0004 Y-108.3507
G01 X158.0433 Y-108.4222
G01 X158.0929 Y-108.4892
G01 X158.1490 Y-108.5510
G01 X158.2108 Y-108.6071
G01 X158.2778 Y-108.6567
G01 X158.3493 Y-108.6996
G00 Z2.0000
G00 X158.3493 Y-106.1596
G01 F60.00
G01 Z0.0000
G01 F120.00
G01 X158.4247 Y-106.1953
G01 X158.5033 Y-106.2234
G01 X158.5842 Y-106.2437
G01 X158.6667 Y-106.2559
G01 X158.7500 Y-106.2600
G01 X158.8333 Y-106.2559
G01 X158.9158 Y-106.2437
G01 X158.9967 Y-106.2234
G01 X159.0753 Y-106.1953
G01 X159.1507 Y-106.1596
G01 X159.2222 Y-106.1167
G01 X159.2892 Y-106.0671
G01 X159.3510 Y-106.0110
G01 X159.4071 Y-105.9492
G01 X159.4567 Y-105.8822
G01 X159.4996 Y-105.8107
G01 X159.5353 Y-105.7353
G01 X159.5634 Y-105.6567
G01 X159.5837 Y-105.5758
G01 X159.5959 Y-105.4933
G01 X159.6000 Y-105.4100
G01 X159.5959 Y-105.3267
G01 X159.5837 Y-105.2442
G01 X159.5634 Y-105.1633
G01 X159.5353 Y-105.0847
G01 X159.4996 Y-105.0093
G01 X159.4567 Y-104.9378
G01 X159.4071 Y-104.8708
G01 X159.3510 Y-104.8090
G01 X159.2892 Y-104.7529
G01 X159.2222 Y-104.7033
G01 X159.1507 Y-104.6604
G01 X159.0753 Y-104.6247
G01 X158.9967 Y-104.5966
G01 X158.9158 Y-104.5763
G01 X158.8333 Y-104.5641
G01 X158.7500 Y-104.5600
G01 X158.6667 Y-104.5641
G01 X158.5842 Y-104.5763
G01 X158.5033 Y-104.5966
G01 X158.4247 Y-104.6247
G01 X158.3493 Y-104.6604
G01 X158.2778 Y-104.7033
G01 X158.2108 Y-104.7529
G01 X158.1490 Y-104.8090
G01 X158.0929 Y-104.8708
G01 X158.0433 Y-104.9378
G01 X158.0004 Y-105.0093
G01 X157.9647 Y-105.0847
G01 X157.9366 Y-105.1633
G01 X157.9163 Y-105.2442
G01 X157.9041 Y-105.3267
G01 X157.9000 Y-105.4100
G01 X157.9041 Y-105.4933
G01 X157.9163 Y-105.5758
G01 X157.9366 Y-105.6567
G01 X157.9647 Y-105.7353
G01 X158.0004 Y-105.8107
G01 X158.0433 Y-105.8822
G01 X158.0929 Y-105.9492
G01 X158.1490 Y-106.0110
G01 X158.2108 Y-106.0671
G01 X158.2778 Y-106.1167
G01 X158.3493 Y-106.1596
G00 Z2.0000
G00 X158.3493 Y-103.6196
G01 F60.00
G01 Z0.0000
G01 F120.00
G01 X158.4247 Y-103.6553
G01 X158.5033 Y-103.6834
G01 X158.5842 Y-103.7037
G01 X158.6667 Y-103.7159
G01 X158.7500 Y-103.7200
G01 X158.8333 Y-103.7159
G01 X158.9158 Y-103.7037
G01 X158.9967 Y-103.6834
G01 X159.0753 Y-103.6553
G01 X159.1507 Y-103.6196
G01 X159.2222 Y-103.5767
G01 X159.2892 Y-103.5271
G01 X159.3510 Y-103.4710
G01 X159.4071 Y-103.4092
G01 X159.4567 Y-103.3422
G01 X159.4996 Y-103.2707
G01 X159.5353 Y-103.1953
G01 X159.5634 Y-103.1167
G01 X159.5837 Y-103.0358
G01 X159.5959 Y-102.9533
G01 X159.6000 Y-102.8700
G01 X159.5959 Y-102.7867
G01 X159.5837 Y-102.7042
G01 X159.5634 Y-102.6233
G01 X159.5353 Y-102.5447
G01 X159.4996 Y-102.4693
G01 X159.4567 Y-102.3978
G01 X159.4071 Y-102.3308
G01 X159.3510 Y-102.2690
G01 X159.2892 Y-102.2129
G01 X159.2222 Y-102.1633
G01 X159.1507 Y-102.1204
G01 X159.0753 Y-102.0847
G01 X158.9967 Y-102.0566
G01 X158.9158 Y-102.0363
G01 X158.8333 Y-102.0241
G01 X158.7500 Y-102.0200
G01 X158.6667 Y-102.0241
G01 X158.5842 Y-102.0363
G01 X158.5033 Y-102.0566
G01 X158.4247 Y-102.0847
G01 X158.3493 Y-102.1204
G01 X158.2778 Y-102.1633
G01 X158.2108 Y-102.2129
G01 X158.1490 Y-102.2690
G01 X158.0929 Y-102.3308
G01 X158.0433 Y-102.3978
G01 X158.0004 Y-102.4693
G01 X157.9647 Y-102.5447
G01 X157.9366 Y-102.6233
G01 X157.9163 Y-102.7042
G01 X157.9041 Y-102.7867
G01 X157.9000 Y-102.8700
G01 X157.9041 Y-102.9533
G01 X157.9163 Y-103.0358
G01 X157.9366 Y-103.1167
G01 X157.9647 Y-103.1953
G01 X158.0004 Y-103.2707
G01 X158.0433 Y-103.3422
G01 X158.0929 Y-103.4092
G01 X158.1490 Y-103.4710
G01 X158.2108 Y-103.5271
G01 X158.2778 Y-103.5767
G01 X158.3493 Y-103.6196
G00 Z2.0000
G00 X158.3493 Y-101.0796
G01 F60.00
G01 Z0.0000
G01 F120.00
G01 X158.4247 Y-101.1153
G01 X158.5033 Y-101.1434
G01 X158.5842 Y-101.1637
G01 X158.6667 Y-101.1759
G01 X158.7500 Y-101.1800
G01 X158.8333 Y-101.1759
G01 X158.9158 Y-101.1637
G01 X158.9967 Y-101.1434
G01 X159.0753 Y-101.1153
G01 X159.1507 Y-101.0796
G01 X159.2222 Y-101.0367
G01 X159.2892 Y-100.9871
G01 X159.3510 Y-100.9310
G01 X159.4071 Y-100.8692
G01 X159.4567 Y-100.8022
G01 X159.4996 Y-100.7307
G01 X159.5353 Y-100.6553
G01 X159.5634 Y-100.5767
G01 X159.5837 Y-100.4958
G01 X159.5959 Y-100.4133
G01 X159.6000 Y-100.3300
G01 X159.5959 Y-100.2467
G01 X159.5837 Y-100.1642
G01 X159.5634 Y-100.0833
G01 X159.5353 Y-100.0047
G01 X159.4996 Y-99.9293
G01 X159.4567 Y-99.8578
G01 X159.4071 Y-99.7908
G01 X159.3510 Y-99.7290
G01 X159.2892 Y-99.6729
G01 X159.2222 Y-99.6233
G01 X159.1507 Y-99.5804
G01 X159.0753 Y-99.5447
G01 X158.9967 Y-99.5166
G01 X158.9158 Y-99.4963
G01 X158.8333 Y-99.4841
G01 X158.7500 Y-99.4800
G01 X158.6667 Y-99.4841
G01 X158.5842 Y-99.4963
G01 X158.5033 Y-99.5166
G01 X158.4247 Y-99.5447
G01 X158.3493 Y-99.5804
G01 X158.2778 Y-99.6233
G01 X158.2108 Y-99.6729
G01 X158.1490 Y-99.7290
G01 X158.0929 Y-99.7908
G01 X158.0433 Y-99.8578
G01 X158.0004 Y-99.9293
G01 X157.9647 Y-100.0047
G01 X157.9366 Y-100.0833
G01 X157.9163 Y-100.1642
G01 X157.9041 Y-100.2467
G01 X157.9000 Y-100.3300
G01 X157.9041 Y-100.4133
G01 X157.9163 Y-100.4958
G01 X157.9366 Y-100.5767
G01 X157.9647 Y-100.6553
G01 X158.0004 Y-100.7307
G01 X158.0433 Y-100.8022
G01 X158.0929 Y-100.8692
G01 X158.1490 Y-100.9310
G01 X158.2108 Y-100.9871
G01 X158.2778 Y-101.0367
G01 X158.3493 Y-101.0796
G00 Z2.0000
G00 X158.3493 Y-98.5396
G01 F60.00
G01 Z0.0000
G01 F120.00
G01 X158.4247 Y-98.5753
G01 X158.5033 Y-98.6034
G01 X158.5842 Y-98.6237
G01 X158.6667 Y-98.6359
G01 X158.7500 Y-98.6400
G01 X158.8333 Y-98.6359
G01 X158.9158 Y-98.6237
G01 X158.9967 Y-98.6034
G01 X159.0753 Y-98.5753
G01 X159.1507 Y-98.5396
G01 X159.2222 Y-98.4967
G01 X159.2892 Y-98.4471
G01 X159.3510 Y-98.3910
G01 X159.4071 Y-98.3292
G01 X159.4567 Y-98.2622
G01 X159.4996 Y-98.1907
G01 X159.5353 Y-98.1153
G01 X159.5634 Y-98.0367
G01 X159.5837 Y-97.9558
G01 X159.5959 Y-97.8733
G01 X159.6000 Y-97.7900
G01 X159.5959 Y-97.7067
G01 X159.5837 Y-97.6242
G01 X159.5634 Y-97.5433
G01 X159.5353 Y-97.4647
G01 X159.4996 Y-97.3893
G01 X159.4567 Y-97.3178
G01 X159.4071 Y-97.2508
G01 X159.3510 Y-97.1890
G01 X159.2892 Y-97.1329
G01 X159.2222 Y-97.0833
G01 X159.1507 Y-97.0404
G01 X159.0753 Y-97.0047
G01 X158.9967 Y-96.9766
G01 X158.9158 Y-96.9563
G01 X158.8333 Y-96.9441
G01 X158.7500 Y-96.9400
G01 X158.6667 Y-96.9441
G01 X158.5842 Y-96.9563
G01 X158.5033 Y-96.9766
G01 X158.4247 Y-97.0047
G01 X158.3493 Y-97.0404
G01 X158.2778 Y-97.0833
G01 X158.2108 Y-97.1329
G01 X158.1490 Y-97.1890
G01 X158.0929 Y-97.2508
G01 X158.0433 Y-97.3178
G01 X158.0004 Y-97.3893
G01 X157.9647 Y-97.4647
G01 X157.9366 Y-97.5433
G01 X157.9163 Y-97.6242
G01 X157.9041 Y-97.7067
G01 X157.9000 Y-97.7900
G01 X157.9041 Y-97.8733
G01 X157.9163 Y-97.9558
G01 X157.9366 Y-98.0367
G01 X157.9647 Y-98.1153
G01 X158.0004 Y-98.1907
G01 X158.0433 Y-98.2622
G01 X158.0929 Y-98.3292
G01 X158.1490 Y-98.3910
G01 X158.2108 Y-98.4471
G01 X158.2778 Y-98.4967
G01 X158.3493 Y-98.5396
G00 Z2.0000
G00 X158.3493 Y-95.9996
G01 F60.00
G01 Z0.0000
G01 F120.00
G01 X158.4247 Y-96.0353
G01 X158.5033 Y-96.0634
G01 X158.5842 Y-96.0837
G01 X158.6667 Y-96.0959
G01 X158.7500 Y-96.1000
G01 X158.8333 Y-96.0959
G01 X158.9158 Y-96.0837
G01 X158.9967 Y-96.0634
G01 X159.0753 Y-96.0353
G01 X159.1507 Y-95.9996
G01 X159.2222 Y-95.9567
G01 X159.2892 Y-95.9071
G01 X159.3510 Y-95.8510
G01 X159.4071 Y-95.7892
G01 X159.4567 Y-95.7222
G01 X159.4996 Y-95.6507
G01 X159.5353 Y-95.5753
G01 X159.5634 Y-95.4967
G01 X159.5837 Y-95.4158
G01 X159.5959 Y-95.3333
G01 X159.6000 Y-95.2500
G01 X159.5959 Y-95.1667
G01 X159.5837 Y-95.0842
G01 X159.5634 Y-95.0033
G01 X159.5353 Y-94.9247
G01 X159.4996 Y-94.8493
G01 X159.4567 Y-94.7778
G01 X159.4071 Y-94.7108
G01 X159.3510 Y-94.6490
G01 X159.2892 Y-94.5929
G01 X159.2222 Y-94.5433
G01 X159.1507 Y-94.5004
G01 X159.0753 Y-94.4647
G01 X158.9967 Y-94.4366
G01 X158.9158 Y-94.4163
G01 X158.8333 Y-94.4041
G01 X158.7500 Y-94.4000
G01 X158.6667 Y-94.4041
G01 X158.5842 Y-94.4163
G01 X158.5033 Y-94.4366
G01 X158.4247 Y-94.4647
G01 X158.3493 Y-94.5004
G01 X158.2778 Y-94.5433
G01 X158.2108 Y-94.5929
G01 X158.1490 Y-94.6490
G01 X158.0929 Y-94.7108
G01 X158.0433 Y-94.7778
G01 X158.0004 Y-94.8493
G01 X157.9647 Y-94.9247
G01 X157.9366 Y-95.0033
G01 X157.9163 Y-95.0842
G01 X157.9041 Y-95.1667
G01 X157.9000 Y-95.2500
G01 X157.9041 Y-95.3333
G01 X157.9163 Y-95.4158
G01 X157.9366 Y-95.4967
G01 X157.9647 Y-95.5753
G01 X158.0004 Y-95.6507
G01 X158.0433 Y-95.7222
G01 X158.0929 Y-95.7892
G01 X158.1490 Y-95.8510
G01 X158.2108 Y-95.9071
G01 X158.2778 Y-95.9567
G01 X158.3493 Y-95.9996
G00 Z2.0000
G00 X158.3493 Y-93.4596
G01 F60.00
G01 Z0.0000
G01 F120.00
G01 X158.4247 Y-93.4953
G01 X158.5033 Y-93.5234
G01 X158.5842 Y-93.5437
G01 X158.6667 Y-93.5559
G01 X158.7500 Y-93.5600
G01 X158.8333 Y-93.5559
G01 X158.9158 Y-93.5437
G01 X158.9967 Y-93.5234
G01 X159.0753 Y-93.4953
G01 X159.1507 Y-93.4596
G01 X159.2222 Y-93.4167
G01 X159.2892 Y-93.3671
G01 X159.3510 Y-93.3110
G01 X159.4071 Y-93.2492
G01 X159.4567 Y-93.1822
G01 X159.4996 Y-93.1107
G01 X159.5353 Y-93.0353
G01 X159.5634 Y-92.9567
G01 X159.5837 Y-92.8758
G01 X159.5959 Y-92.7933
G01 X159.6000 Y-92.7100
G01 X159.5959 Y-92.6267
G01 X159.5837 Y-92.5442
G01 X159.5634 Y-92.4633
G01 X159.5353 Y-92.3847
G01 X159.4996 Y-92.3093
G01 X159.4567 Y-92.2378
G01 X159.4071 Y-92.1708
G01 X159.3510 Y-92.1090
G01 X159.2892 Y-92.0529
G01 X159.2222 Y-92.0033
G01 X159.1507 Y-91.9604
G01 X159.0753 Y-91.9247
G01 X158.9967 Y-91.8966
G01 X158.9158 Y-91.8763
G01 X158.8333 Y-91.8641
G01 X158.7500 Y-91.8600
G01 X158.6667 Y-91.8641
G01 X158.5842 Y-91.8763
G01 X158.5033 Y-91.8966
G01 X158.4247 Y-91.9247
G01 X158.3493 Y-91.9604
G01 X158.2778 Y-92.0033
G01 X158.2108 Y-92.0529
G01 X158.1490 Y-92.1090
G01 X158.0929 Y-92.1708
G01 X158.0433 Y-92.2378
G01 X158.0004 Y-92.3093
G01 X157.9647 Y-92.3847
G01 X157.9366 Y-92.4633
G01 X157.9163 Y-92.5442
G01 X157.9041 Y-92.6267
G01 X157.9000 Y-92.7100
G01 X157.9041 Y-92.7933
G01 X157.9163 Y-92.8758
G01 X157.9366 Y-92.9567
G01 X157.9647 Y-93.0353
G01 X158.0004 Y-93.1107
G01 X158.0433 Y-93.1822
G01 X158.0929 Y-93.2492
G01 X158.1490 Y-93.3110
G01 X158.2108 Y-93.3671
G01 X158.2778 Y-93.4167
G01 X158.3493 Y-93.4596
G00 Z2.0000
G00 X158.3504 Y-90.9202
G01 F60.00
G01 Z0.0000
G01 F120.00
G01 X158.4247 Y-90.9553
G01 X158.5033 Y-90.9834
G01 X158.5842 Y-91.0037
G01 X158.6667 Y-91.0159
G01 X158.7500 Y-91.0200
G01 X158.8333 Y-91.0159
G01 X158.9158 Y-91.0037
G01 X158.9967 Y-90.9834
G01 X159.0753 Y-90.9553
G01 X159.1507 Y-90.9196
G01 X159.2222 Y-90.8767
G01 X159.2892 Y-90.8271
G01 X159.3510 Y-90.7710
G01 X159.4071 Y-90.7092
G01 X159.4567 Y-90.6422
G01 X159.4996 Y-90.5707
G01 X159.5353 Y-90.4953
G01 X159.5634 Y-90.4167
G01 X159.5837 Y-90.3358
G01 X159.5959 Y-90.2533
G01 X159.6000 Y-90.1700
G01 X159.5959 Y-90.0867
G01 X159.5837 Y-90.0042
G01 X159.5634 Y-89.9233
G01 X159.5353 Y-89.8447
G01 X159.4996 Y-89.7693
G01 X159.4567 Y-89.6978
G01 X159.4071 Y-89.6308
G01 X159.3510 Y-89.5690
G01 X159.2892 Y-89.5129
G01 X159.2222 Y-89.4633
G01 X159.1507 Y-89.4204
G01 X159.0753 Y-89.3847
G01 X158.9967 Y-89.3566
G01 X158.9158 Y-89.3363
G01 X158.8333 Y-89.3241
G01 X158.7500 Y-89.3200
G01 X158.6667 Y-89.3241
G01 X158.5842 Y-89.3363
G01 X158.5033 Y-89.3566
G01 X158.4247 Y-89.3847
G01 X158.3493 Y-89.4204
G01 X158.2778 Y-89.4633
G01 X158.2108 Y-89.5129
G01 X158.1490 Y-89.5690
G01 X158.0929 Y-89.6308
G01 X158.0433 Y-89.6978
G01 X158.0004 Y-89.7693
G01 X157.9647 Y-89.8447
G01 X157.9366 Y-89.9233
G01 X157.9163 Y-90.0042
G01 X157.9041 Y-90.0867
G01 X157.9000 Y-90.1700
G01 X157.9041 Y-90.2533
G01 X157.9163 Y-90.3358
G01 X157.9366 Y-90.4167
G01 X157.9647 Y-90.4953
G01 X158.0004 Y-90.5707
G01 X158.0433 Y-90.6422
G01 X158.0929 Y-90.7092
G01 X158.1490 Y-90.7710
G01 X158.2108 Y-90.8271
G01 X158.2778 Y-90.8767
G01 X158.3504 Y-90.9202
G00 Z2.0000
G00 X158.3493 Y-88.3796
G01 F60.00
G01 Z0.0000
G01 F120.00
G01 X158.4247 Y-88.4153
G01 X158.5033 Y-88.4434
G01 X158.5842 Y-88.4637
G01 X158.6667 Y-88.4759
G01 X158.7500 Y-88.4800
G01 X158.8333 Y-88.4759
G01 X158.9158 Y-88.4637
G01 X158.9967 Y-88.4434
G01 X159.0753 Y-88.4153
G01 X159.1507 Y-88.3796
G01 X159.2222 Y-88.3367
G01 X159.2892 Y-88.2871
G01 X159.3510 Y-88.2310
G01 X159.4071 Y-88.1692
G01 X159.4567 Y-88.1022
G01 X159.4996 Y-88.0307
G01 X159.5353 Y-87.9553
G01 X159.5634 Y-87.8767
G01 X159.5837 Y-87.7958
G01 X159.5959 Y-87.7133
G01 X159.6000 Y-87.6300
G01 X159.5959 Y-87.5467
G01 X159.5837 Y-87.4642
G01 X159.5634 Y-87.3833
G01 X159.5353 Y-87.3047
G01 X159.4996 Y-87.2293
G01 X159.4567 Y-87.1578
G01 X159.4071 Y-87.0908
G01 X159.3510 Y-87.0290
G01 X159.2892 Y-86.9729
G01 X159.2222 Y-86.9233
G01 X159.1507 Y-86.8804
G01 X159.0753 Y-86.8447
G01 X158.9967 Y-86.8166
G01 X158.9158 Y-86.7963
G01 X158.8333 Y-86.7841
G01 X158.7500 Y-86.7800
G01 X158.6667 Y-86.7841
G01 X158.5842 Y-86.7963
G01 X158.5033 Y-86.8166
G01 X158.4247 Y-86.8447
G01 X158.3493 Y-86.8804
G01 X158.2778 Y-86.9233
G01 X158.2108 Y-86.9729
G01 X158.1490 Y-87.0290
G01 X158.0929 Y-87.0908
G01 X158.0433 Y-87.1578
G01 X158.0004 Y-87.2293
G01 X157.9647 Y-87.3047
G01 X157.9366 Y-87.3833
G01 X157.9163 Y-87.4642
G01 X157.9041 Y-87.5467
G01 X157.9000 Y-87.6300
G01 X157.9041 Y-87.7133
G01 X157.9163 Y-87.7958
G01 X157.9366 Y-87.8767
G01 X157.9647 Y-87.9553
G01 X158.0004 Y-88.0307
G01 X158.0433 Y-88.1022
G01 X158.0929 Y-88.1692
G01 X158.1490 Y-88.2310
G01 X158.2108 Y-88.2871
G01 X158.2778 Y-88.3367
G01 X158.3493 Y-88.3796
G00 Z2.0000
G00 X158.3493 Y-85.8396
G01 F60.00
G01 Z0.0000
G01 F120.00
G01 X158.4247 Y-85.8753
G01 X158.5033 Y-85.9034
G01 X158.5842 Y-85.9237
G01 X158.6667 Y-85.9359
G01 X158.7500 Y-85.9400
G01 X158.8333 Y-85.9359
G01 X158.9158 Y-85.9237
G01 X158.9967 Y-85.9034
G01 X159.0753 Y-85.8753
G01 X159.1507 Y-85.8396
G01 X159.2222 Y-85.7967
G01 X159.2892 Y-85.7471
G01 X159.3510 Y-85.6910
G01 X159.4071 Y-85.6292
G01 X159.4567 Y-85.5622
G01 X159.4996 Y-85.4907
G01 X159.5353 Y-85.4153
G01 X159.5634 Y-85.3367
G01 X159.5837 Y-85.2558
G01 X159.5959 Y-85.1733
G01 X159.6000 Y-85.0900
G01 X159.5959 Y-85.0067
G01 X159.5837 Y-84.9242
G01 X159.5634 Y-84.8433
G01 X159.5353 Y-84.7647
G01 X159.4996 Y-84.6893
G01 X159.4567 Y-84.6178
G01 X159.4071 Y-84.5508
G01 X159.3510 Y-84.4890
G01 X159.2892 Y-84.4329
G01 X159.2222 Y-84.3833
G01 X159.1507 Y-84.3404
G01 X159.0753 Y-84.3047
G01 X158.9967 Y-84.2766
G01 X158.9158 Y-84.2563
G01 X158.8333 Y-84.2441
G01 X158.7500 Y-84.2400
G01 X158.6667 Y-84.2441
G01 X158.5842 Y-84.2563
G01 X158.5033 Y-84.2766
G01 X158.4247 Y-84.3047
G01 X158.3493 Y-84.3404
G01 X158.2778 Y-84.3833
G01 X158.2108 Y-84.4329
G01 X158.1490 Y-84.4890
G01 X158.0929 Y-84.5508
G01 X158.0433 Y-84.6178
G01 X158.0004 Y-84.6893
G01 X157.9647 Y-84.7647
G01 X157.9366 Y-84.8433
G01 X157.9163 Y-84.9242
G01 X157.9041 Y-85.0067
G01 X157.9000 Y-85.0900
G01 X157.9041 Y-85.1733
G01 X157.9163 Y-85.2558
G01 X157.9366 Y-85.3367
G01 X157.9647 Y-85.4153
G01 X158.0004 Y-85.4907
G01 X158.0433 Y-85.5622
G01 X158.0929 Y-85.6292
G01 X158.1490 Y-85.6910
G01 X158.2108 Y-85.7471
G01 X158.2778 Y-85.7967
G01 X158.3493 Y-85.8396
G00 Z2.0000
G00 X158.3493 Y-83.2996
G01 F60.00
G01 Z0.0000
G01 F120.00
G01 X158.4247 Y-83.3353
G01 X158.5033 Y-83.3634
G01 X158.5842 Y-83.3837
G01 X158.6667 Y-83.3959
G01 X158.7500 Y-83.4000
G01 X158.8333 Y-83.3959
G01 X158.9158 Y-83.3837
G01 X158.9967 Y-83.3634
G01 X159.0753 Y-83.3353
G01 X159.1507 Y-83.2996
G01 X159.2222 Y-83.2567
G01 X159.2892 Y-83.2071
G01 X159.3510 Y-83.1510
G01 X159.4071 Y-83.0892
G01 X159.4567 Y-83.0222
G01 X159.4996 Y-82.9507
G01 X159.5353 Y-82.8753
G01 X159.5634 Y-82.7967
G01 X159.5837 Y-82.7158
G01 X159.5959 Y-82.6333
G01 X159.6000 Y-82.5500
G01 X159.5959 Y-82.4667
G01 X159.5837 Y-82.3842
G01 X159.5634 Y-82.3033
G01 X159.5353 Y-82.2247
G01 X159.4996 Y-82.1493
G01 X159.4567 Y-82.0778
G01 X159.4071 Y-82.0108
G01 X159.3510 Y-81.9490
G01 X159.2892 Y-81.8929
G01 X159.2222 Y-81.8433
G01 X159.1507 Y-81.8004
G01 X159.0753 Y-81.7647
G01 X158.9967 Y-81.7366
G01 X158.9158 Y-81.7163
G01 X158.8333 Y-81.7041
G01 X158.7500 Y-81.7000
G01 X158.6667 Y-81.7041
G01 X158.5842 Y-81.7163
G01 X158.5033 Y-81.7366
G01 X158.4247 Y-81.7647
G01 X158.3493 Y-81.8004
G01 X158.2778 Y-81.8433
G01 X158.2108 Y-81.8929
G01 X158.1490 Y-81.9490
G01 X158.0929 Y-82.0108
G01 X158.0433 Y-82.0778
G01 X158.0004 Y-82.1493
G01 X157.9647 Y-82.2247
G01 X157.9366 Y-82.3033
G01 X157.9163 Y-82.3842
G01 X157.9041 Y-82.4667
G01 X157.9000 Y-82.5500
G01 X157.9041 Y-82.6333
G01 X157.9163 Y-82.7158
G01 X157.9366 Y-82.7967
G01 X157.9647 Y-82.8753
G01 X158.0004 Y-82.9507
G01 X158.0433 Y-83.0222
G01 X158.0929 Y-83.0892
G01 X158.1490 Y-83.1510
G01 X158.2108 Y-83.2071
G01 X158.2778 Y-83.2567
G01 X158.3493 Y-83.2996
G00 Z2.0000
G00 X158.3493 Y-80.7596
G01 F60.00
G01 Z0.0000
G01 F120.00
G01 X158.4247 Y-80.7953
G01 X158.5033 Y-80.8234
G01 X158.5842 Y-80.8437
G01 X158.6667 Y-80.8559
G01 X158.7500 Y-80.8600
G01 X158.8333 Y-80.8559
G01 X158.9158 Y-80.8437
G01 X158.9967 Y-80.8234
G01 X159.0753 Y-80.7953
G01 X159.1507 Y-80.7596
G01 X159.2222 Y-80.7167
G01 X159.2892 Y-80.6671
G01 X159.3510 Y-80.6110
G01 X159.4071 Y-80.5492
G01 X159.4567 Y-80.4822
G01 X159.4996 Y-80.4107
G01 X159.5353 Y-80.3353
G01 X159.5634 Y-80.2567
G01 X159.5837 Y-80.1758
G01 X159.5959 Y-80.0933
G01 X159.6000 Y-80.0100
G01 X159.5959 Y-79.9267
G01 X159.5837 Y-79.8442
G01 X159.5634 Y-79.7633
G01 X159.5353 Y-79.6847
G01 X159.4996 Y-79.6093
G01 X159.4567 Y-79.5378
G01 X159.4071 Y-79.4708
G01 X159.3510 Y-79.4090
G01 X159.2892 Y-79.3529
G01 X159.2222 Y-79.3033
G01 X159.1507 Y-79.2604
G01 X159.0753 Y-79.2247
G01 X158.9967 Y-79.1966
G01 X158.9158 Y-79.1763
G01 X158.8333 Y-79.1641
G01 X158.7500 Y-79.1600
G01 X158.6667 Y-79.1641
G01 X158.5842 Y-79.1763
G01 X158.5033 Y-79.1966
G01 X158.4247 Y-79.2247
G01 X158.3493 Y-79.2604
G01 X158.2778 Y-79.3033
G01 X158.2108 Y-79.3529
G01 X158.1490 Y-79.4090
G01 X158.0929 Y-79.4708
G01 X158.0433 Y-79.5378
G01 X158.0004 Y-79.6093
G01 X157.9647 Y-79.6847
G01 X157.9366 Y-79.7633
G01 X157.9163 Y-79.8442
G01 X157.9041 Y-79.9267
G01 X157.9000 Y-80.0100
G01 X157.9041 Y-80.0933
G01 X157.9163 Y-80.1758
G01 X157.9366 Y-80.2567
G01 X157.9647 Y-80.3353
G01 X158.0004 Y-80.4107
G01 X158.0433 Y-80.4822
G01 X158.0929 Y-80.5492
G01 X158.1490 Y-80.6110
G01 X158.2108 Y-80.6671
G01 X158.2778 Y-80.7167
G01 X158.3493 Y-80.7596
G00 Z2.0000
G00 X157.9415 Y-78.3193
G01 F60.00
G01 Z0.0000
G01 F120.00
G01 X157.9500 Y-78.3200
G01 X159.5500 Y-78.3200
G01 X159.5549 Y-78.3198
G01 X159.5610 Y-78.3188
G01 X159.5703 Y-78.3157
G01 X159.5788 Y-78.3109
G01 X159.5862 Y-78.3045
G01 X159.5916 Y-78.2978
G01 X159.5962 Y-78.2891
G01 X159.5990 Y-78.2798
G01 X159.6000 Y-78.2700
G01 X159.6000 Y-76.6700
G01 X159.5998 Y-76.6651
G01 X159.5988 Y-76.6590
G01 X159.5957 Y-76.6497
G01 X159.5909 Y-76.6412
G01 X159.5845 Y-76.6338
G01 X159.5767 Y-76.6278
G01 X159.5680 Y-76.6234
G01 X159.5585 Y-76.6207
G01 X159.5500 Y-76.6200
G01 X157.9500 Y-76.6200
G01 X157.9402 Y-76.6210
G01 X157.9309 Y-76.6238
G01 X157.9222 Y-76.6284
G01 X157.9183 Y-76.6313
G01 X157.9138 Y-76.6355
G01 X157.9078 Y-76.6433
G01 X157.9034 Y-76.6520
G01 X157.9010 Y-76.6602
G01 X157.9000 Y-76.6700
G01 X157.9000 Y-78.2712
G01 X157.9010 Y-78.2798
G01 X157.9034 Y-78.2880
G01 X157.9071 Y-78.2957
G01 X157.9121 Y-78.3027
G01 X157.9183 Y-78.3087
G01 X157.9254 Y-78.3135
G01 X157.9332 Y-78.3171
G01 X157.9415 Y-78.3193
G00 Z2.0000
G00 X151.5415 Y-75.8293
G01 F60.00
G01 Z0.0000
G01 F120.00
G01 X151.5500 Y-75.8300
G01 X153.2500 Y-75.8300
G01 X153.2598 Y-75.8290
G01 X153.2691 Y-75.8262
G01 X153.2778 Y-75.8216
G01 X153.2854 Y-75.8154
G01 X153.2916 Y-75.8078
G01 X153.2962 Y-75.7991
G01 X153.2990 Y-75.7898
G01 X153.3000 Y-75.7800
G01 X153.3000 Y-74.0800
G01 X153.2990 Y-74.0702
G01 X153.2962 Y-74.0609
G01 X153.2916 Y-74.0522
G01 X153.2854 Y-74.0446
G01 X153.2778 Y-74.0384
G01 X153.2691 Y-74.0338
G01 X153.2598 Y-74.0310
G01 X153.2500 Y-74.0300
G01 X151.5500 Y-74.0300
G01 X151.5402 Y-74.0310
G01 X151.5309 Y-74.0338
G01 X151.5222 Y-74.0384
G01 X151.5146 Y-74.0446
G01 X151.5084 Y-74.0522
G01 X151.5038 Y-74.0609
G01 X151.5010 Y-74.0702
G01 X151.5000 Y-74.0800
G01 X151.5000 Y-75.7812
G01 X151.5010 Y-75.7898
G01 X151.5034 Y-75.7980
G01 X151.5071 Y-75.8057
G01 X151.5121 Y-75.8127
G01 X151.5183 Y-75.8187
G01 X151.5254 Y-75.8235
G01 X151.5332 Y-75.8271
G01 X151.5415 Y-75.8293
G00 Z2.0000
G00 X149.4368 Y-75.7243
G01 F60.00
G01 Z0.0000
G01 F120.00
G01 X149.5156 Y-75.7615
G01 X149.5987 Y-75.7912
G01 X149.6844 Y-75.8127
G01 X149.7718 Y-75.8257
G01 X149.8600 Y-75.8300
G01 X149.9482 Y-75.8257
G01 X150.0356 Y-75.8127
G01 X150.1213 Y-75.7912
G01 X150.2044 Y-75.7615
G01 X150.2843 Y-75.7237
G01 X150.3600 Y-75.6783
G01 X150.4310 Y-75.6257
G01 X150.4964 Y-75.5664
G01 X150.5557 Y-75.5010
G01 X150.6083 Y-75.4300
G01 X150.6537 Y-75.3543
G01 X150.6915 Y-75.2744
G01 X150.7212 Y-75.1913
G01 X150.7427 Y-75.1056
G01 X150.7557 Y-75.0182
G01 X150.7600 Y-74.9300
G01 X150.7557 Y-74.8418
G01 X150.7427 Y-74.7544
G01 X150.7212 Y-74.6687
G01 X150.6915 Y-74.5856
G01 X150.6537 Y-74.5057
G01 X150.6083 Y-74.4300
G01 X150.5557 Y-74.3590
G01 X150.4964 Y-74.2936
G01 X150.4310 Y-74.2343
G01 X150.3600 Y-74.1817
G01 X150.2843 Y-74.1363
G01 X150.2044 Y-74.0985
G01 X150.1213 Y-74.0688
G01 X150.0356 Y-74.0473
G01 X149.9482 Y-74.0343
G01 X149.8600 Y-74.0300
G01 X149.7718 Y-74.0343
G01 X149.6844 Y-74.0473
G01 X149.5987 Y-74.0688
G01 X149.5156 Y-74.0985
G01 X149.4357 Y-74.1363
G01 X149.3600 Y-74.1817
G01 X149.2890 Y-74.2343
G01 X149.2236 Y-74.2936
G01 X149.1643 Y-74.3590
G01 X149.1117 Y-74.4300
G01 X149.0663 Y-74.5057
G01 X149.0285 Y-74.5856
G01 X148.9988 Y-74.6687
G01 X148.9773 Y-74.7544
G01 X148.9643 Y-74.8418
G01 X148.9600 Y-74.9300
G01 X148.9643 Y-75.0182
G01 X148.9773 Y-75.1056
G01 X148.9988 Y-75.1913
G01 X149.0285 Y-75.2744
G01 X149.0663 Y-75.3543
G01 X149.1117 Y-75.4300
G01 X149.1643 Y-75.5010
G01 X149.2236 Y-75.5664
G01 X149.2890 Y-75.6257
G01 X149.3600 Y-75.6783
G01 X149.4368 Y-75.7243
G00 Z2.0000
G00 X173.5904 Y-78.2202
G01 F60.00
G01 Z0.0000
G01 F120.00
G01 X173.6647 Y-78.2553
G01 X173.7433 Y-78.2834
G01 X173.8242 Y-78.3037
G01 X173.9067 Y-78.3159
G01 X173.9900 Y-78.3200
G01 X174.0733 Y-78.3159
G01 X174.1558 Y-78.3037
G01 X174.2367 Y-78.2834
G01 X174.3153 Y-78.2553
G01 X174.3907 Y-78.2196
G01 X174.4622 Y-78.1767
G01 X174.5292 Y-78.1271
G01 X174.5910 Y-78.0710
G01 X174.6471 Y-78.0092
G01 X174.6967 Y-77.9422
G01 X174.7396 Y-77.8707
G01 X174.7753 Y-77.7953
G01 X174.8034 Y-77.7167
G01 X174.8237 Y-77.6358
G01 X174.8359 Y-77.5533
G01 X174.8400 Y-77.4700
G01 X174.8359 Y-77.3867
G01 X174.8237 Y-77.3042
G01 X174.8034 Y-77.2233
G01 X174.7753 Y-77.1447
G01 X174.7396 Y-77.0693
G01 X174.6967 Y-76.9978
G01 X174.6471 Y-76.9308
G01 X174.5910 Y-76.8690
G01 X174.5292 Y-76.8129
G01 X174.4622 Y-76.7633
G01 X174.3907 Y-76.7204
G01 X174.3153 Y-76.6847
G01 X174.2367 Y-76.6566
G01 X174.1558 Y-76.6363
G01 X174.0733 Y-76.6241
G01 X173.9900 Y-76.6200
G01 X173.9067 Y-76.6241
G01 X173.8242 Y-76.6363
G01 X173.7433 Y-76.6566
G01 X173.6647 Y-76.6847
G01 X173.5893 Y-76.7204
G01 X173.5178 Y-76.7633
G01 X173.4508 Y-76.8129
G01 X173.3890 Y-76.8690
G01 X173.3329 Y-76.9308
G01 X173.2833 Y-76.9978
G01 X173.2404 Y-77.0693
G01 X173.2047 Y-77.1447
G01 X173.1766 Y-77.2233
G01 X173.1563 Y-77.3042
G01 X173.1441 Y-77.3867
G01 X173.1400 Y-77.4700
G01 X173.1441 Y-77.5533
G01 X173.1563 Y-77.6358
G01 X173.1766 Y-77.7167
G01 X173.2047 Y-77.7953
G01 X173.2404 Y-77.8707
G01 X173.2833 Y-77.9422
G01 X173.3329 Y-78.0092
G01 X173.3890 Y-78.0710
G01 X173.4508 Y-78.1271
G01 X173.5178 Y-78.1767
G01 X173.5904 Y-78.2202
G00 Z2.0000
G00 X173.5893 Y-80.7596
G01 F60.00
G01 Z0.0000
G01 F120.00
G01 X173.6647 Y-80.7953
G01 X173.7433 Y-80.8234
G01 X173.8242 Y-80.8437
G01 X173.9067 Y-80.8559
G01 X173.9900 Y-80.8600
G01 X174.0733 Y-80.8559
G01 X174.1558 Y-80.8437
G01 X174.2367 Y-80.8234
G01 X174.3153 Y-80.7953
G01 X174.3907 Y-80.7596
G01 X174.4622 Y-80.7167
G01 X174.5292 Y-80.6671
G01 X174.5910 Y-80.6110
G01 X174.6471 Y-80.5492
G01 X174.6967 Y-80.4822
G01 X174.7396 Y-80.4107
G01 X174.7753 Y-80.3353
G01 X174.8034 Y-80.2567
G01 X174.8237 Y-80.1758
G01 X174.8359 Y-80.0933
G01 X174.8400 Y-80.0100
G01 X174.8359 Y-79.9267
G01 X174.8237 Y-79.8442
G01 X174.8034 Y-79.7633
G01 X174.7753 Y-79.6847
G01 X174.7396 Y-79.6093
G01 X174.6967 Y-79.5378
G01 X174.6471 Y-79.4708
G01 X174.5910 Y-79.4090
G01 X174.5292 Y-79.3529
G01 X174.4622 Y-79.3033
G01 X174.3907 Y-79.2604
G01 X174.3153 Y-79.2247
G01 X174.2367 Y-79.1966
G01 X174.1558 Y-79.1763
G01 X174.0733 Y-79.1641
G01 X173.9900 Y-79.1600
G01 X173.9067 Y-79.1641
G01 X173.8242 Y-79.1763
G01 X173.7433 Y-79.1966
G01 X173.6647 Y-79.2247
G01 X173.5893 Y-79.2604
G01 X173.5178 Y-79.3033
G01 X173.4508 Y-79.3529
G01 X173.3890 Y-79.4090
G01 X173.3329 Y-79.4708
G01 X173.2833 Y-79.5378
G01 X173.2404 Y-79.6093
G01 X173.2047 Y-79.6847
G01 X173.1766 Y-79.7633
G01 X173.1563 Y-79.8442
G01 X173.1441 Y-79.9267
G01 X173.1400 Y-80.0100
G01 X173.1441 Y-80.0933
G01 X173.1563 Y-80.1758
G01 X173.1766 Y-80.2567
G01 X173.2047 Y-80.3353
G01 X173.2404 Y-80.4107
G01 X173.2833 Y-80.4822
G01 X173.3329 Y-80.5492
G01 X173.3890 Y-80.6110
G01 X173.4508 Y-80.6671
G01 X173.5178 Y-80.7167
G01 X173.5893 Y-80.7596
G00 Z2.0000
G00 X173.5893 Y-83.2996
G01 F60.00
G01 Z0.0000
G01 F120.00
G01 X173.6647 Y-83.3353
G01 X173.7433 Y-83.3634
G01 X173.8242 Y-83.3837
G01 X173.9067 Y-83.3959
G01 X173.9900 Y-83.4000
G01 X174.0733 Y-83.3959
G01 X174.1558 Y-83.3837
G01 X174.2367 Y-83.3634
G01 X174.3153 Y-83.3353
G01 X174.3907 Y-83.2996
G01 X174.4622 Y-83.2567
G01 X174.5292 Y-83.2071
G01 X174.5910 Y-83.1510
G01 X174.6471 Y-83.0892
G01 X174.6967 Y-83.0222
G01 X174.7396 Y-82.9507
G01 X174.7753 Y-82.8753
G01 X174.8034 Y-82.7967
G01 X174.8237 Y-82.7158
G01 X174.8359 Y-82.6333
G01 X174.8400 Y-82.5500
G01 X174.8359 Y-82.4667
G01 X174.8237 Y-82.3842
G01 X174.8034 Y-82.3033
G01 X174.7753 Y-82.2247
G01 X174.7396 Y-82.1493
G01 X174.6967 Y-82.0778
G01 X174.6471 Y-82.0108
G01 X174.5910 Y-81.9490
G01 X174.5292 Y-81.8929
G01 X174.4622 Y-81.8433
G01 X174.3907 Y-81.8004
G01 X174.3153 Y-81.7647
G01 X174.2367 Y-81.7366
G01 X174.1558 Y-81.7163
G01 X174.0733 Y-81.7041
G01 X173.9900 Y-81.7000
G01 X173.9067 Y-81.7041
G01 X173.8242 Y-81.7163
G01 X173.7433 Y-81.7366
G01 X173.6647 Y-81.7647
G01 X173.5893 Y-81.8004
G01 X173.5178 Y-81.8433
G01 X173.4508 Y-81.8929
G01 X173.3890 Y-81.9490
G01 X173.3329 Y-82.0108
G01 X173.2833 Y-82.0778
G01 X173.2404 Y-82.1493
G01 X173.2047 Y-82.2247
G01 X173.1766 Y-82.3033
G01 X173.1563 Y-82.3842
G01 X173.1441 Y-82.4667
G01 X173.1400 Y-82.5500
G01 X173.1441 Y-82.6333
G01 X173.1563 Y-82.7158
G01 X173.1766 Y-82.7967
G01 X173.2047 Y-82.8753
G01 X173.2404 Y-82.9507
G01 X173.2833 Y-83.0222
G01 X173.3329 Y-83.0892
G01 X173.3890 Y-83.1510
G01 X173.4508 Y-83.2071
G01 X173.5178 Y-83.2567
G01 X173.5893 Y-83.2996
G00 Z2.0000
G00 X173.5893 Y-85.8396
G01 F60.00
G01 Z0.0000
G01 F120.00
G01 X173.6647 Y-85.8753
G01 X173.7433 Y-85.9034
G01 X173.8242 Y-85.9237
G01 X173.9067 Y-85.9359
G01 X173.9900 Y-85.9400
G01 X174.0733 Y-85.9359
G01 X174.1558 Y-85.9237
G01 X174.2367 Y-85.9034
G01 X174.3153 Y-85.8753
G01 X174.3907 Y-85.8396
G01 X174.4622 Y-85.7967
G01 X174.5292 Y-85.7471
G01 X174.5910 Y-85.6910
G01 X174.6471 Y-85.6292
G01 X174.6967 Y-85.5622
G01 X174.7396 Y-85.4907
G01 X174.7753 Y-85.4153
G01 X174.8034 Y-85.3367
G01 X174.8237 Y-85.2558
G01 X174.8359 Y-85.1733
G01 X174.8400 Y-85.0900
G01 X174.8359 Y-85.0067
G01 X174.8237 Y-84.9242
G01 X174.8034 Y-84.8433
G01 X174.7753 Y-84.7647
G01 X174.7396 Y-84.6893
G01 X174.6967 Y-84.6178
G01 X174.6471 Y-84.5508
G01 X174.5910 Y-84.4890
G01 X174.5292 Y-84.4329
G01 X174.4622 Y-84.3833
G01 X174.3907 Y-84.3404
G01 X174.3153 Y-84.3047
G01 X174.2367 Y-84.2766
G01 X174.1558 Y-84.2563
G01 X174.0733 Y-84.2441
G01 X173.9900 Y-84.2400
G01 X173.9067 Y-84.2441
G01 X173.8242 Y-84.2563
G01 X173.7433 Y-84.2766
G01 X173.6647 Y-84.3047
G01 X173.5893 Y-84.3404
G01 X173.5178 Y-84.3833
G01 X173.4508 Y-84.4329
G01 X173.3890 Y-84.4890
G01 X173.3329 Y-84.5508
G01 X173.2833 Y-84.6178
G01 X173.2404 Y-84.6893
G01 X173.2047 Y-84.7647
G01 X173.1766 Y-84.8433
G01 X173.1563 Y-84.9242
G01 X173.1441 Y-85.0067
G01 X173.1400 Y-85.0900
G01 X173.1441 Y-85.1733
G01 X173.1563 Y-85.2558
G01 X173.1766 Y-85.3367
G01 X173.2047 Y-85.4153
G01 X173.2404 Y-85.4907
G01 X173.2833 Y-85.5622
G01 X173.3329 Y-85.6292
G01 X173.3890 Y-85.6910
G01 X173.4508 Y-85.7471
G01 X173.5178 Y-85.7967
G01 X173.5893 Y-85.8396
G00 Z2.0000
G00 X173.5893 Y-88.3796
G01 F60.00
G01 Z0.0000
G01 F120.00
G01 X173.6647 Y-88.4153
G01 X173.7433 Y-88.4434
G01 X173.8242 Y-88.4637
G01 X173.9067 Y-88.4759
G01 X173.9900 Y-88.4800
G01 X174.0733 Y-88.4759
G01 X174.1558 Y-88.4637
G01 X174.2367 Y-88.4434
G01 X174.3153 Y-88.4153
G01 X174.3907 Y-88.3796
G01 X174.4622 Y-88.3367
G01 X174.5292 Y-88.2871
G01 X174.5910 Y-88.2310
G01 X174.6471 Y-88.1692
G01 X174.6967 Y-88.1022
G01 X174.7396 Y-88.0307
G01 X174.7753 Y-87.9553
G01 X174.8034 Y-87.8767
G01 X174.8237 Y-87.7958
G01 X174.8359 Y-87.7133
G01 X174.8400 Y-87.6300
G01 X174.8359 Y-87.5467
G01 X174.8237 Y-87.4642
G01 X174.8034 Y-87.3833
G01 X174.7753 Y-87.3047
G01 X174.7396 Y-87.2293
G01 X174.6967 Y-87.1578
G01 X174.6471 Y-87.0908
G01 X174.5910 Y-87.0290
G01 X174.5292 Y-86.9729
G01 X174.4622 Y-86.9233
G01 X174.3907 Y-86.8804
G01 X174.3153 Y-86.8447
G01 X174.2367 Y-86.8166
G01 X174.1558 Y-86.7963
G01 X174.0733 Y-86.7841
G01 X173.9900 Y-86.7800
G01 X173.9067 Y-86.7841
G01 X173.8242 Y-86.7963
G01 X173.7433 Y-86.8166
G01 X173.6647 Y-86.8447
G01 X173.5893 Y-86.8804
G01 X173.5178 Y-86.9233
G01 X173.4508 Y-86.9729
G01 X173.3890 Y-87.0290
G01 X173.3329 Y-87.0908
G01 X173.2833 Y-87.1578
G01 X173.2404 Y-87.2293
G01 X173.2047 Y-87.3047
G01 X173.1766 Y-87.3833
G01 X173.1563 Y-87.4642
G01 X173.1441 Y-87.5467
G01 X173.1400 Y-87.6300
G01 X173.1441 Y-87.7133
G01 X173.1563 Y-87.7958
G01 X173.1766 Y-87.8767
G01 X173.2047 Y-87.9553
G01 X173.2404 Y-88.0307
G01 X173.2833 Y-88.1022
G01 X173.3329 Y-88.1692
G01 X173.3890 Y-88.2310
G01 X173.4508 Y-88.2871
G01 X173.5178 Y-88.3367
G01 X173.5893 Y-88.3796
G00 Z2.0000
G00 X173.5893 Y-90.9196
G01 F60.00
G01 Z0.0000
G01 F120.00
G01 X173.6647 Y-90.9553
G01 X173.7433 Y-90.9834
G01 X173.8242 Y-91.0037
G01 X173.9067 Y-91.0159
G01 X173.9900 Y-91.0200
G01 X174.0733 Y-91.0159
G01 X174.1558 Y-91.0037
G01 X174.2367 Y-90.9834
G01 X174.3153 Y-90.9553
G01 X174.3907 Y-90.9196
G01 X174.4622 Y-90.8767
G01 X174.5292 Y-90.8271
G01 X174.5910 Y-90.7710
G01 X174.6471 Y-90.7092
G01 X174.6967 Y-90.6422
G01 X174.7396 Y-90.5707
G01 X174.7753 Y-90.4953
G01 X174.8034 Y-90.4167
G01 X174.8237 Y-90.3358
G01 X174.8359 Y-90.2533
G01 X174.8400 Y-90.1700
G01 X174.8359 Y-90.0867
G01 X174.8237 Y-90.0042
G01 X174.8034 Y-89.9233
G01 X174.7753 Y-89.8447
G01 X174.7396 Y-89.7693
G01 X174.6967 Y-89.6978
G01 X174.6471 Y-89.6308
G01 X174.5910 Y-89.5690
G01 X174.5292 Y-89.5129
G01 X174.4622 Y-89.4633
G01 X174.3907 Y-89.4204
G01 X174.3153 Y-89.3847
G01 X174.2367 Y-89.3566
G01 X174.1558 Y-89.3363
G01 X174.0733 Y-89.3241
G01 X173.9900 Y-89.3200
G01 X173.9067 Y-89.3241
G01 X173.8242 Y-89.3363
G01 X173.7433 Y-89.3566
G01 X173.6647 Y-89.3847
G01 X173.5893 Y-89.4204
G01 X173.5178 Y-89.4633
G01 X173.4508 Y-89.5129
G01 X173.3890 Y-89.5690
G01 X173.3329 Y-89.6308
G01 X173.2833 Y-89.6978
G01 X173.2404 Y-89.7693
G01 X173.2047 Y-89.8447
G01 X173.1766 Y-89.9233
G01 X173.1563 Y-90.0042
G01 X173.1441 Y-90.0867
G01 X173.1400 Y-90.1700
G01 X173.1441 Y-90.2533
G01 X173.1563 Y-90.3358
G01 X173.1766 Y-90.4167
G01 X173.2047 Y-90.4953
G01 X173.2404 Y-90.5707
G01 X173.2833 Y-90.6422
G01 X173.3329 Y-90.7092
G01 X173.3890 Y-90.7710
G01 X173.4508 Y-90.8271
G01 X173.5178 Y-90.8767
G01 X173.5893 Y-90.9196
G00 Z2.0000
G00 X173.5893 Y-93.4596
G01 F60.00
G01 Z0.0000
G01 F120.00
G01 X173.6647 Y-93.4953
G01 X173.7433 Y-93.5234
G01 X173.8242 Y-93.5437
G01 X173.9067 Y-93.5559
G01 X173.9900 Y-93.5600
G01 X174.0733 Y-93.5559
G01 X174.1558 Y-93.5437
G01 X174.2367 Y-93.5234
G01 X174.3153 Y-93.4953
G01 X174.3907 Y-93.4596
G01 X174.4622 Y-93.4167
G01 X174.5292 Y-93.3671
G01 X174.5910 Y-93.3110
G01 X174.6471 Y-93.2492
G01 X174.6967 Y-93.1822
G01 X174.7396 Y-93.1107
G01 X174.7753 Y-93.0353
G01 X174.8034 Y-92.9567
G01 X174.8237 Y-92.8758
G01 X174.8359 Y-92.7933
G01 X174.8400 Y-92.7100
G01 X174.8359 Y-92.6267
G01 X174.8237 Y-92.5442
G01 X174.8034 Y-92.4633
G01 X174.7753 Y-92.3847
G01 X174.7396 Y-92.3093
G01 X174.6967 Y-92.2378
G01 X174.6471 Y-92.1708
G01 X174.5910 Y-92.1090
G01 X174.5292 Y-92.0529
G01 X174.4622 Y-92.0033
G01 X174.3907 Y-91.9604
G01 X174.3153 Y-91.9247
G01 X174.2367 Y-91.8966
G01 X174.1558 Y-91.8763
G01 X174.0733 Y-91.8641
G01 X173.9900 Y-91.8600
G01 X173.9067 Y-91.8641
G01 X173.8242 Y-91.8763
G01 X173.7433 Y-91.8966
G01 X173.6647 Y-91.9247
G01 X173.5893 Y-91.9604
G01 X173.5178 Y-92.0033
G01 X173.4508 Y-92.0529
G01 X173.3890 Y-92.1090
G01 X173.3329 Y-92.1708
G01 X173.2833 Y-92.2378
G01 X173.2404 Y-92.3093
G01 X173.2047 Y-92.3847
G01 X173.1766 Y-92.4633
G01 X173.1563 Y-92.5442
G01 X173.1441 Y-92.6267
G01 X173.1400 Y-92.7100
G01 X173.1441 Y-92.7933
G01 X173.1563 Y-92.8758
G01 X173.1766 Y-92.9567
G01 X173.2047 Y-93.0353
G01 X173.2404 Y-93.1107
G01 X173.2833 Y-93.1822
G01 X173.3329 Y-93.2492
G01 X173.3890 Y-93.3110
G01 X173.4508 Y-93.3671
G01 X173.5178 Y-93.4167
G01 X173.5893 Y-93.4596
G00 Z2.0000
G00 X173.5893 Y-95.9996
G01 F60.00
G01 Z0.0000
G01 F120.00
G01 X173.6647 Y-96.0353
G01 X173.7433 Y-96.0634
G01 X173.8242 Y-96.0837
G01 X173.9067 Y-96.0959
G01 X173.9900 Y-96.1000
G01 X174.0733 Y-96.0959
G01 X174.1558 Y-96.0837
G01 X174.2367 Y-96.0634
G01 X174.3153 Y-96.0353
G01 X174.3907 Y-95.9996
G01 X174.4622 Y-95.9567
G01 X174.5292 Y-95.9071
G01 X174.5910 Y-95.8510
G01 X174.6471 Y-95.7892
G01 X174.6967 Y-95.7222
G01 X174.7396 Y-95.6507
G01 X174.7753 Y-95.5753
G01 X174.8034 Y-95.4967
G01 X174.8237 Y-95.4158
G01 X174.8359 Y-95.3333
G01 X174.8400 Y-95.2500
G01 X174.8359 Y-95.1667
G01 X174.8237 Y-95.0842
G01 X174.8034 Y-95.0033
G01 X174.7753 Y-94.9247
G01 X174.7396 Y-94.8493
G01 X174.6967 Y-94.7778
G01 X174.6471 Y-94.7108
G01 X174.5910 Y-94.6490
G01 X174.5292 Y-94.5929
G01 X174.4622 Y-94.5433
G01 X174.3907 Y-94.5004
G01 X174.3153 Y-94.4647
G01 X174.2367 Y-94.4366
G01 X174.1558 Y-94.4163
G01 X174.0733 Y-94.4041
G01 X173.9900 Y-94.4000
G01 X173.9067 Y-94.4041
G01 X173.8242 Y-94.4163
G01 X173.7433 Y-94.4366
G01 X173.6647 Y-94.4647
G01 X173.5893 Y-94.5004
G01 X173.5178 Y-94.5433
G01 X173.4508 Y-94.5929
G01 X173.3890 Y-94.6490
G01 X173.3329 Y-94.7108
G01 X173.2833 Y-94.7778
G01 X173.2404 Y-94.8493
G01 X173.2047 Y-94.9247
G01 X173.1766 Y-95.0033
G01 X173.1563 Y-95.0842
G01 X173.1441 Y-95.1667
G01 X173.1400 Y-95.2500
G01 X173.1441 Y-95.3333
G01 X173.1563 Y-95.4158
G01 X173.1766 Y-95.4967
G01 X173.2047 Y-95.5753
G01 X173.2404 Y-95.6507
G01 X173.2833 Y-95.7222
G01 X173.3329 Y-95.7892
G01 X173.3890 Y-95.8510
G01 X173.4508 Y-95.9071
G01 X173.5178 Y-95.9567
G01 X173.5893 Y-95.9996
G00 Z2.0000
G00 X173.5893 Y-98.5396
G01 F60.00
G01 Z0.0000
G01 F120.00
G01 X173.6647 Y-98.5753
G01 X173.7433 Y-98.6034
G01 X173.8242 Y-98.6237
G01 X173.9067 Y-98.6359
G01 X173.9900 Y-98.6400
G01 X174.0733 Y-98.6359
G01 X174.1558 Y-98.6237
G01 X174.2367 Y-98.6034
G01 X174.3153 Y-98.5753
G01 X174.3907 Y-98.5396
G01 X174.4622 Y-98.4967
G01 X174.5292 Y-98.4471
G01 X174.5910 Y-98.3910
G01 X174.6471 Y-98.3292
G01 X174.6967 Y-98.2622
G01 X174.7396 Y-98.1907
G01 X174.7753 Y-98.1153
G01 X174.8034 Y-98.0367
G01 X174.8237 Y-97.9558
G01 X174.8359 Y-97.8733
G01 X174.8400 Y-97.7900
G01 X174.8359 Y-97.7067
G01 X174.8237 Y-97.6242
G01 X174.8034 Y-97.5433
G01 X174.7753 Y-97.4647
G01 X174.7396 Y-97.3893
G01 X174.6967 Y-97.3178
G01 X174.6471 Y-97.2508
G01 X174.5910 Y-97.1890
G01 X174.5292 Y-97.1329
G01 X174.4622 Y-97.0833
G01 X174.3907 Y-97.0404
G01 X174.3153 Y-97.0047
G01 X174.2367 Y-96.9766
G01 X174.1558 Y-96.9563
G01 X174.0733 Y-96.9441
G01 X173.9900 Y-96.9400
G01 X173.9067 Y-96.9441
G01 X173.8242 Y-96.9563
G01 X173.7433 Y-96.9766
G01 X173.6647 Y-97.0047
G01 X173.5893 Y-97.0404
G01 X173.5178 Y-97.0833
G01 X173.4508 Y-97.1329
G01 X173.3890 Y-97.1890
G01 X173.3329 Y-97.2508
G01 X173.2833 Y-97.3178
G01 X173.2404 Y-97.3893
G01 X173.2047 Y-97.4647
G01 X173.1766 Y-97.5433
G01 X173.1563 Y-97.6242
G01 X173.1441 Y-97.7067
G01 X173.1400 Y-97.7900
G01 X173.1441 Y-97.8733
G01 X173.1563 Y-97.9558
G01 X173.1766 Y-98.0367
G01 X173.2047 Y-98.1153
G01 X173.2404 Y-98.1907
G01 X173.2833 Y-98.2622
G01 X173.3329 Y-98.3292
G01 X173.3890 Y-98.3910
G01 X173.4508 Y-98.4471
G01 X173.5178 Y-98.4967
G01 X173.5893 Y-98.5396
G00 Z2.0000
G00 X173.5904 Y-101.0802
G01 F60.00
G01 Z0.0000
G01 F120.00
G01 X173.6647 Y-101.1153
G01 X173.7433 Y-101.1434
G01 X173.8242 Y-101.1637
G01 X173.9067 Y-101.1759
G01 X173.9900 Y-101.1800
G01 X174.0733 Y-101.1759
G01 X174.1558 Y-101.1637
G01 X174.2367 Y-101.1434
G01 X174.3153 Y-101.1153
G01 X174.3907 Y-101.0796
G01 X174.4622 Y-101.0367
G01 X174.5292 Y-100.9871
G01 X174.5910 Y-100.9310
G01 X174.6471 Y-100.8692
G01 X174.6967 Y-100.8022
G01 X174.7396 Y-100.7307
G01 X174.7753 Y-100.6553
G01 X174.8034 Y-100.5767
G01 X174.8237 Y-100.4958
G01 X174.8359 Y-100.4133
G01 X174.8400 Y-100.3300
G01 X174.8359 Y-100.2467
G01 X174.8237 Y-100.1642
G01 X174.8034 Y-100.0833
G01 X174.7753 Y-100.0047
G01 X174.7396 Y-99.9293
G01 X174.6967 Y-99.8578
G01 X174.6471 Y-99.7908
G01 X174.5910 Y-99.7290
G01 X174.5292 Y-99.6729
G01 X174.4622 Y-99.6233
G01 X174.3907 Y-99.5804
G01 X174.3153 Y-99.5447
G01 X174.2367 Y-99.5166
G01 X174.1558 Y-99.4963
G01 X174.0733 Y-99.4841
G01 X173.9900 Y-99.4800
G01 X173.9067 Y-99.4841
G01 X173.8242 Y-99.4963
G01 X173.7433 Y-99.5166
G01 X173.6647 Y-99.5447
G01 X173.5893 Y-99.5804
G01 X173.5178 Y-99.6233
G01 X173.4508 Y-99.6729
G01 X173.3890 Y-99.7290
G01 X173.3329 Y-99.7908
G01 X173.2833 Y-99.8578
G01 X173.2404 Y-99.9293
G01 X173.2047 Y-100.0047
G01 X173.1766 Y-100.0833
G01 X173.1563 Y-100.1642
G01 X173.1441 Y-100.2467
G01 X173.1400 Y-100.3300
G01 X173.1441 Y-100.4133
G01 X173.1563 Y-100.4958
G01 X173.1766 Y-100.5767
G01 X173.2047 Y-100.6553
G01 X173.2404 Y-100.7307
G01 X173.2833 Y-100.8022
G01 X173.3329 Y-100.8692
G01 X173.3890 Y-100.9310
G01 X173.4508 Y-100.9871
G01 X173.5178 Y-101.0367
G01 X173.5904 Y-101.0802
G00 Z2.0000
G00 X173.5893 Y-103.6196
G01 F60.00
G01 Z0.0000
G01 F120.00
G01 X173.6647 Y-103.6553
G01 X173.7433 Y-103.6834
G01 X173.8242 Y-103.7037
G01 X173.9067 Y-103.7159
G01 X173.9900 Y-103.7200
G01 X174.0733 Y-103.7159
G01 X174.1558 Y-103.7037
G01 X174.2367 Y-103.6834
G01 X174.3153 Y-103.6553
G01 X174.3907 Y-103.6196
G01 X174.4622 Y-103.5767
G01 X174.5292 Y-103.5271
G01 X174.5910 Y-103.4710
G01 X174.6471 Y-103.4092
G01 X174.6967 Y-103.3422
G01 X174.7396 Y-103.2707
G01 X174.7753 Y-103.1953
G01 X174.8034 Y-103.1167
G01 X174.8237 Y-103.0358
G01 X174.8359 Y-102.9533
G01 X174.8400 Y-102.8700
G01 X174.8359 Y-102.7867
G01 X174.8237 Y-102.7042
G01 X174.8034 Y-102.6233
G01 X174.7753 Y-102.5447
G01 X174.7396 Y-102.4693
G01 X174.6967 Y-102.3978
G01 X174.6471 Y-102.3308
G01 X174.5910 Y-102.2690
G01 X174.5292 Y-102.2129
G01 X174.4622 Y-102.1633
G01 X174.3907 Y-102.1204
G01 X174.3153 Y-102.0847
G01 X174.2367 Y-102.0566
G01 X174.1558 Y-102.0363
G01 X174.0733 Y-102.0241
G01 X173.9900 Y-102.0200
G01 X173.9067 Y-102.0241
G01 X173.8242 Y-102.0363
G01 X173.7433 Y-102.0566
G01 X173.6647 Y-102.0847
G01 X173.5893 Y-102.1204
G01 X173.5178 Y-102.1633
G01 X173.4508 Y-102.2129
G01 X173.3890 Y-102.2690
G01 X173.3329 Y-102.3308
G01 X173.2833 Y-102.3978
G01 X173.2404 Y-102.4693
G01 X173.2047 Y-102.5447
G01 X173.1766 Y-102.6233
G01 X173.1563 Y-102.7042
G01 X173.1441 Y-102.7867
G01 X173.1400 Y-102.8700
G01 X173.1441 Y-102.9533
G01 X173.1563 Y-103.0358
G01 X173.1766 Y-103.1167
G01 X173.2047 Y-103.1953
G01 X173.2404 Y-103.2707
G01 X173.2833 Y-103.3422
G01 X173.3329 Y-103.4092
G01 X173.3890 Y-103.4710
G01 X173.4508 Y-103.5271
G01 X173.5178 Y-103.5767
G01 X173.5893 Y-103.6196
G00 Z2.0000
G00 X173.5893 Y-106.1596
G01 F60.00
G01 Z0.0000
G01 F120.00
G01 X173.6647 Y-106.1953
G01 X173.7433 Y-106.2234
G01 X173.8242 Y-106.2437
G01 X173.9067 Y-106.2559
G01 X173.9900 Y-106.2600
G01 X174.0733 Y-106.2559
G01 X174.1558 Y-106.2437
G01 X174.2367 Y-106.2234
G01 X174.3153 Y-106.1953
G01 X174.3907 Y-106.1596
G01 X174.4622 Y-106.1167
G01 X174.5292 Y-106.0671
G01 X174.5910 Y-106.0110
G01 X174.6471 Y-105.9492
G01 X174.6967 Y-105.8822
G01 X174.7396 Y-105.8107
G01 X174.7753 Y-105.7353
G01 X174.8034 Y-105.6567
G01 X174.8237 Y-105.5758
G01 X174.8359 Y-105.4933
G01 X174.8400 Y-105.4100
G01 X174.8359 Y-105.3267
G01 X174.8237 Y-105.2442
G01 X174.8034 Y-105.1633
G01 X174.7753 Y-105.0847
G01 X174.7396 Y-105.0093
G01 X174.6967 Y-104.9378
G01 X174.6471 Y-104.8708
G01 X174.5910 Y-104.8090
G01 X174.5292 Y-104.7529
G01 X174.4622 Y-104.7033
G01 X174.3907 Y-104.6604
G01 X174.3153 Y-104.6247
G01 X174.2367 Y-104.5966
G01 X174.1558 Y-104.5763
G01 X174.0733 Y-104.5641
G01 X173.9900 Y-104.5600
G01 X173.9067 Y-104.5641
G01 X173.8242 Y-104.5763
G01 X173.7433 Y-104.5966
G01 X173.6647 Y-104.6247
G01 X173.5893 Y-104.6604
G01 X173.5178 Y-104.7033
G01 X173.4508 Y-104.7529
G01 X173.3890 Y-104.8090
G01 X173.3329 Y-104.8708
G01 X173.2833 Y-104.9378
G01 X173.2404 Y-105.0093
G01 X173.2047 Y-105.0847
G01 X173.1766 Y-105.1633
G01 X173.1563 Y-105.2442
G01 X173.1441 Y-105.3267
G01 X173.1400 Y-105.4100
G01 X173.1441 Y-105.4933
G01 X173.1563 Y-105.5758
G01 X173.1766 Y-105.6567
G01 X173.2047 Y-105.7353
G01 X173.2404 Y-105.8107
G01 X173.2833 Y-105.8822
G01 X173.3329 Y-105.9492
G01 X173.3890 Y-106.0110
G01 X173.4508 Y-106.0671
G01 X173.5178 Y-106.1167
G01 X173.5893 Y-106.1596
G00 Z2.0000
G00 X173.5893 Y-108.6996
G01 F60.00
G01 Z0.0000
G01 F120.00
G01 X173.6647 Y-108.7353
G01 X173.7433 Y-108.7634
G01 X173.8242 Y-108.7837
G01 X173.9067 Y-108.7959
G01 X173.9900 Y-108.8000
G01 X174.0733 Y-108.7959
G01 X174.1558 Y-108.7837
G01 X174.2367 Y-108.7634
G01 X174.3153 Y-108.7353
G01 X174.3907 Y-108.6996
G01 X174.4622 Y-108.6567
G01 X174.5292 Y-108.6071
G01 X174.5910 Y-108.5510
G01 X174.6471 Y-108.4892
G01 X174.6967 Y-108.4222
G01 X174.7396 Y-108.3507
G01 X174.7753 Y-108.2753
G01 X174.8034 Y-108.1967
G01 X174.8237 Y-108.1158
G01 X174.8359 Y-108.0333
G01 X174.8400 Y-107.9500
G01 X174.8359 Y-107.8667
G01 X174.8237 Y-107.7842
G01 X174.8034 Y-107.7033
G01 X174.7753 Y-107.6247
G01 X174.7396 Y-107.5493
G01 X174.6967 Y-107.4778
G01 X174.6471 Y-107.4108
G01 X174.5910 Y-107.3490
G01 X174.5292 Y-107.2929
G01 X174.4622 Y-107.2433
G01 X174.3907 Y-107.2004
G01 X174.3153 Y-107.1647
G01 X174.2367 Y-107.1366
G01 X174.1558 Y-107.1163
G01 X174.0733 Y-107.1041
G01 X173.9900 Y-107.1000
G01 X173.9067 Y-107.1041
G01 X173.8242 Y-107.1163
G01 X173.7433 Y-107.1366
G01 X173.6647 Y-107.1647
G01 X173.5893 Y-107.2004
G01 X173.5178 Y-107.2433
G01 X173.4508 Y-107.2929
G01 X173.3890 Y-107.3490
G01 X173.3329 Y-107.4108
G01 X173.2833 Y-107.4778
G01 X173.2404 Y-107.5493
G01 X173.2047 Y-107.6247
G01 X173.1766 Y-107.7033
G01 X173.1563 Y-107.7842
G01 X173.1441 Y-107.8667
G01 X173.1400 Y-107.9500
G01 X173.1441 Y-108.0333
G01 X173.1563 Y-108.1158
G01 X173.1766 Y-108.1967
G01 X173.2047 Y-108.2753
G01 X173.2404 Y-108.3507
G01 X173.2833 Y-108.4222
G01 X173.3329 Y-108.4892
G01 X173.3890 Y-108.5510
G01 X173.4508 Y-108.6071
G01 X173.5178 Y-108.6567
G01 X173.5893 Y-108.6996
G00 Z2.0000
G00 X173.5893 Y-111.2396
G01 F60.00
G01 Z0.0000
G01 F120.00
G01 X173.6647 Y-111.2753
G01 X173.7433 Y-111.3034
G01 X173.8242 Y-111.3237
G01 X173.9067 Y-111.3359
G01 X173.9900 Y-111.3400
G01 X174.0733 Y-111.3359
G01 X174.1558 Y-111.3237
G01 X174.2367 Y-111.3034
G01 X174.3153 Y-111.2753
G01 X174.3907 Y-111.2396
G01 X174.4622 Y-111.1967
G01 X174.5292 Y-111.1471
G01 X174.5910 Y-111.0910
G01 X174.6471 Y-111.0292
G01 X174.6967 Y-110.9622
G01 X174.7396 Y-110.8907
G01 X174.7753 Y-110.8153
G01 X174.8034 Y-110.7367
G01 X174.8237 Y-110.6558
G01 X174.8359 Y-110.5733
G01 X174.8400 Y-110.4900
G01 X174.8359 Y-110.4067
G01 X174.8237 Y-110.3242
G01 X174.8034 Y-110.2433
G01 X174.7753 Y-110.1647
G01 X174.7396 Y-110.0893
G01 X174.6967 Y-110.0178
G01 X174.6471 Y-109.9508
G01 X174.5910 Y-109.8890
G01 X174.5292 Y-109.8329
G01 X174.4622 Y-109.7833
G01 X174.3907 Y-109.7404
G01 X174.3153 Y-109.7047
G01 X174.2367 Y-109.6766
G01 X174.1558 Y-109.6563
G01 X174.0733 Y-109.6441
G01 X173.9900 Y-109.6400
G01 X173.9067 Y-109.6441
G01 X173.8242 Y-109.6563
G01 X173.7433 Y-109.6766
G01 X173.6647 Y-109.7047
G01 X173.5893 Y-109.7404
G01 X173.5178 Y-109.7833
G01 X173.4508 Y-109.8329
G01 X173.3890 Y-109.8890
G01 X173.3329 Y-109.9508
G01 X173.2833 Y-110.0178
G01 X173.2404 Y-110.0893
G01 X173.2047 Y-110.1647
G01 X173.1766 Y-110.2433
G01 X173.1563 Y-110.3242
G01 X173.1441 Y-110.4067
G01 X173.1400 Y-110.4900
G01 X173.1441 Y-110.5733
G01 X173.1563 Y-110.6558
G01 X173.1766 Y-110.7367
G01 X173.2047 Y-110.8153
G01 X173.2404 Y-110.8907
G01 X173.2833 Y-110.9622
G01 X173.3329 Y-111.0292
G01 X173.3890 Y-111.0910
G01 X173.4508 Y-111.1471
G01 X173.5178 Y-111.1967
G01 X173.5893 Y-111.2396
G00 Z2.0000
G00 X173.5893 Y-113.7796
G01 F60.00
G01 Z0.0000
G01 F120.00
G01 X173.6647 Y-113.8153
G01 X173.7433 Y-113.8434
G01 X173.8242 Y-113.8637
G01 X173.9067 Y-113.8759
G01 X173.9900 Y-113.8800
G01 X174.0733 Y-113.8759
G01 X174.1558 Y-113.8637
G01 X174.2367 Y-113.8434
G01 X174.3153 Y-113.8153
G01 X174.3907 Y-113.7796
G01 X174.4622 Y-113.7367
G01 X174.5292 Y-113.6871
G01 X174.5910 Y-113.6310
G01 X174.6471 Y-113.5692
G01 X174.6967 Y-113.5022
G01 X174.7396 Y-113.4307
G01 X174.7753 Y-113.3553
G01 X174.8034 Y-113.2767
G01 X174.8237 Y-113.1958
G01 X174.8359 Y-113.1133
G01 X174.8400 Y-113.0300
G01 X174.8359 Y-112.9467
G01 X174.8237 Y-112.8642
G01 X174.8034 Y-112.7833
G01 X174.7753 Y-112.7047
G01 X174.7396 Y-112.6293
G01 X174.6967 Y-112.5578
G01 X174.6471 Y-112.4908
G01 X174.5910 Y-112.4290
G01 X174.5292 Y-112.3729
G01 X174.4622 Y-112.3233
G01 X174.3907 Y-112.2804
G01 X174.3153 Y-112.2447
G01 X174.2367 Y-112.2166
G01 X174.1558 Y-112.1963
G01 X174.0733 Y-112.1841
G01 X173.9900 Y-112.1800
G01 X173.9067 Y-112.1841
G01 X173.8242 Y-112.1963
G01 X173.7433 Y-112.2166
G01 X173.6647 Y-112.2447
G01 X173.5893 Y-112.2804
G01 X173.5178 Y-112.3233
G01 X173.4508 Y-112.3729
G01 X173.3890 Y-112.4290
G01 X173.3329 Y-112.4908
G01 X173.2833 Y-112.5578
G01 X173.2404 Y-112.6293
G01 X173.2047 Y-112.7047
G01 X173.1766 Y-112.7833
G01 X173.1563 Y-112.8642
G01 X173.1441 Y-112.9467
G01 X173.1400 Y-113.0300
G01 X173.1441 Y-113.1133
G01 X173.1563 Y-113.1958
G01 X173.1766 Y-113.2767
G01 X173.2047 Y-113.3553
G01 X173.2404 Y-113.4307
G01 X173.2833 Y-113.5022
G01 X173.3329 Y-113.5692
G01 X173.3890 Y-113.6310
G01 X173.4508 Y-113.6871
G01 X173.5178 Y-113.7367
G01 X173.5893 Y-113.7796
G00 Z2.0000
G00 X180.8015 Y-112.6093
G01 F60.00
G01 Z0.0000
G01 F120.00
G01 X180.8100 Y-112.6100
G01 X182.4100 Y-112.6100
G01 X182.4149 Y-112.6098
G01 X182.4210 Y-112.6088
G01 X182.4303 Y-112.6057
G01 X182.4388 Y-112.6009
G01 X182.4462 Y-112.5945
G01 X182.4516 Y-112.5878
G01 X182.4562 Y-112.5791
G01 X182.4590 Y-112.5698
G01 X182.4600 Y-112.5600
G01 X182.4600 Y-110.9600
G01 X182.4598 Y-110.9551
G01 X182.4588 Y-110.9490
G01 X182.4557 Y-110.9397
G01 X182.4509 Y-110.9312
G01 X182.4445 Y-110.9238
G01 X182.4367 Y-110.9178
G01 X182.4280 Y-110.9134
G01 X182.4185 Y-110.9107
G01 X182.4100 Y-110.9100
G01 X180.8100 Y-110.9100
G01 X180.8002 Y-110.9110
G01 X180.7909 Y-110.9138
G01 X180.7822 Y-110.9184
G01 X180.7783 Y-110.9213
G01 X180.7738 Y-110.9255
G01 X180.7678 Y-110.9333
G01 X180.7634 Y-110.9420
G01 X180.7610 Y-110.9502
G01 X180.7600 Y-110.9600
G01 X180.7600 Y-112.5612
G01 X180.7610 Y-112.5698
G01 X180.7634 Y-112.5780
G01 X180.7671 Y-112.5857
G01 X180.7721 Y-112.5927
G01 X180.7783 Y-112.5987
G01 X180.7854 Y-112.6035
G01 X180.7932 Y-112.6071
G01 X180.8015 Y-112.6093
G00 Z2.0000
G00 X183.7493 Y-112.5096
G01 F60.00
G01 Z0.0000
G01 F120.00
G01 X183.8247 Y-112.5453
G01 X183.9033 Y-112.5734
G01 X183.9842 Y-112.5937
G01 X184.0667 Y-112.6059
G01 X184.1500 Y-112.6100
G01 X184.2333 Y-112.6059
G01 X184.3158 Y-112.5937
G01 X184.3967 Y-112.5734
G01 X184.4753 Y-112.5453
G01 X184.5507 Y-112.5096
G01 X184.6222 Y-112.4667
G01 X184.6892 Y-112.4171
G01 X184.7510 Y-112.3610
G01 X184.8071 Y-112.2992
G01 X184.8567 Y-112.2322
G01 X184.8996 Y-112.1607
G01 X184.9353 Y-112.0853
G01 X184.9634 Y-112.0067
G01 X184.9837 Y-111.9258
G01 X184.9959 Y-111.8433
G01 X185.0000 Y-111.7600
G01 X184.9959 Y-111.6767
G01 X184.9837 Y-111.5942
G01 X184.9634 Y-111.5133
G01 X184.9353 Y-111.4347
G01 X184.8996 Y-111.3593
G01 X184.8567 Y-111.2878
G01 X184.8071 Y-111.2208
G01 X184.7510 Y-111.1590
G01 X184.6892 Y-111.1029
G01 X184.6222 Y-111.0533
G01 X184.5507 Y-111.0104
G01 X184.4753 Y-110.9747
G01 X184.3967 Y-110.9466
G01 X184.3158 Y-110.9263
G01 X184.2333 Y-110.9141
G01 X184.1500 Y-110.9100
G01 X184.0667 Y-110.9141
G01 X183.9842 Y-110.9263
G01 X183.9033 Y-110.9466
G01 X183.8247 Y-110.9747
G01 X183.7493 Y-111.0104
G01 X183.6778 Y-111.0533
G01 X183.6108 Y-111.1029
G01 X183.5490 Y-111.1590
G01 X183.4929 Y-111.2208
G01 X183.4433 Y-111.2878
G01 X183.4004 Y-111.3593
G01 X183.3647 Y-111.4347
G01 X183.3366 Y-111.5133
G01 X183.3163 Y-111.5942
G01 X183.3041 Y-111.6767
G01 X183.3000 Y-111.7600
G01 X183.3041 Y-111.8433
G01 X183.3163 Y-111.9258
G01 X183.3366 Y-112.0067
G01 X183.3647 Y-112.0853
G01 X183.4004 Y-112.1607
G01 X183.4433 Y-112.2322
G01 X183.4929 Y-112.2992
G01 X183.5490 Y-112.3610
G01 X183.6108 Y-112.4171
G01 X183.6778 Y-112.4667
G01 X183.7493 Y-112.5096
G00 Z2.0000
G00 X186.2904 Y-112.5102
G01 F60.00
G01 Z0.0000
G01 F120.00
G01 X186.3647 Y-112.5453
G01 X186.4433 Y-112.5734
G01 X186.5242 Y-112.5937
G01 X186.6067 Y-112.6059
G01 X186.6900 Y-112.6100
G01 X186.7733 Y-112.6059
G01 X186.8558 Y-112.5937
G01 X186.9367 Y-112.5734
G01 X187.0153 Y-112.5453
G01 X187.0907 Y-112.5096
G01 X187.1622 Y-112.4667
G01 X187.2292 Y-112.4171
G01 X187.2910 Y-112.3610
G01 X187.3471 Y-112.2992
G01 X187.3967 Y-112.2322
G01 X187.4396 Y-112.1607
G01 X187.4753 Y-112.0853
G01 X187.5034 Y-112.0067
G01 X187.5237 Y-111.9258
G01 X187.5359 Y-111.8433
G01 X187.5400 Y-111.7600
G01 X187.5359 Y-111.6767
G01 X187.5237 Y-111.5942
G01 X187.5034 Y-111.5133
G01 X187.4753 Y-111.4347
G01 X187.4396 Y-111.3593
G01 X187.3967 Y-111.2878
G01 X187.3471 Y-111.2208
