(G-CODE GENERATED BY FLATCAM v8.994 - www.flatcam.org - Version Date: 2020/11/7)

(Name: nanoRIghtAux-B_Cu.gbr_iso_combined_cnc)
(Type: G-code from Geometry)
(Units: MM)

(Created on Monday, 19 June 2023 at 10:55)

(This preprocessor is the default preprocessor used by FlatCAM.)
(It is made to work with MACH3 compatible motion controllers.)

(TOOL DIAMETER: 0.1 mm)
(Feedrate_XY: 120.0 mm/min)
(Feedrate_Z: 60.0 mm/min)
(Feedrate rapids 1500.0 mm/min)

(Z_Cut: 0.0 mm)
(Z_Move: 2.0 mm)
(Z Start: None mm)
(Z End: 15.0 mm)
(X,Y End: None mm)
(Steps per circle: 64)
(Preprocessor Geometry: default)

(X range:  135.8405 ...  221.0295  mm)
(Y range: -129.5895 ...  -60.9105  mm)

(Spindle Speed: 0.0 RPM)
G21
G90
G94

G01 F120.00

M5
G00 Z15.0000
G00 X0.0000 Y0.0000
T1
M6    
(MSG, Change to Tool Dia = 0.1000)
M0
G00 Z15.0000

M03
G01 F120.00
G00 X141.3451 Y-65.8272
G01 F60.00
G01 Z0.0000
G01 F120.00
G01 X141.4788 Y-65.5823
G01 X141.5763 Y-65.3209
G01 X141.6356 Y-65.0483
G01 X141.6555 Y-64.7700
G01 X141.6356 Y-64.4917
G01 X141.5763 Y-64.2191
G01 X141.4788 Y-63.9577
G01 X141.3451 Y-63.7128
G01 X141.1778 Y-63.4894
G01 X140.9806 Y-63.2921
G01 X140.7572 Y-63.1249
G01 X140.5123 Y-62.9912
G01 X140.2509 Y-62.8937
G01 X139.9783 Y-62.8344
G01 X139.7697 Y-62.8195
G01 X139.6303 Y-62.8195
G01 X139.4217 Y-62.8344
G01 X139.1491 Y-62.8937
G01 X138.8877 Y-62.9912
G01 X138.6428 Y-63.1249
G01 X138.4194 Y-63.2922
G01 X138.2221 Y-63.4894
G01 X138.0549 Y-63.7128
G01 X137.9212 Y-63.9577
G01 X137.8237 Y-64.2191
G01 X137.7644 Y-64.4917
G01 X137.7445 Y-64.7700
G01 X137.7644 Y-65.0483
G01 X137.8237 Y-65.3209
G01 X137.9212 Y-65.5823
G01 X138.0549 Y-65.8272
G01 X138.2221 Y-66.0506
G01 X138.4194 Y-66.2479
G01 X138.6428 Y-66.4151
G01 X138.8877 Y-66.5488
G01 X139.1491 Y-66.6463
G01 X139.4217 Y-66.7056
G01 X139.6303 Y-66.7205
G01 X139.7697 Y-66.7205
G01 X139.9783 Y-66.7056
G01 X140.2509 Y-66.6463
G01 X140.5123 Y-66.5488
G01 X140.7572 Y-66.4151
G01 X140.9806 Y-66.2478
G01 X141.1779 Y-66.0506
G01 X141.3451 Y-65.8272
G00 Z2.0000
G00 X158.3542 Y-81.0656
G01 F60.00
G01 Z0.0000
G01 F120.00
G01 X158.3341 Y-81.1076
G01 X158.3185 Y-81.1517
G01 X158.3085 Y-81.1922
G01 X158.3023 Y-81.2334
G01 X158.2998 Y-81.2800
G01 X158.2998 Y-85.0900
G01 X158.3023 Y-85.1366
G01 X158.3085 Y-85.1778
G01 X158.3188 Y-85.2195
G01 X158.3341 Y-85.2623
G01 X158.3542 Y-85.3044
G01 X158.3757 Y-85.3401
G01 X158.4005 Y-85.3737
G01 X158.4317 Y-85.4083
G01 X159.7025 Y-86.6792
G01 X159.7363 Y-86.7095
G01 X159.7699 Y-86.7343
G01 X159.8056 Y-86.7558
G01 X159.8477 Y-86.7759
G01 X159.8905 Y-86.7912
G01 X159.9322 Y-86.8015
G01 X159.9734 Y-86.8077
G01 X160.0200 Y-86.8102
G01 X161.7818 Y-86.8102
G01 X161.8117 Y-86.8600
G01 X161.8635 Y-86.9300
G01 X161.9245 Y-86.9973
G01 X161.9890 Y-87.0557
G01 X162.0580 Y-87.1069
G01 X162.1368 Y-87.1543
G01 X162.2156 Y-87.1915
G01 X162.2964 Y-87.2205
G01 X162.3844 Y-87.2427
G01 X162.4742 Y-87.2558
G01 X162.5600 Y-87.2600
G01 X162.6482 Y-87.2557
G01 X162.7356 Y-87.2427
G01 X162.8213 Y-87.2212
G01 X162.9044 Y-87.1915
G01 X162.9821 Y-87.1548
G01 X163.0620 Y-87.1069
G01 X163.1310 Y-87.0557
G01 X163.1964 Y-86.9964
G01 X163.2557 Y-86.9310
G01 X163.3083 Y-86.8600
G01 X163.3537 Y-86.7843
G01 X163.3905 Y-86.7067
G01 X163.4219 Y-86.6189
G01 X163.4427 Y-86.5356
G01 X163.4558 Y-86.4458
G01 X163.4600 Y-86.3600
G01 X163.4558 Y-86.2742
G01 X163.4422 Y-86.1820
G01 X163.4212 Y-86.0987
G01 X163.3915 Y-86.0156
G01 X163.3537 Y-85.9357
G01 X163.3096 Y-85.8621
G01 X163.2541 Y-85.7872
G01 X163.1964 Y-85.7236
G01 X163.1310 Y-85.6643
G01 X163.0600 Y-85.6117
G01 X162.9864 Y-85.5675
G01 X162.9021 Y-85.5276
G01 X162.8213 Y-85.4988
G01 X162.7356 Y-85.4773
G01 X162.6482 Y-85.4643
G01 X162.5625 Y-85.4601
G01 X162.4693 Y-85.4646
G01 X162.3844 Y-85.4773
G01 X162.2976 Y-85.4991
G01 X162.2156 Y-85.5285
G01 X162.1357 Y-85.5663
G01 X162.0600 Y-85.6117
G01 X161.9900 Y-85.6635
G01 X161.9236 Y-85.7236
G01 X161.8651 Y-85.7881
G01 X161.8117 Y-85.8600
G01 X161.7818 Y-85.9098
G01 X160.2065 Y-85.9098
G01 X159.2002 Y-84.9035
G01 X159.2002 Y-81.4665
G01 X160.2065 Y-80.4602
G01 X171.2635 Y-80.4602
G01 X178.7517 Y-87.9483
G01 X178.7863 Y-87.9795
G01 X178.8199 Y-88.0043
G01 X178.8556 Y-88.0258
G01 X178.8977 Y-88.0459
G01 X178.9417 Y-88.0615
G01 X178.9822 Y-88.0715
G01 X179.0234 Y-88.0777
G01 X179.0688 Y-88.0802
G01 X182.1600 Y-88.0802
G01 X182.1739 Y-88.1032
G01 X182.2222 Y-88.1683
G01 X182.2798 Y-88.2319
G01 X182.3427 Y-88.2886
G01 X182.4078 Y-88.3367
G01 X182.4782 Y-88.3790
G01 X182.5570 Y-88.4162
G01 X182.6333 Y-88.4434
G01 X182.7118 Y-88.4631
G01 X182.7967 Y-88.4759
G01 X182.8812 Y-88.4800
G01 X182.9633 Y-88.4759
G01 X183.0434 Y-88.4641
G01 X183.1291 Y-88.4426
G01 X183.2053 Y-88.4153
G01 X183.2807 Y-88.3796
G01 X183.3522 Y-88.3367
G01 X183.4173 Y-88.2886
G01 X183.4827 Y-88.2293
G01 X183.5371 Y-88.1692
G01 X183.5867 Y-88.1022
G01 X183.6296 Y-88.0307
G01 X183.6643 Y-87.9575
G01 X183.6937 Y-87.8756
G01 X183.7137 Y-87.7958
G01 X183.7259 Y-87.7133
G01 X183.7300 Y-87.6300
G01 X183.7256 Y-87.5442
G01 X183.7137 Y-87.4642
G01 X183.6926 Y-87.3809
G01 X183.6653 Y-87.3047
G01 X183.6307 Y-87.2315
G01 X183.5881 Y-87.1598
G01 X183.5371 Y-87.0908
G01 X183.4810 Y-87.0290
G01 X183.4192 Y-86.9729
G01 X183.3522 Y-86.9233
G01 X183.2807 Y-86.8804
G01 X183.2053 Y-86.8447
G01 X183.1267 Y-86.8166
G01 X183.0434 Y-86.7959
G01 X182.9633 Y-86.7841
G01 X182.8825 Y-86.7801
G01 X182.7967 Y-86.7841
G01 X182.7142 Y-86.7963
G01 X182.6356 Y-86.8159
G01 X182.5536 Y-86.8452
G01 X182.4793 Y-86.8804
G01 X182.4098 Y-86.9219
G01 X182.3398 Y-86.9737
G01 X182.2790 Y-87.0290
G01 X182.2237 Y-87.0898
G01 X182.1739 Y-87.1568
G01 X182.1600 Y-87.1798
G01 X179.2565 Y-87.1798
G01 X171.7683 Y-79.6917
G01 X171.7337 Y-79.6605
G01 X171.7001 Y-79.6357
G01 X171.6644 Y-79.6142
G01 X171.6223 Y-79.5941
G01 X171.5795 Y-79.5788
G01 X171.5378 Y-79.5685
G01 X171.4966 Y-79.5623
G01 X171.4500 Y-79.5598
G01 X160.0200 Y-79.5598
G01 X159.9747 Y-79.5621
G01 X159.9322 Y-79.5685
G01 X159.8917 Y-79.5785
G01 X159.8455 Y-79.5951
G01 X159.8078 Y-79.6130
G01 X159.7699 Y-79.6357
G01 X159.7344 Y-79.6620
G01 X159.7034 Y-79.6900
G01 X158.4317 Y-80.9617
G01 X158.4005 Y-80.9963
G01 X158.3757 Y-81.0299
G01 X158.3542 Y-81.0656
G00 Z2.0000
G00 X161.3885 Y-82.6485
G01 F60.00
G01 Z0.0000
G01 F120.00
G01 X161.3110 Y-82.7521
G01 X161.2654 Y-82.8742
G01 X161.2600 Y-82.9249
G01 X161.2600 Y-83.5200
G01 X161.6600 Y-83.5200
G01 X161.6601 Y-82.9675
G01 X161.6607 Y-82.9615
G01 X161.6622 Y-82.9555
G01 X161.6643 Y-82.9497
G01 X161.6671 Y-82.9443
G01 X161.6706 Y-82.9392
G01 X161.6746 Y-82.9346
G01 X161.6792 Y-82.9306
G01 X161.6843 Y-82.9271
G01 X161.6897 Y-82.9243
G01 X161.6967 Y-82.9218
G01 X161.7027 Y-82.9205
G01 X161.7088 Y-82.9200
G01 X162.2600 Y-82.9200
G01 X162.2600 Y-82.5200
G01 X161.6648 Y-82.5200
G01 X161.6142 Y-82.5254
G01 X161.4921 Y-82.5710
G01 X161.3885 Y-82.6485
G00 Z2.0000
G00 X163.7315 Y-82.6485
G01 F60.00
G01 Z0.0000
G01 F120.00
G01 X163.6279 Y-82.5710
G01 X163.5058 Y-82.5254
G01 X163.4552 Y-82.5200
G01 X162.8600 Y-82.5200
G01 X162.8600 Y-82.9200
G01 X163.4125 Y-82.9201
G01 X163.4185 Y-82.9207
G01 X163.4245 Y-82.9222
G01 X163.4303 Y-82.9243
G01 X163.4357 Y-82.9271
G01 X163.4408 Y-82.9306
G01 X163.4454 Y-82.9346
G01 X163.4494 Y-82.9392
G01 X163.4529 Y-82.9443
G01 X163.4557 Y-82.9497
G01 X163.4578 Y-82.9555
G01 X163.4595 Y-82.9627
G01 X163.4600 Y-82.9688
G01 X163.4600 Y-83.5200
G01 X163.8600 Y-83.5200
G01 X163.8600 Y-82.9248
G01 X163.8546 Y-82.8742
G01 X163.8090 Y-82.7521
G01 X163.7315 Y-82.6485
G00 Z2.0000
G00 X166.4685 Y-82.6485
G01 F60.00
G01 Z0.0000
G01 F120.00
G01 X166.3910 Y-82.7521
G01 X166.3454 Y-82.8742
G01 X166.3400 Y-82.9249
G01 X166.3400 Y-83.5200
G01 X166.7400 Y-83.5200
G01 X166.7401 Y-82.9675
G01 X166.7407 Y-82.9615
G01 X166.7422 Y-82.9555
G01 X166.7443 Y-82.9497
G01 X166.7471 Y-82.9443
G01 X166.7506 Y-82.9392
G01 X166.7546 Y-82.9346
G01 X166.7592 Y-82.9306
G01 X166.7643 Y-82.9271
G01 X166.7697 Y-82.9243
G01 X166.7767 Y-82.9218
G01 X166.7827 Y-82.9205
G01 X166.7888 Y-82.9200
G01 X167.3400 Y-82.9200
G01 X167.3400 Y-82.5200
G01 X166.7448 Y-82.5200
G01 X166.6942 Y-82.5254
G01 X166.5721 Y-82.5710
G01 X166.4685 Y-82.6485
G00 Z2.0000
G00 X168.8115 Y-82.6485
G01 F60.00
G01 Z0.0000
G01 F120.00
G01 X168.7079 Y-82.5710
G01 X168.5858 Y-82.5254
G01 X168.5352 Y-82.5200
G01 X167.9400 Y-82.5200
G01 X167.9400 Y-82.9200
G01 X168.4925 Y-82.9201
G01 X168.4985 Y-82.9207
G01 X168.5045 Y-82.9222
G01 X168.5103 Y-82.9243
G01 X168.5157 Y-82.9271
G01 X168.5208 Y-82.9306
G01 X168.5254 Y-82.9346
G01 X168.5294 Y-82.9392
G01 X168.5329 Y-82.9443
G01 X168.5357 Y-82.9497
G01 X168.5378 Y-82.9555
G01 X168.5395 Y-82.9627
G01 X168.5400 Y-82.9688
G01 X168.5400 Y-83.5200
G01 X168.9400 Y-83.5200
G01 X168.9400 Y-82.9248
G01 X168.9346 Y-82.8742
G01 X168.8890 Y-82.7521
G01 X168.8115 Y-82.6485
G00 Z2.0000
G00 X166.8931 Y-85.8580
G01 F60.00
G01 Z0.0000
G01 F120.00
G01 X166.8463 Y-85.9357
G01 X166.8076 Y-86.0179
G01 X166.7788 Y-86.0987
G01 X166.7578 Y-86.1820
G01 X166.7443 Y-86.2718
G01 X166.7400 Y-86.3600
G01 X166.7446 Y-86.4507
G01 X166.7573 Y-86.5356
G01 X166.7781 Y-86.6189
G01 X166.8085 Y-86.7044
G01 X166.8463 Y-86.7843
G01 X166.8931 Y-86.8620
G01 X166.9443 Y-86.9310
G01 X167.0019 Y-86.9946
G01 X167.0690 Y-87.0557
G01 X167.1421 Y-87.1096
G01 X167.2157 Y-87.1537
G01 X167.2933 Y-87.1905
G01 X167.3787 Y-87.2212
G01 X167.4656 Y-87.2429
G01 X167.5518 Y-87.2557
G01 X167.6375 Y-87.2599
G01 X167.7282 Y-87.2557
G01 X167.8156 Y-87.2427
G01 X167.8989 Y-87.2219
G01 X167.9855 Y-87.1910
G01 X168.0643 Y-87.1537
G01 X168.1379 Y-87.1096
G01 X168.2119 Y-87.0549
G01 X168.2764 Y-86.9964
G01 X168.3349 Y-86.9319
G01 X168.3883 Y-86.8600
G01 X168.4182 Y-86.8102
G01 X172.5335 Y-86.8102
G01 X176.2117 Y-90.4883
G01 X176.2463 Y-90.5195
G01 X176.2799 Y-90.5443
G01 X176.3156 Y-90.5658
G01 X176.3576 Y-90.5859
G01 X176.4005 Y-90.6012
G01 X176.4422 Y-90.6115
G01 X176.4834 Y-90.6177
G01 X176.5300 Y-90.6202
G01 X182.1600 Y-90.6202
G01 X182.1739 Y-90.6432
G01 X182.2222 Y-90.7083
G01 X182.2798 Y-90.7719
G01 X182.3427 Y-90.8286
G01 X182.4078 Y-90.8767
G01 X182.4782 Y-90.9190
G01 X182.5570 Y-90.9562
G01 X182.6333 Y-90.9834
G01 X182.7118 Y-91.0031
G01 X182.7967 Y-91.0159
G01 X182.8812 Y-91.0200
G01 X182.9633 Y-91.0159
G01 X183.0434 Y-91.0041
G01 X183.1291 Y-90.9826
G01 X183.2053 Y-90.9553
G01 X183.2807 Y-90.9196
G01 X183.3522 Y-90.8767
G01 X183.4173 Y-90.8286
G01 X183.4827 Y-90.7693
G01 X183.5371 Y-90.7092
G01 X183.5867 Y-90.6422
G01 X183.6296 Y-90.5707
G01 X183.6643 Y-90.4975
G01 X183.6937 Y-90.4156
G01 X183.7137 Y-90.3358
G01 X183.7261 Y-90.2509
G01 X183.7299 Y-90.1675
G01 X183.7259 Y-90.0867
G01 X183.7141 Y-90.0066
G01 X183.6934 Y-89.9233
G01 X183.6653 Y-89.8447
G01 X183.6296 Y-89.7693
G01 X183.5867 Y-89.6978
G01 X183.5371 Y-89.6308
G01 X183.4793 Y-89.5673
G01 X183.4173 Y-89.5114
G01 X183.3522 Y-89.4633
G01 X183.2828 Y-89.4216
G01 X183.2053 Y-89.3847
G01 X183.1267 Y-89.3566
G01 X183.0458 Y-89.3363
G01 X182.9633 Y-89.3241
G01 X182.8775 Y-89.3201
G01 X182.7967 Y-89.3241
G01 X182.7142 Y-89.3363
G01 X182.6309 Y-89.3574
G01 X182.5547 Y-89.3847
G01 X182.4804 Y-89.4198
G01 X182.4058 Y-89.4647
G01 X182.3408 Y-89.5129
G01 X182.2798 Y-89.5681
G01 X182.2222 Y-89.6317
G01 X182.1739 Y-89.6968
G01 X182.1600 Y-89.7198
G01 X176.7165 Y-89.7198
G01 X173.0383 Y-86.0417
G01 X173.0037 Y-86.0105
G01 X172.9701 Y-85.9857
G01 X172.9344 Y-85.9642
G01 X172.8923 Y-85.9441
G01 X172.8495 Y-85.9288
G01 X172.8078 Y-85.9185
G01 X172.7666 Y-85.9123
G01 X172.7200 Y-85.9098
G01 X168.4182 Y-85.9098
G01 X168.3883 Y-85.8600
G01 X168.3365 Y-85.7900
G01 X168.2755 Y-85.7227
G01 X168.2090 Y-85.6628
G01 X168.1400 Y-85.6117
G01 X168.0654 Y-85.5669
G01 X167.9844 Y-85.5285
G01 X167.8989 Y-85.4981
G01 X167.8156 Y-85.4773
G01 X167.7307 Y-85.4646
G01 X167.6400 Y-85.4600
G01 X167.5518 Y-85.4643
G01 X167.4620 Y-85.4778
G01 X167.3787 Y-85.4988
G01 X167.2979 Y-85.5276
G01 X167.2157 Y-85.5663
G01 X167.1400 Y-85.6117
G01 X167.0672 Y-85.6659
G01 X167.0036 Y-85.7236
G01 X166.9459 Y-85.7872
G01 X166.8931 Y-85.8580
G00 Z2.0000
G00 X166.9024 Y-90.5090
G01 F60.00
G01 Z0.0000
G01 F120.00
G01 X166.8563 Y-90.5857
G01 X166.8185 Y-90.6656
G01 X166.7888 Y-90.7487
G01 X166.7673 Y-90.8344
G01 X166.7543 Y-90.9218
G01 X166.7500 Y-91.0100
G01 X166.7543 Y-91.0982
G01 X166.7675 Y-91.1868
G01 X166.7888 Y-91.2713
G01 X166.8185 Y-91.3544
G01 X166.8563 Y-91.4343
G01 X166.9024 Y-91.5110
G01 X166.9543 Y-91.5810
G01 X167.0145 Y-91.6473
G01 X167.0800 Y-91.7065
G01 X167.1490 Y-91.7576
G01 X167.1898 Y-91.7823
G01 X167.1898 Y-95.8000
G01 X167.1668 Y-95.8139
G01 X167.1017 Y-95.8622
G01 X167.0381 Y-95.9198
G01 X166.9829 Y-95.9808
G01 X166.9347 Y-96.0458
G01 X166.8898 Y-96.1204
G01 X166.8547 Y-96.1947
G01 X166.8274 Y-96.2709
G01 X166.8063 Y-96.3542
G01 X166.7941 Y-96.4367
G01 X166.7901 Y-96.5175
G01 X166.7942 Y-96.6045
G01 X166.8063 Y-96.6858
G01 X166.8266 Y-96.7667
G01 X166.8547 Y-96.8453
G01 X166.8904 Y-96.9207
G01 X166.9333 Y-96.9922
G01 X166.9829 Y-97.0592
G01 X167.0390 Y-97.1210
G01 X167.1008 Y-97.1771
G01 X167.1678 Y-97.2267
G01 X167.2393 Y-97.2696
G01 X167.3147 Y-97.3053
G01 X167.3933 Y-97.3334
G01 X167.4742 Y-97.3537
G01 X167.5567 Y-97.3659
G01 X167.6400 Y-97.3700
G01 X167.7245 Y-97.3658
G01 X167.8058 Y-97.3537
G01 X167.8867 Y-97.3334
G01 X167.9653 Y-97.3053
G01 X168.0385 Y-97.2707
G01 X168.1142 Y-97.2253
G01 X168.1792 Y-97.1771
G01 X168.2410 Y-97.1210
G01 X168.2971 Y-97.0592
G01 X168.3453 Y-96.9942
G01 X168.3907 Y-96.9185
G01 X168.4253 Y-96.8453
G01 X168.4534 Y-96.7667
G01 X168.4737 Y-96.6858
G01 X168.4858 Y-96.6045
G01 X168.4899 Y-96.5175
G01 X168.4859 Y-96.4367
G01 X168.4737 Y-96.3542
G01 X168.4526 Y-96.2709
G01 X168.4253 Y-96.1947
G01 X168.3902 Y-96.1204
G01 X168.3453 Y-96.0458
G01 X168.2971 Y-95.9808
G01 X168.2419 Y-95.9198
G01 X168.1783 Y-95.8622
G01 X168.1132 Y-95.8139
G01 X168.0902 Y-95.8000
G01 X168.0902 Y-91.7942
G01 X168.1500 Y-91.7583
G01 X168.2190 Y-91.7072
G01 X168.2864 Y-91.6464
G01 X168.3472 Y-91.5790
G01 X168.3983 Y-91.5100
G01 X168.4437 Y-91.4343
G01 X168.4824 Y-91.3521
G01 X168.5112 Y-91.2713
G01 X168.5327 Y-91.1856
G01 X168.5457 Y-91.0982
G01 X168.5499 Y-91.0125
G01 X168.5455 Y-90.9206
G01 X168.5327 Y-90.8344
G01 X168.5119 Y-90.7511
G01 X168.4815 Y-90.6656
G01 X168.4437 Y-90.5857
G01 X168.3996 Y-90.5121
G01 X168.3441 Y-90.4372
G01 X168.2864 Y-90.3736
G01 X168.2210 Y-90.3143
G01 X168.1500 Y-90.2617
G01 X168.0764 Y-90.2175
G01 X167.9921 Y-90.1776
G01 X167.9113 Y-90.1488
G01 X167.8280 Y-90.1278
G01 X167.7358 Y-90.1142
G01 X167.6500 Y-90.1100
G01 X167.5618 Y-90.1143
G01 X167.4744 Y-90.1273
G01 X167.3911 Y-90.1481
G01 X167.3056 Y-90.1785
G01 X167.2257 Y-90.2163
G01 X167.1521 Y-90.2604
G01 X167.0790 Y-90.3143
G01 X167.0119 Y-90.3754
G01 X166.9543 Y-90.4390
G01 X166.9024 Y-90.5090
G00 Z2.0000
G00 X164.3631 Y-90.5080
G01 F60.00
G01 Z0.0000
G01 F120.00
G01 X164.3163 Y-90.5857
G01 X164.2785 Y-90.6656
G01 X164.2488 Y-90.7487
G01 X164.2273 Y-90.8344
G01 X164.2143 Y-90.9218
G01 X164.2100 Y-91.0100
G01 X164.2143 Y-91.0982
G01 X164.2275 Y-91.1868
G01 X164.2488 Y-91.2713
G01 X164.2785 Y-91.3544
G01 X164.3163 Y-91.4343
G01 X164.3624 Y-91.5110
G01 X164.4143 Y-91.5810
G01 X164.4745 Y-91.6473
G01 X164.5410 Y-91.7072
G01 X164.6100 Y-91.7583
G01 X164.6598 Y-91.7882
G01 X164.6598 Y-95.7940
G01 X164.6268 Y-95.8139
G01 X164.5617 Y-95.8622
G01 X164.4981 Y-95.9198
G01 X164.4429 Y-95.9808
G01 X164.3947 Y-96.0458
G01 X164.3498 Y-96.1204
G01 X164.3147 Y-96.1947
G01 X164.2874 Y-96.2709
G01 X164.2663 Y-96.3542
G01 X164.2541 Y-96.4367
G01 X164.2501 Y-96.5175
G01 X164.2542 Y-96.6045
G01 X164.2663 Y-96.6858
G01 X164.2866 Y-96.7667
G01 X164.3147 Y-96.8453
G01 X164.3504 Y-96.9207
G01 X164.3933 Y-96.9922
G01 X164.4429 Y-97.0592
G01 X164.4990 Y-97.1210
G01 X164.5608 Y-97.1771
G01 X164.6278 Y-97.2267
G01 X164.6993 Y-97.2696
G01 X164.7747 Y-97.3053
G01 X164.8533 Y-97.3334
G01 X164.9342 Y-97.3537
G01 X165.0167 Y-97.3659
G01 X165.1000 Y-97.3700
G01 X165.1845 Y-97.3658
G01 X165.2658 Y-97.3537
G01 X165.3467 Y-97.3334
G01 X165.4253 Y-97.3053
G01 X165.4985 Y-97.2707
G01 X165.5742 Y-97.2253
G01 X165.6392 Y-97.1771
G01 X165.7010 Y-97.1210
G01 X165.7571 Y-97.0592
G01 X165.8053 Y-96.9942
G01 X165.8507 Y-96.9185
G01 X165.8853 Y-96.8453
G01 X165.9134 Y-96.7667
G01 X165.9337 Y-96.6858
G01 X165.9458 Y-96.6045
G01 X165.9499 Y-96.5175
G01 X165.9459 Y-96.4367
G01 X165.9337 Y-96.3542
G01 X165.9126 Y-96.2709
G01 X165.8853 Y-96.1947
G01 X165.8507 Y-96.1215
G01 X165.8053 Y-96.0458
G01 X165.7571 Y-95.9808
G01 X165.7027 Y-95.9207
G01 X165.6392 Y-95.8629
G01 X165.5732 Y-95.8139
G01 X165.5602 Y-95.8060
G01 X165.5602 Y-91.7882
G01 X165.6100 Y-91.7583
G01 X165.6800 Y-91.7065
G01 X165.7473 Y-91.6455
G01 X165.8057 Y-91.5810
G01 X165.8569 Y-91.5120
G01 X165.9043 Y-91.4332
G01 X165.9415 Y-91.3544
G01 X165.9705 Y-91.2736
G01 X165.9927 Y-91.1856
G01 X166.0057 Y-91.0982
G01 X166.0099 Y-91.0125
G01 X166.0055 Y-90.9206
G01 X165.9927 Y-90.8344
G01 X165.9719 Y-90.7511
G01 X165.9415 Y-90.6656
G01 X165.9037 Y-90.5857
G01 X165.8596 Y-90.5121
G01 X165.8057 Y-90.4390
G01 X165.7464 Y-90.3736
G01 X165.6828 Y-90.3159
G01 X165.6100 Y-90.2617
G01 X165.5343 Y-90.2163
G01 X165.4567 Y-90.1795
G01 X165.3689 Y-90.1481
G01 X165.2856 Y-90.1273
G01 X165.2007 Y-90.1146
G01 X165.1100 Y-90.1100
G01 X165.0218 Y-90.1143
G01 X164.9368 Y-90.1269
G01 X164.8464 Y-90.1495
G01 X164.7656 Y-90.1785
G01 X164.6879 Y-90.2152
G01 X164.6080 Y-90.2631
G01 X164.5390 Y-90.3143
G01 X164.4736 Y-90.3736
G01 X164.4143 Y-90.4390
G01 X164.3631 Y-90.5080
G00 Z2.0000
G00 X161.8231 Y-90.5080
G01 F60.00
G01 Z0.0000
G01 F120.00
G01 X161.7763 Y-90.5857
G01 X161.7385 Y-90.6656
G01 X161.7088 Y-90.7487
G01 X161.6873 Y-90.8344
G01 X161.6743 Y-90.9218
G01 X161.6700 Y-91.0100
G01 X161.6743 Y-91.0982
G01 X161.6875 Y-91.1868
G01 X161.7088 Y-91.2713
G01 X161.7385 Y-91.3544
G01 X161.7763 Y-91.4343
G01 X161.8224 Y-91.5110
G01 X161.8743 Y-91.5810
G01 X161.9345 Y-91.6473
G01 X162.0000 Y-91.7065
G01 X162.0690 Y-91.7576
G01 X162.1098 Y-91.7823
G01 X162.1098 Y-95.8000
G01 X162.0868 Y-95.8139
G01 X162.0217 Y-95.8622
G01 X161.9581 Y-95.9198
G01 X161.9029 Y-95.9808
G01 X161.8547 Y-96.0458
G01 X161.8098 Y-96.1204
G01 X161.7747 Y-96.1947
G01 X161.7474 Y-96.2709
G01 X161.7263 Y-96.3542
G01 X161.7141 Y-96.4367
G01 X161.7101 Y-96.5175
G01 X161.7142 Y-96.6045
G01 X161.7263 Y-96.6858
G01 X161.7466 Y-96.7667
G01 X161.7747 Y-96.8453
G01 X161.8104 Y-96.9207
G01 X161.8533 Y-96.9922
G01 X161.9029 Y-97.0592
G01 X161.9590 Y-97.1210
G01 X162.0208 Y-97.1771
G01 X162.0878 Y-97.2267
G01 X162.1593 Y-97.2696
G01 X162.2347 Y-97.3053
G01 X162.3133 Y-97.3334
G01 X162.3942 Y-97.3537
G01 X162.4767 Y-97.3659
G01 X162.5600 Y-97.3700
G01 X162.6445 Y-97.3658
G01 X162.7258 Y-97.3537
G01 X162.8067 Y-97.3334
G01 X162.8853 Y-97.3053
G01 X162.9585 Y-97.2707
G01 X163.0342 Y-97.2253
G01 X163.0992 Y-97.1771
G01 X163.1610 Y-97.1210
G01 X163.2171 Y-97.0592
G01 X163.2653 Y-96.9942
G01 X163.3107 Y-96.9185
G01 X163.3453 Y-96.8453
G01 X163.3734 Y-96.7667
G01 X163.3937 Y-96.6858
G01 X163.4058 Y-96.6045
G01 X163.4099 Y-96.5175
G01 X163.4059 Y-96.4367
G01 X163.3937 Y-96.3542
G01 X163.3726 Y-96.2709
G01 X163.3453 Y-96.1947
G01 X163.3102 Y-96.1204
G01 X163.2653 Y-96.0458
G01 X163.2171 Y-95.9808
G01 X163.1619 Y-95.9198
G01 X163.0983 Y-95.8622
G01 X163.0332 Y-95.8139
G01 X163.0102 Y-95.8000
G01 X163.0102 Y-91.7942
G01 X163.0700 Y-91.7583
G01 X163.1390 Y-91.7072
G01 X163.2064 Y-91.6464
G01 X163.2672 Y-91.5790
G01 X163.3183 Y-91.5100
G01 X163.3637 Y-91.4343
G01 X163.4024 Y-91.3521
G01 X163.4312 Y-91.2713
G01 X163.4527 Y-91.1856
G01 X163.4657 Y-91.0982
G01 X163.4699 Y-91.0125
G01 X163.4655 Y-90.9206
G01 X163.4527 Y-90.8344
G01 X163.4319 Y-90.7511
G01 X163.4015 Y-90.6656
G01 X163.3637 Y-90.5857
G01 X163.3196 Y-90.5121
G01 X163.2657 Y-90.4390
G01 X163.2064 Y-90.3736
G01 X163.1428 Y-90.3159
G01 X163.0700 Y-90.2617
G01 X162.9943 Y-90.2163
G01 X162.9167 Y-90.1795
G01 X162.8289 Y-90.1481
G01 X162.7456 Y-90.1273
G01 X162.6607 Y-90.1146
G01 X162.5700 Y-90.1100
G01 X162.4818 Y-90.1143
G01 X162.3968 Y-90.1269
G01 X162.3064 Y-90.1495
G01 X162.2256 Y-90.1785
G01 X162.1457 Y-90.2163
G01 X162.0700 Y-90.2617
G01 X162.0010 Y-90.3128
G01 X161.9319 Y-90.3754
G01 X161.8743 Y-90.4390
G01 X161.8231 Y-90.5080
G00 Z2.0000
G00 X160.4932 Y-95.8139
G01 F60.00
G01 Z0.0000
G01 F120.00
G01 X160.4802 Y-95.8060
G01 X160.4802 Y-91.9100
G01 X160.8837 Y-91.9099
G01 X160.8910 Y-91.9088
G01 X160.8991 Y-91.9062
G01 X160.9067 Y-91.9022
G01 X160.9127 Y-91.8979
G01 X160.9179 Y-91.8927
G01 X160.9222 Y-91.8867
G01 X160.9257 Y-91.8803
G01 X160.9285 Y-91.8721
G01 X160.9296 Y-91.8661
G01 X160.9300 Y-91.8600
G01 X160.9300 Y-90.1600
G01 X160.9298 Y-90.1551
G01 X160.9288 Y-90.1490
G01 X160.9262 Y-90.1409
G01 X160.9222 Y-90.1333
G01 X160.9179 Y-90.1273
G01 X160.9117 Y-90.1213
G01 X160.9046 Y-90.1165
G01 X160.8980 Y-90.1134
G01 X160.8898 Y-90.1110
G01 X160.8812 Y-90.1100
G01 X159.1800 Y-90.1100
G01 X159.1751 Y-90.1102
G01 X159.1690 Y-90.1112
G01 X159.1609 Y-90.1138
G01 X159.1533 Y-90.1178
G01 X159.1473 Y-90.1221
G01 X159.1413 Y-90.1283
G01 X159.1365 Y-90.1354
G01 X159.1334 Y-90.1420
G01 X159.1310 Y-90.1502
G01 X159.1300 Y-90.1588
G01 X159.1300 Y-91.8600
G01 X159.1302 Y-91.8649
G01 X159.1312 Y-91.8710
G01 X159.1338 Y-91.8791
G01 X159.1371 Y-91.8857
G01 X159.1413 Y-91.8917
G01 X159.1464 Y-91.8970
G01 X159.1522 Y-91.9016
G01 X159.1597 Y-91.9057
G01 X159.1667 Y-91.9082
G01 X159.1751 Y-91.9098
G01 X159.5798 Y-91.9100
G01 X159.5798 Y-95.7940
G01 X159.5468 Y-95.8139
G01 X159.4817 Y-95.8622
G01 X159.4181 Y-95.9198
G01 X159.3629 Y-95.9808
G01 X159.3147 Y-96.0458
G01 X159.2698 Y-96.1204
G01 X159.2347 Y-96.1947
G01 X159.2074 Y-96.2709
G01 X159.1863 Y-96.3542
G01 X159.1739 Y-96.4391
G01 X159.1700 Y-96.5200
G01 X159.1739 Y-96.6009
G01 X159.1863 Y-96.6858
G01 X159.2066 Y-96.7667
G01 X159.2347 Y-96.8453
G01 X159.2716 Y-96.9228
G01 X159.3133 Y-96.9922
G01 X159.3614 Y-97.0573
G01 X159.4173 Y-97.1193
G01 X159.4808 Y-97.1771
G01 X159.5478 Y-97.2267
G01 X159.6193 Y-97.2696
G01 X159.6947 Y-97.3053
G01 X159.7733 Y-97.3334
G01 X159.8542 Y-97.3537
G01 X159.9367 Y-97.3659
G01 X160.0200 Y-97.3700
G01 X160.1033 Y-97.3659
G01 X160.1858 Y-97.3537
G01 X160.2667 Y-97.3334
G01 X160.3453 Y-97.3053
G01 X160.4207 Y-97.2696
G01 X160.4922 Y-97.2267
G01 X160.5592 Y-97.1771
G01 X160.6210 Y-97.1210
G01 X160.6771 Y-97.0592
G01 X160.7267 Y-96.9922
G01 X160.7696 Y-96.9207
G01 X160.8053 Y-96.8453
G01 X160.8334 Y-96.7667
G01 X160.8537 Y-96.6858
G01 X160.8659 Y-96.6033
G01 X160.8700 Y-96.5200
G01 X160.8659 Y-96.4367
G01 X160.8537 Y-96.3542
G01 X160.8334 Y-96.2733
G01 X160.8053 Y-96.1947
G01 X160.7696 Y-96.1193
G01 X160.7267 Y-96.0478
G01 X160.6771 Y-95.9808
G01 X160.6210 Y-95.9190
G01 X160.5592 Y-95.8629
G01 X160.4932 Y-95.8139
G00 Z2.0000
G00 X158.3131 Y-96.6882
G01 F60.00
G01 Z0.0000
G01 F120.00
G01 X158.3261 Y-96.6009
G01 X158.3300 Y-96.5200
G01 X158.3259 Y-96.4367
G01 X158.3137 Y-96.3542
G01 X158.2941 Y-96.2756
G01 X158.2648 Y-96.1936
G01 X158.2296 Y-96.1193
G01 X158.1881 Y-96.0498
G01 X158.1363 Y-95.9798
G01 X158.0810 Y-95.9190
G01 X158.0202 Y-95.8637
G01 X157.9532 Y-95.8139
G01 X157.9302 Y-95.8000
G01 X157.9302 Y-95.2500
G01 X157.9281 Y-95.2071
G01 X157.9215 Y-95.1622
G01 X157.9108 Y-95.1193
G01 X157.8959 Y-95.0777
G01 X157.8764 Y-95.0367
G01 X157.8543 Y-94.9999
G01 X157.8295 Y-94.9663
G01 X157.7983 Y-94.9317
G01 X156.6602 Y-93.7935
G01 X156.6602 Y-91.9100
G01 X157.0637 Y-91.9099
G01 X157.0710 Y-91.9088
G01 X157.0791 Y-91.9062
G01 X157.0867 Y-91.9022
G01 X157.0927 Y-91.8979
G01 X157.0979 Y-91.8927
G01 X157.1022 Y-91.8867
G01 X157.1057 Y-91.8803
G01 X157.1085 Y-91.8721
G01 X157.1096 Y-91.8661
G01 X157.1100 Y-91.8600
G01 X157.1100 Y-90.1600
G01 X157.1098 Y-90.1551
G01 X157.1088 Y-90.1490
G01 X157.1057 Y-90.1397
G01 X157.1022 Y-90.1333
G01 X157.0987 Y-90.1283
G01 X157.0936 Y-90.1230
G01 X157.0878 Y-90.1184
G01 X157.0814 Y-90.1148
G01 X157.0757 Y-90.1125
G01 X157.0685 Y-90.1107
G01 X157.0612 Y-90.1100
G01 X155.3600 Y-90.1100
G01 X155.3502 Y-90.1110
G01 X155.3455 Y-90.1122
G01 X155.3397 Y-90.1143
G01 X155.3333 Y-90.1178
G01 X155.3273 Y-90.1221
G01 X155.3221 Y-90.1273
G01 X155.3184 Y-90.1322
G01 X155.3148 Y-90.1386
G01 X155.3122 Y-90.1455
G01 X155.3107 Y-90.1515
G01 X155.3100 Y-90.1588
G01 X155.3100 Y-91.8600
G01 X155.3102 Y-91.8649
G01 X155.3112 Y-91.8710
G01 X155.3138 Y-91.8791
G01 X155.3171 Y-91.8857
G01 X155.3221 Y-91.8927
G01 X155.3273 Y-91.8979
G01 X155.3333 Y-91.9022
G01 X155.3397 Y-91.9057
G01 X155.3467 Y-91.9082
G01 X155.3551 Y-91.9098
G01 X155.7598 Y-91.9100
G01 X155.7598 Y-93.9800
G01 X155.7620 Y-94.0241
G01 X155.7680 Y-94.0654
G01 X155.7796 Y-94.1119
G01 X155.7951 Y-94.1545
G01 X155.8130 Y-94.1922
G01 X155.8344 Y-94.2280
G01 X155.8620 Y-94.2656
G01 X155.8908 Y-94.2975
G01 X157.0298 Y-95.4365
G01 X157.0298 Y-95.8000
G01 X157.0068 Y-95.8139
G01 X156.9417 Y-95.8622
G01 X156.8798 Y-95.9181
G01 X156.8229 Y-95.9808
G01 X156.7739 Y-96.0468
G01 X156.7304 Y-96.1193
G01 X156.6947 Y-96.1947
G01 X156.6666 Y-96.2733
G01 X156.6466 Y-96.3530
G01 X156.6339 Y-96.4391
G01 X156.6300 Y-96.5200
G01 X156.6341 Y-96.6033
G01 X156.6463 Y-96.6858
G01 X156.6659 Y-96.7644
G01 X156.6952 Y-96.8464
G01 X156.7304 Y-96.9207
G01 X156.7719 Y-96.9902
G01 X156.8245 Y-97.0611
G01 X156.8790 Y-97.1210
G01 X156.9408 Y-97.1771
G01 X157.0078 Y-97.2267
G01 X157.0772 Y-97.2684
G01 X157.1570 Y-97.3062
G01 X157.2333 Y-97.3334
G01 X157.3142 Y-97.3537
G01 X157.3967 Y-97.3659
G01 X157.4775 Y-97.3699
G01 X157.5633 Y-97.3659
G01 X157.6482 Y-97.3531
G01 X157.7267 Y-97.3334
G01 X157.8053 Y-97.3053
G01 X157.8807 Y-97.2696
G01 X157.9502 Y-97.2281
G01 X158.0211 Y-97.1755
G01 X158.0810 Y-97.1210
G01 X158.1371 Y-97.0592
G01 X158.1867 Y-96.9922
G01 X158.2284 Y-96.9228
G01 X158.2662 Y-96.8430
G01 X158.2934 Y-96.7667
G01 X158.3131 Y-96.6882
G00 Z2.0000
G00 X152.9231 Y-90.5080
G01 F60.00
G01 Z0.0000
G01 F120.00
G01 X152.8752 Y-90.5879
G01 X152.8385 Y-90.6656
G01 X152.8081 Y-90.7511
G01 X152.7873 Y-90.8344
G01 X152.7743 Y-90.9218
G01 X152.7700 Y-91.0100
G01 X152.7743 Y-91.0982
G01 X152.7873 Y-91.1856
G01 X152.8095 Y-91.2736
G01 X152.8385 Y-91.3544
G01 X152.8752 Y-91.4321
G01 X152.9210 Y-91.5090
G01 X152.9743 Y-91.5810
G01 X153.0345 Y-91.6473
G01 X153.1010 Y-91.7072
G01 X153.1700 Y-91.7583
G01 X153.2198 Y-91.7882
G01 X153.2198 Y-93.9800
G01 X153.2220 Y-94.0241
G01 X153.2280 Y-94.0654
G01 X153.2396 Y-94.1119
G01 X153.2551 Y-94.1545
G01 X153.2730 Y-94.1922
G01 X153.2944 Y-94.2280
G01 X153.3220 Y-94.2656
G01 X153.3508 Y-94.2975
G01 X154.4898 Y-95.4365
G01 X154.4898 Y-95.8000
G01 X154.4668 Y-95.8139
G01 X154.4017 Y-95.8622
G01 X154.3398 Y-95.9181
G01 X154.2829 Y-95.9808
G01 X154.2339 Y-96.0468
G01 X154.1904 Y-96.1193
G01 X154.1547 Y-96.1947
G01 X154.1266 Y-96.2733
G01 X154.1061 Y-96.3554
G01 X154.0941 Y-96.4367
G01 X154.0900 Y-96.5200
G01 X154.0941 Y-96.6033
G01 X154.1063 Y-96.6858
G01 X154.1266 Y-96.7667
G01 X154.1547 Y-96.8453
G01 X154.1904 Y-96.9207
G01 X154.2319 Y-96.9902
G01 X154.2845 Y-97.0611
G01 X154.3390 Y-97.1210
G01 X154.4008 Y-97.1771
G01 X154.4678 Y-97.2267
G01 X154.5372 Y-97.2684
G01 X154.6170 Y-97.3062
G01 X154.6933 Y-97.3334
G01 X154.7742 Y-97.3537
G01 X154.8567 Y-97.3659
G01 X154.9375 Y-97.3699
G01 X155.0258 Y-97.3656
G01 X155.1058 Y-97.3537
G01 X155.1879 Y-97.3330
G01 X155.2653 Y-97.3053
G01 X155.3407 Y-97.2696
G01 X155.4122 Y-97.2267
G01 X155.4792 Y-97.1771
G01 X155.5410 Y-97.1210
G01 X155.5971 Y-97.0592
G01 X155.6467 Y-96.9922
G01 X155.6896 Y-96.9207
G01 X155.7253 Y-96.8453
G01 X155.7534 Y-96.7667
G01 X155.7737 Y-96.6858
G01 X155.7859 Y-96.6033
G01 X155.7900 Y-96.5200
G01 X155.7859 Y-96.4367
G01 X155.7737 Y-96.3542
G01 X155.7534 Y-96.2733
G01 X155.7253 Y-96.1947
G01 X155.6896 Y-96.1193
G01 X155.6467 Y-96.0478
G01 X155.5978 Y-95.9817
G01 X155.5410 Y-95.9190
G01 X155.4802 Y-95.8637
G01 X155.4132 Y-95.8139
G01 X155.3902 Y-95.8000
G01 X155.3902 Y-95.2500
G01 X155.3880 Y-95.2059
G01 X155.3815 Y-95.1622
G01 X155.3700 Y-95.1170
G01 X155.3559 Y-95.0777
G01 X155.3381 Y-95.0400
G01 X155.3143 Y-94.9999
G01 X155.2880 Y-94.9644
G01 X155.2583 Y-94.9317
G01 X154.1202 Y-93.7935
G01 X154.1202 Y-91.7882
G01 X154.1700 Y-91.7583
G01 X154.2419 Y-91.7049
G01 X154.3064 Y-91.6464
G01 X154.3649 Y-91.5819
G01 X154.4196 Y-91.5079
G01 X154.4637 Y-91.4343
G01 X154.5019 Y-91.3533
G01 X154.5312 Y-91.2713
G01 X154.5527 Y-91.1856
G01 X154.5657 Y-91.0982
G01 X154.5699 Y-91.0125
G01 X154.5654 Y-90.9193
G01 X154.5527 Y-90.8344
G01 X154.5309 Y-90.7476
G01 X154.5015 Y-90.6656
G01 X154.4648 Y-90.5879
G01 X154.4183 Y-90.5100
G01 X154.3641 Y-90.4372
G01 X154.3064 Y-90.3736
G01 X154.2428 Y-90.3159
G01 X154.1700 Y-90.2617
G01 X154.0921 Y-90.2152
G01 X154.0144 Y-90.1785
G01 X153.9336 Y-90.1495
G01 X153.8432 Y-90.1269
G01 X153.7582 Y-90.1143
G01 X153.6725 Y-90.1101
G01 X153.5818 Y-90.1143
G01 X153.4944 Y-90.1273
G01 X153.4111 Y-90.1481
G01 X153.3256 Y-90.1785
G01 X153.2457 Y-90.2163
G01 X153.1721 Y-90.2604
G01 X153.0990 Y-90.3143
G01 X153.0319 Y-90.3754
G01 X152.9743 Y-90.4390
G01 X152.9231 Y-90.5080
G00 Z2.0000
G00 X150.3824 Y-90.5090
G01 F60.00
G01 Z0.0000
G01 F120.00
G01 X150.3363 Y-90.5857
G01 X150.2995 Y-90.6633
G01 X150.2681 Y-90.7511
G01 X150.2473 Y-90.8344
G01 X150.2343 Y-90.9218
G01 X150.2300 Y-91.0100
G01 X150.2343 Y-91.0982
G01 X150.2473 Y-91.1856
G01 X150.2695 Y-91.2736
G01 X150.2985 Y-91.3544
G01 X150.3352 Y-91.4321
G01 X150.3810 Y-91.5090
G01 X150.4343 Y-91.5810
G01 X150.4945 Y-91.6473
G01 X150.5610 Y-91.7072
G01 X150.6300 Y-91.7583
G01 X150.6798 Y-91.7882
G01 X150.6798 Y-93.9800
G01 X150.6820 Y-94.0241
G01 X150.6880 Y-94.0654
G01 X150.6996 Y-94.1119
G01 X150.7151 Y-94.1545
G01 X150.7330 Y-94.1922
G01 X150.7544 Y-94.2280
G01 X150.7820 Y-94.2656
G01 X150.8108 Y-94.2975
G01 X151.9498 Y-95.4365
G01 X151.9498 Y-95.8000
G01 X151.9268 Y-95.8139
G01 X151.8617 Y-95.8622
G01 X151.7998 Y-95.9181
G01 X151.7429 Y-95.9808
G01 X151.6939 Y-96.0468
G01 X151.6504 Y-96.1193
G01 X151.6147 Y-96.1947
G01 X151.5866 Y-96.2733
G01 X151.5661 Y-96.3554
G01 X151.5541 Y-96.4367
G01 X151.5500 Y-96.5200
G01 X151.5541 Y-96.6033
G01 X151.5663 Y-96.6858
G01 X151.5866 Y-96.7667
G01 X151.6147 Y-96.8453
G01 X151.6504 Y-96.9207
G01 X151.6919 Y-96.9902
G01 X151.7445 Y-97.0611
G01 X151.7990 Y-97.1210
G01 X151.8608 Y-97.1771
G01 X151.9278 Y-97.2267
G01 X151.9972 Y-97.2684
G01 X152.0770 Y-97.3062
G01 X152.1533 Y-97.3334
G01 X152.2342 Y-97.3537
G01 X152.3167 Y-97.3659
G01 X152.3975 Y-97.3699
G01 X152.4858 Y-97.3656
G01 X152.5658 Y-97.3537
G01 X152.6479 Y-97.3330
G01 X152.7253 Y-97.3053
G01 X152.8007 Y-97.2696
G01 X152.8722 Y-97.2267
G01 X152.9392 Y-97.1771
G01 X153.0010 Y-97.1210
G01 X153.0571 Y-97.0592
G01 X153.1067 Y-96.9922
G01 X153.1496 Y-96.9207
G01 X153.1853 Y-96.8453
G01 X153.2134 Y-96.7667
G01 X153.2337 Y-96.6858
G01 X153.2459 Y-96.6033
G01 X153.2500 Y-96.5200
G01 X153.2459 Y-96.4367
G01 X153.2337 Y-96.3542
G01 X153.2134 Y-96.2733
G01 X153.1853 Y-96.1947
G01 X153.1496 Y-96.1193
G01 X153.1067 Y-96.0478
G01 X153.0578 Y-95.9817
G01 X153.0010 Y-95.9190
G01 X152.9402 Y-95.8637
G01 X152.8732 Y-95.8139
G01 X152.8502 Y-95.8000
G01 X152.8502 Y-95.2500
G01 X152.8480 Y-95.2059
G01 X152.8415 Y-95.1622
G01 X152.8300 Y-95.1170
G01 X152.8159 Y-95.0777
G01 X152.7981 Y-95.0400
G01 X152.7743 Y-94.9999
G01 X152.7480 Y-94.9644
G01 X152.7183 Y-94.9317
G01 X151.5802 Y-93.7935
G01 X151.5802 Y-91.7882
G01 X151.6300 Y-91.7583
G01 X151.7019 Y-91.7049
G01 X151.7664 Y-91.6464
G01 X151.8249 Y-91.5819
G01 X151.8796 Y-91.5079
G01 X151.9237 Y-91.4343
G01 X151.9619 Y-91.3533
G01 X151.9912 Y-91.2713
G01 X152.0127 Y-91.1856
G01 X152.0257 Y-91.0982
G01 X152.0299 Y-91.0125
G01 X152.0254 Y-90.9193
G01 X152.0127 Y-90.8344
G01 X151.9909 Y-90.7476
G01 X151.9615 Y-90.6656
G01 X151.9248 Y-90.5879
G01 X151.8783 Y-90.5100
G01 X151.8241 Y-90.4372
G01 X151.7664 Y-90.3736
G01 X151.7010 Y-90.3143
G01 X151.6279 Y-90.2604
G01 X151.5543 Y-90.2163
G01 X151.4744 Y-90.1785
G01 X151.3889 Y-90.1481
G01 X151.3056 Y-90.1273
G01 X151.2207 Y-90.1146
G01 X151.1300 Y-90.1100
G01 X151.0393 Y-90.1146
G01 X150.9544 Y-90.1273
G01 X150.8711 Y-90.1481
G01 X150.7833 Y-90.1795
G01 X150.7057 Y-90.2163
G01 X150.6321 Y-90.2604
G01 X150.5590 Y-90.3143
G01 X150.4919 Y-90.3754
G01 X150.4343 Y-90.4390
G01 X150.3824 Y-90.5090
G00 Z2.0000
G00 X147.8431 Y-90.5080
G01 F60.00
G01 Z0.0000
G01 F120.00
G01 X147.7952 Y-90.5879
G01 X147.7585 Y-90.6656
G01 X147.7281 Y-90.7511
G01 X147.7073 Y-90.8344
G01 X147.6943 Y-90.9218
G01 X147.6900 Y-91.0100
G01 X147.6943 Y-91.0982
G01 X147.7073 Y-91.1856
G01 X147.7295 Y-91.2736
G01 X147.7585 Y-91.3544
G01 X147.7952 Y-91.4321
G01 X147.8410 Y-91.5090
G01 X147.8943 Y-91.5810
G01 X147.9545 Y-91.6473
G01 X148.0210 Y-91.7072
G01 X148.0900 Y-91.7583
G01 X148.1398 Y-91.7882
G01 X148.1398 Y-93.9800
G01 X148.1420 Y-94.0241
G01 X148.1480 Y-94.0654
G01 X148.1596 Y-94.1119
G01 X148.1751 Y-94.1545
G01 X148.1930 Y-94.1922
G01 X148.2144 Y-94.2280
G01 X148.2420 Y-94.2656
G01 X148.2708 Y-94.2975
G01 X149.4098 Y-95.4365
G01 X149.4098 Y-95.8000
G01 X149.3868 Y-95.8139
G01 X149.3217 Y-95.8622
G01 X149.2598 Y-95.9181
G01 X149.2029 Y-95.9808
G01 X149.1539 Y-96.0468
G01 X149.1104 Y-96.1193
G01 X149.0747 Y-96.1947
G01 X149.0466 Y-96.2733
G01 X149.0261 Y-96.3554
G01 X149.0141 Y-96.4367
G01 X149.0100 Y-96.5200
G01 X149.0141 Y-96.6033
G01 X149.0263 Y-96.6858
G01 X149.0466 Y-96.7667
G01 X149.0747 Y-96.8453
G01 X149.1104 Y-96.9207
G01 X149.1519 Y-96.9902
G01 X149.2045 Y-97.0611
G01 X149.2590 Y-97.1210
G01 X149.3208 Y-97.1771
G01 X149.3878 Y-97.2267
G01 X149.4572 Y-97.2684
G01 X149.5370 Y-97.3062
G01 X149.6133 Y-97.3334
G01 X149.6942 Y-97.3537
G01 X149.7767 Y-97.3659
G01 X149.8575 Y-97.3699
G01 X149.9458 Y-97.3656
G01 X150.0258 Y-97.3537
G01 X150.1079 Y-97.3330
G01 X150.1853 Y-97.3053
G01 X150.2607 Y-97.2696
G01 X150.3322 Y-97.2267
G01 X150.3992 Y-97.1771
G01 X150.4610 Y-97.1210
G01 X150.5171 Y-97.0592
G01 X150.5667 Y-96.9922
G01 X150.6096 Y-96.9207
G01 X150.6453 Y-96.8453
G01 X150.6734 Y-96.7667
G01 X150.6937 Y-96.6858
G01 X150.7059 Y-96.6033
G01 X150.7100 Y-96.5200
G01 X150.7059 Y-96.4367
G01 X150.6937 Y-96.3542
G01 X150.6734 Y-96.2733
G01 X150.6453 Y-96.1947
G01 X150.6096 Y-96.1193
G01 X150.5667 Y-96.0478
G01 X150.5178 Y-95.9817
G01 X150.4610 Y-95.9190
G01 X150.4002 Y-95.8637
G01 X150.3332 Y-95.8139
G01 X150.3102 Y-95.8000
G01 X150.3102 Y-95.2500
G01 X150.3080 Y-95.2059
G01 X150.3015 Y-95.1622
G01 X150.2900 Y-95.1170
G01 X150.2759 Y-95.0777
G01 X150.2581 Y-95.0400
G01 X150.2343 Y-94.9999
G01 X150.2080 Y-94.9644
G01 X150.1783 Y-94.9317
G01 X149.0402 Y-93.7935
G01 X149.0402 Y-91.7882
G01 X149.0900 Y-91.7583
G01 X149.1619 Y-91.7049
G01 X149.2264 Y-91.6464
G01 X149.2849 Y-91.5819
G01 X149.3396 Y-91.5079
G01 X149.3837 Y-91.4343
G01 X149.4219 Y-91.3533
G01 X149.4512 Y-91.2713
G01 X149.4727 Y-91.1856
G01 X149.4857 Y-91.0982
G01 X149.4899 Y-91.0125
G01 X149.4854 Y-90.9193
G01 X149.4727 Y-90.8344
G01 X149.4509 Y-90.7476
G01 X149.4215 Y-90.6656
G01 X149.3848 Y-90.5879
G01 X149.3383 Y-90.5100
G01 X149.2841 Y-90.4372
G01 X149.2264 Y-90.3736
G01 X149.1628 Y-90.3159
G01 X149.0900 Y-90.2617
G01 X149.0121 Y-90.2152
G01 X148.9344 Y-90.1785
G01 X148.8536 Y-90.1495
G01 X148.7632 Y-90.1269
G01 X148.6782 Y-90.1143
G01 X148.5925 Y-90.1101
G01 X148.5018 Y-90.1143
G01 X148.4144 Y-90.1273
G01 X148.3311 Y-90.1481
G01 X148.2456 Y-90.1785
G01 X148.1657 Y-90.2163
G01 X148.0921 Y-90.2604
G01 X148.0190 Y-90.3143
G01 X147.9519 Y-90.3754
G01 X147.8943 Y-90.4390
G01 X147.8431 Y-90.5080
G00 Z2.0000
G00 X148.1531 Y-96.6882
G01 F60.00
G01 Z0.0000
G01 F120.00
G01 X148.1659 Y-96.6033
G01 X148.1700 Y-96.5200
G01 X148.1659 Y-96.4367
G01 X148.1537 Y-96.3542
G01 X148.1334 Y-96.2733
G01 X148.1053 Y-96.1947
G01 X148.0696 Y-96.1193
G01 X148.0267 Y-96.0478
G01 X147.9771 Y-95.9808
G01 X147.9210 Y-95.9190
G01 X147.8592 Y-95.8629
G01 X147.7922 Y-95.8133
G01 X147.7207 Y-95.7704
G01 X147.6453 Y-95.7347
G01 X147.5667 Y-95.7066
G01 X147.4858 Y-95.6863
G01 X147.4033 Y-95.6741
G01 X147.3200 Y-95.6700
G01 X147.2367 Y-95.6741
G01 X147.1542 Y-95.6863
G01 X147.0733 Y-95.7066
G01 X146.9947 Y-95.7347
G01 X146.9193 Y-95.7704
G01 X146.8478 Y-95.8133
G01 X146.7808 Y-95.8629
G01 X146.7190 Y-95.9190
G01 X146.6629 Y-95.9808
G01 X146.6133 Y-96.0478
G01 X146.5704 Y-96.1193
G01 X146.5347 Y-96.1947
G01 X146.5066 Y-96.2733
G01 X146.4863 Y-96.3542
G01 X146.4741 Y-96.4367
G01 X146.4700 Y-96.5200
G01 X146.4741 Y-96.6033
G01 X146.4863 Y-96.6858
G01 X146.5066 Y-96.7667
G01 X146.5347 Y-96.8453
G01 X146.5704 Y-96.9207
G01 X146.6133 Y-96.9922
G01 X146.6629 Y-97.0592
G01 X146.7190 Y-97.1210
G01 X146.7808 Y-97.1771
G01 X146.8478 Y-97.2267
G01 X146.9193 Y-97.2696
G01 X146.9947 Y-97.3053
G01 X147.0733 Y-97.3334
G01 X147.1542 Y-97.3537
G01 X147.2367 Y-97.3659
G01 X147.3200 Y-97.3700
G01 X147.4033 Y-97.3659
G01 X147.4858 Y-97.3537
G01 X147.5667 Y-97.3334
G01 X147.6453 Y-97.3053
G01 X147.7207 Y-97.2696
G01 X147.7922 Y-97.2267
G01 X147.8592 Y-97.1771
G01 X147.9210 Y-97.1210
G01 X147.9771 Y-97.0592
G01 X148.0267 Y-96.9922
G01 X148.0696 Y-96.9207
G01 X148.1053 Y-96.8453
G01 X148.1334 Y-96.7667
G01 X148.1531 Y-96.6882
G00 Z2.0000
G00 X145.5941 Y-96.7644
G01 F60.00
G01 Z0.0000
G01 F120.00
G01 X145.6137 Y-96.6858
G01 X145.6259 Y-96.6033
G01 X145.6300 Y-96.5200
G01 X145.6259 Y-96.4367
G01 X145.6137 Y-96.3542
G01 X145.5934 Y-96.2733
G01 X145.5653 Y-96.1947
G01 X145.5296 Y-96.1193
G01 X145.4867 Y-96.0478
G01 X145.4371 Y-95.9808
G01 X145.3810 Y-95.9190
G01 X145.3192 Y-95.8629
G01 X145.2522 Y-95.8133
G01 X145.1807 Y-95.7704
G01 X145.1053 Y-95.7347
G01 X145.0267 Y-95.7066
G01 X144.9458 Y-95.6863
G01 X144.8633 Y-95.6741
G01 X144.7800 Y-95.6700
G01 X144.6967 Y-95.6741
G01 X144.6142 Y-95.6863
G01 X144.5333 Y-95.7066
G01 X144.4547 Y-95.7347
G01 X144.3793 Y-95.7704
G01 X144.3078 Y-95.8133
G01 X144.2408 Y-95.8629
G01 X144.1790 Y-95.9190
G01 X144.1229 Y-95.9808
G01 X144.0733 Y-96.0478
G01 X144.0304 Y-96.1193
G01 X143.9947 Y-96.1947
G01 X143.9666 Y-96.2733
G01 X143.9463 Y-96.3542
G01 X143.9341 Y-96.4367
G01 X143.9300 Y-96.5200
G01 X143.9341 Y-96.6033
G01 X143.9463 Y-96.6858
G01 X143.9666 Y-96.7667
G01 X143.9947 Y-96.8453
G01 X144.0304 Y-96.9207
G01 X144.0733 Y-96.9922
G01 X144.1229 Y-97.0592
G01 X144.1790 Y-97.1210
G01 X144.2408 Y-97.1771
G01 X144.3078 Y-97.2267
G01 X144.3793 Y-97.2696
G01 X144.4547 Y-97.3053
G01 X144.5333 Y-97.3334
G01 X144.6142 Y-97.3537
G01 X144.6967 Y-97.3659
G01 X144.7800 Y-97.3700
G01 X144.8633 Y-97.3659
G01 X144.9458 Y-97.3537
G01 X145.0267 Y-97.3334
G01 X145.1053 Y-97.3053
G01 X145.1807 Y-97.2696
G01 X145.2522 Y-97.2267
G01 X145.3192 Y-97.1771
G01 X145.3810 Y-97.1210
G01 X145.4371 Y-97.0592
G01 X145.4867 Y-96.9922
G01 X145.5296 Y-96.9207
G01 X145.5653 Y-96.8453
G01 X145.5941 Y-96.7644
G00 Z2.0000
G00 X141.7698 Y-97.2281
G01 F60.00
G01 Z0.0000
G01 F120.00
G01 X141.6989 Y-97.1755
G01 X141.6390 Y-97.1210
G01 X141.5822 Y-97.0583
G01 X141.5333 Y-96.9922
G01 X141.4910 Y-96.9218
G01 X141.4552 Y-96.8464
G01 X141.4456 Y-96.8200
G01 X141.0263 Y-96.8200
G01 X141.0609 Y-96.9492
G01 X141.1533 Y-97.1474
G01 X141.2788 Y-97.3266
G01 X141.4334 Y-97.4812
G01 X141.6126 Y-97.6067
G01 X141.8108 Y-97.6991
G01 X141.9400 Y-97.7337
G01 X141.9400 Y-97.3144
G01 X141.9136 Y-97.3048
G01 X141.8404 Y-97.2702
G01 X141.7698 Y-97.2281
G00 Z2.0000
G00 X141.1533 Y-95.8926
G01 F60.00
G01 Z0.0000
G01 F120.00
G01 X141.0609 Y-96.0908
G01 X141.0263 Y-96.2200
G01 X141.4456 Y-96.2200
G01 X141.4552 Y-96.1936
G01 X141.4898 Y-96.1204
G01 X141.5326 Y-96.0488
G01 X141.5829 Y-95.9808
G01 X141.6390 Y-95.9190
G01 X141.7008 Y-95.8629
G01 X141.7688 Y-95.8126
G01 X141.8404 Y-95.7698
G01 X141.9136 Y-95.7352
G01 X141.9400 Y-95.7256
G01 X141.9400 Y-95.3063
G01 X141.8108 Y-95.3409
G01 X141.6126 Y-95.4333
G01 X141.4334 Y-95.5588
G01 X141.2788 Y-95.7134
G01 X141.1533 Y-95.8926
G00 Z2.0000
G00 X141.5417 Y-106.1882
G01 F60.00
G01 Z0.0000
G01 F120.00
G01 X141.5299 Y-106.2053
G01 X141.5228 Y-106.2142
G01 X141.4930 Y-106.2726
G01 X141.4588 Y-106.3322
G01 X141.4552 Y-106.3430
G01 X141.4472 Y-106.3622
G01 X141.4416 Y-106.3735
G01 X141.4246 Y-106.4368
G01 X141.4035 Y-106.5022
G01 X141.4020 Y-106.5148
G01 X141.3982 Y-106.5352
G01 X141.3953 Y-106.5462
G01 X141.3920 Y-106.6103
G01 X141.3895 Y-106.6354
G01 X141.3893 Y-106.6607
G01 X141.3860 Y-106.7248
G01 X141.3877 Y-106.7360
G01 X141.3895 Y-106.7606
G01 X141.3895 Y-110.7699
G01 X141.3892 Y-110.7753
G01 X141.3861 Y-110.8041
G01 X141.3851 Y-110.8089
G01 X141.3832 Y-110.8147
G01 X141.3806 Y-110.8203
G01 X141.3446 Y-110.8857
G01 X141.3385 Y-110.8930
G01 X141.2784 Y-110.9531
G01 X141.1529 Y-111.1324
G01 X141.0604 Y-111.3307
G01 X141.0038 Y-111.5420
G01 X140.9847 Y-111.7600
G01 X141.0038 Y-111.9780
G01 X141.0604 Y-112.1893
G01 X141.1529 Y-112.3876
G01 X141.2784 Y-112.5669
G01 X141.4331 Y-112.7216
G01 X141.6124 Y-112.8471
G01 X141.8107 Y-112.9396
G01 X142.0220 Y-112.9962
G01 X142.2400 Y-113.0153
G01 X142.4580 Y-112.9962
G01 X142.6693 Y-112.9396
G01 X142.8676 Y-112.8471
G01 X143.0469 Y-112.7216
G01 X143.2016 Y-112.5669
G01 X143.3271 Y-112.3876
G01 X143.3523 Y-112.3336
G01 X143.3567 Y-112.3260
G01 X143.3598 Y-112.3220
G01 X143.4077 Y-112.2671
G01 X143.4124 Y-112.2631
G01 X143.4165 Y-112.2604
G01 X143.4253 Y-112.2563
G01 X143.4957 Y-112.2349
G01 X143.5055 Y-112.2333
G01 X143.5142 Y-112.2334
G01 X143.5215 Y-112.2347
G01 X143.5911 Y-112.2546
G01 X143.5969 Y-112.2568
G01 X143.6024 Y-112.2597
G01 X143.6075 Y-112.2633
G01 X143.6120 Y-112.2674
G01 X143.6599 Y-112.3217
G01 X143.6636 Y-112.3264
G01 X143.6677 Y-112.3336
G01 X143.6929 Y-112.3876
G01 X143.8184 Y-112.5669
G01 X143.9731 Y-112.7216
G01 X144.1524 Y-112.8471
G01 X144.3507 Y-112.9396
G01 X144.5620 Y-112.9962
G01 X144.7800 Y-113.0153
G01 X144.9980 Y-112.9962
G01 X145.2093 Y-112.9396
G01 X145.4076 Y-112.8471
G01 X145.5869 Y-112.7216
G01 X145.7416 Y-112.5669
G01 X145.8671 Y-112.3876
G01 X145.8923 Y-112.3336
G01 X145.8967 Y-112.3260
G01 X145.8998 Y-112.3220
G01 X145.9477 Y-112.2671
G01 X145.9555 Y-112.2611
G01 X145.9608 Y-112.2581
G01 X145.9653 Y-112.2563
G01 X146.0346 Y-112.2353
G01 X146.0406 Y-112.2338
G01 X146.0505 Y-112.2332
G01 X146.0603 Y-112.2344
G01 X146.1311 Y-112.2546
G01 X146.1380 Y-112.2573
G01 X146.1434 Y-112.2603
G01 X146.1484 Y-112.2640
G01 X146.1529 Y-112.2683
G01 X146.1999 Y-112.3217
G01 X146.2036 Y-112.3264
G01 X146.2077 Y-112.3336
G01 X146.2329 Y-112.3876
G01 X146.3584 Y-112.5669
G01 X146.4204 Y-112.6290
G01 X146.4410 Y-112.6546
G01 X146.4447 Y-112.6609
G01 X146.4474 Y-112.6677
G01 X146.4678 Y-112.7371
G01 X146.4690 Y-112.7429
G01 X146.4695 Y-112.7489
G01 X146.4695 Y-113.8770
G01 X146.4661 Y-113.9098
G01 X146.4651 Y-113.9146
G01 X146.4632 Y-113.9204
G01 X146.4605 Y-113.9260
G01 X146.4252 Y-113.9904
G01 X146.4217 Y-113.9952
G01 X146.4185 Y-113.9987
G01 X144.2356 Y-116.1816
G01 X144.2169 Y-116.1977
G01 X144.2078 Y-116.2045
G01 X144.1648 Y-116.2522
G01 X144.1471 Y-116.2701
G01 X144.1313 Y-116.2894
G01 X144.0881 Y-116.3373
G01 X144.0824 Y-116.3471
G01 X144.0706 Y-116.3643
G01 X144.0628 Y-116.3742
G01 X144.0330 Y-116.4326
G01 X143.9988 Y-116.4922
G01 X143.9952 Y-116.5030
G01 X143.9872 Y-116.5222
G01 X143.9816 Y-116.5335
G01 X143.9646 Y-116.5968
G01 X143.9435 Y-116.6622
G01 X143.9420 Y-116.6748
G01 X143.9382 Y-116.6952
G01 X143.9353 Y-116.7062
G01 X143.9320 Y-116.7703
G01 X143.9295 Y-116.7954
G01 X143.9293 Y-116.8207
G01 X143.9260 Y-116.8848
G01 X143.9277 Y-116.8960
G01 X143.9295 Y-116.9206
G01 X143.9295 Y-120.5694
G01 X143.9277 Y-120.5940
G01 X143.9260 Y-120.6052
G01 X143.9293 Y-120.6693
G01 X143.9295 Y-120.6946
G01 X143.9320 Y-120.7197
G01 X143.9353 Y-120.7838
G01 X143.9382 Y-120.7948
G01 X143.9420 Y-120.8152
G01 X143.9435 Y-120.8278
G01 X143.9637 Y-120.8901
G01 X143.9816 Y-120.9565
G01 X143.9867 Y-120.9666
G01 X143.9947 Y-120.9858
G01 X143.9988 Y-120.9978
G01 X144.0330 Y-121.0574
G01 X144.0628 Y-121.1158
G01 X144.0699 Y-121.1246
G01 X144.0817 Y-121.1418
G01 X144.0881 Y-121.1527
G01 X144.1320 Y-121.2014
G01 X144.1471 Y-121.2199
G01 X144.1648 Y-121.2378
G01 X144.2078 Y-121.2855
G01 X144.2169 Y-121.2923
G01 X144.2356 Y-121.3084
G01 X146.6616 Y-123.7344
G01 X146.6777 Y-123.7531
G01 X146.6845 Y-123.7622
G01 X146.7331 Y-123.8061
G01 X146.7501 Y-123.8229
G01 X146.7694 Y-123.8387
G01 X146.8173 Y-123.8819
G01 X146.8271 Y-123.8876
G01 X146.8443 Y-123.8994
G01 X146.8542 Y-123.9072
G01 X146.9126 Y-123.9370
G01 X146.9722 Y-123.9712
G01 X146.9842 Y-123.9753
G01 X147.0034 Y-123.9833
G01 X147.0135 Y-123.9884
G01 X147.0768 Y-124.0054
G01 X147.1422 Y-124.0265
G01 X147.1548 Y-124.0280
G01 X147.1752 Y-124.0318
G01 X147.1862 Y-124.0347
G01 X147.2503 Y-124.0380
G01 X147.2754 Y-124.0405
G01 X147.3007 Y-124.0407
G01 X147.3648 Y-124.0440
G01 X147.3760 Y-124.0423
G01 X147.4006 Y-124.0405
G01 X202.1392 Y-124.0405
G01 X202.1722 Y-124.0438
G01 X202.1782 Y-124.0449
G01 X202.1840 Y-124.0468
G01 X202.1896 Y-124.0494
G01 X202.2549 Y-124.0854
G01 X202.2623 Y-124.0915
G01 X202.3609 Y-124.1900
G01 X202.5473 Y-124.3206
G01 X202.7535 Y-124.4167
G01 X202.9733 Y-124.4756
G01 X203.2000 Y-124.4955
G01 X203.4267 Y-124.4756
G01 X203.6465 Y-124.4167
G01 X203.8527 Y-124.3206
G01 X204.0391 Y-124.1900
G01 X204.1592 Y-124.0700
G01 X204.1638 Y-124.0662
G01 X204.1962 Y-124.0422
G01 X204.2029 Y-124.0388
G01 X204.2101 Y-124.0365
G01 X204.2808 Y-124.0211
G01 X204.2907 Y-124.0202
G01 X204.2993 Y-124.0210
G01 X204.3065 Y-124.0229
G01 X204.3743 Y-124.0482
G01 X204.3788 Y-124.0503
G01 X204.3842 Y-124.0535
G01 X204.3890 Y-124.0573
G01 X204.3926 Y-124.0608
G01 X204.4376 Y-124.1206
G01 X204.4426 Y-124.1287
G01 X204.4910 Y-124.2579
G01 X204.5685 Y-124.3615
G01 X204.6721 Y-124.4390
G01 X204.7942 Y-124.4846
G01 X204.8449 Y-124.4900
G01 X205.4400 Y-124.4900
G01 X205.4400 Y-124.0900
G01 X204.8863 Y-124.0899
G01 X204.8779 Y-124.0885
G01 X204.8686 Y-124.0852
G01 X204.8612 Y-124.0809
G01 X204.8538 Y-124.0745
G01 X204.8484 Y-124.0678
G01 X204.8438 Y-124.0591
G01 X204.8410 Y-124.0498
G01 X204.8400 Y-124.0400
G01 X204.8400 Y-122.3400
G01 X204.8405 Y-122.3327
G01 X204.8418 Y-122.3267
G01 X204.8448 Y-122.3186
G01 X204.8484 Y-122.3122
G01 X204.8538 Y-122.3055
G01 X204.8592 Y-122.3006
G01 X204.8654 Y-122.2965
G01 X204.8720 Y-122.2934
G01 X204.8802 Y-122.2910
G01 X204.8875 Y-122.2901
G01 X205.4400 Y-122.2900
G01 X205.4400 Y-121.8900
G01 X204.8529 Y-121.8900
G01 X204.8398 Y-121.8895
G01 X204.8313 Y-121.8880
G01 X204.7599 Y-121.8617
G01 X204.7543 Y-121.8590
G01 X204.7491 Y-121.8557
G01 X204.7434 Y-121.8508
G01 X204.7393 Y-121.8462
G01 X204.6959 Y-121.7883
G01 X204.6926 Y-121.7830
G01 X204.6901 Y-121.7774
G01 X204.6882 Y-121.7715
G01 X204.6870 Y-121.7654
G01 X204.6817 Y-121.6920
G01 X204.6823 Y-121.6821
G01 X204.6843 Y-121.6736
G01 X204.6872 Y-121.6668
G01 X204.7219 Y-121.6033
G01 X204.7252 Y-121.5984
G01 X204.7290 Y-121.5938
G01 X206.0413 Y-120.2815
G01 X206.0453 Y-120.2779
G01 X206.0689 Y-120.2591
G01 X206.0752 Y-120.2553
G01 X206.0832 Y-120.2522
G01 X206.1514 Y-120.2322
G01 X206.1572 Y-120.2310
G01 X206.1644 Y-120.2305
G01 X212.0094 Y-120.2305
G01 X212.0340 Y-120.2323
G01 X212.0452 Y-120.2340
G01 X212.1093 Y-120.2307
G01 X212.1346 Y-120.2305
G01 X212.1597 Y-120.2280
G01 X212.2238 Y-120.2247
G01 X212.2348 Y-120.2218
G01 X212.2552 Y-120.2180
G01 X212.2678 Y-120.2165
G01 X212.3332 Y-120.1954
G01 X212.3965 Y-120.1784
G01 X212.4078 Y-120.1728
G01 X212.4270 Y-120.1648
G01 X212.4378 Y-120.1612
G01 X212.4946 Y-120.1285
G01 X212.5558 Y-120.0972
G01 X212.5657 Y-120.0894
G01 X212.5828 Y-120.0776
G01 X212.5927 Y-120.0719
G01 X212.6404 Y-120.0289
G01 X212.6599 Y-120.0129
G01 X212.6778 Y-119.9952
G01 X212.7255 Y-119.9522
G01 X212.7323 Y-119.9431
G01 X212.7484 Y-119.9244
G01 X213.9044 Y-118.7684
G01 X213.9231 Y-118.7523
G01 X213.9322 Y-118.7455
G01 X213.9761 Y-118.6969
G01 X213.9929 Y-118.6799
G01 X214.0087 Y-118.6606
G01 X214.0519 Y-118.6127
G01 X214.0583 Y-118.6017
G01 X214.0701 Y-118.5847
G01 X214.0772 Y-118.5758
G01 X214.1085 Y-118.5146
G01 X214.1413 Y-118.4578
G01 X214.1453 Y-118.4458
G01 X214.1533 Y-118.4266
G01 X214.1584 Y-118.4165
G01 X214.1763 Y-118.3501
G01 X214.1965 Y-118.2878
G01 X214.1978 Y-118.2765
G01 X214.2015 Y-118.2561
G01 X214.2047 Y-118.2438
G01 X214.2080 Y-118.1797
G01 X214.2105 Y-118.1546
G01 X214.2107 Y-118.1293
G01 X214.2140 Y-118.0652
G01 X214.2123 Y-118.0540
G01 X214.2105 Y-118.0294
G01 X214.2105 Y-110.2808
G01 X214.2108 Y-110.2754
G01 X214.2144 Y-110.2442
G01 X214.2160 Y-110.2383
G01 X214.2189 Y-110.2315
G01 X214.2529 Y-110.1691
G01 X214.2568 Y-110.1631
G01 X214.2615 Y-110.1577
G01 X214.3184 Y-110.1008
G01 X214.3228 Y-110.0969
G01 X214.3541 Y-110.0735
G01 X214.3595 Y-110.0704
G01 X214.3665 Y-110.0675
G01 X214.4421 Y-110.0509
G01 X214.4520 Y-110.0502
G01 X214.4606 Y-110.0513
G01 X214.4677 Y-110.0533
G01 X214.5355 Y-110.0787
G01 X214.5410 Y-110.0815
G01 X214.5452 Y-110.0842
G01 X214.5499 Y-110.0882
G01 X214.5534 Y-110.0917
G01 X214.5976 Y-110.1506
G01 X214.6026 Y-110.1587
G01 X214.6510 Y-110.2879
G01 X214.7285 Y-110.3915
G01 X214.8321 Y-110.4690
G01 X214.9542 Y-110.5146
G01 X215.0049 Y-110.5200
G01 X215.6000 Y-110.5200
G01 X215.6000 Y-110.1200
G01 X215.0463 Y-110.1199
G01 X215.0379 Y-110.1185
G01 X215.0286 Y-110.1152
G01 X215.0212 Y-110.1109
G01 X215.0138 Y-110.1045
G01 X215.0084 Y-110.0978
G01 X215.0038 Y-110.0891
G01 X215.0010 Y-110.0798
G01 X215.0000 Y-110.0700
G01 X215.0000 Y-108.3700
G01 X215.0005 Y-108.3627
G01 X215.0018 Y-108.3567
G01 X215.0048 Y-108.3486
G01 X215.0084 Y-108.3422
G01 X215.0130 Y-108.3364
G01 X215.0192 Y-108.3306
G01 X215.0264 Y-108.3259
G01 X215.0332 Y-108.3229
G01 X215.0402 Y-108.3210
G01 X215.0475 Y-108.3201
G01 X215.6000 Y-108.3200
G01 X215.6000 Y-107.9200
G01 X215.0048 Y-107.9200
G01 X214.9542 Y-107.9254
G01 X214.8321 Y-107.9710
G01 X214.7285 Y-108.0485
G01 X214.6510 Y-108.1521
G01 X214.6040 Y-108.2781
G01 X214.6015 Y-108.2834
G01 X214.5826 Y-108.3177
G01 X214.5772 Y-108.3246
G01 X214.5716 Y-108.3297
G01 X214.5127 Y-108.3738
G01 X214.5084 Y-108.3763
G01 X214.5028 Y-108.3789
G01 X214.4969 Y-108.3808
G01 X214.4908 Y-108.3820
G01 X214.4174 Y-108.3872
G01 X214.4075 Y-108.3867
G01 X214.3990 Y-108.3847
G01 X214.3922 Y-108.3818
G01 X214.3287 Y-108.3471
G01 X214.3238 Y-108.3438
G01 X214.3192 Y-108.3400
G01 X214.2605 Y-108.2813
G01 X214.2384 Y-108.2537
G01 X214.2353 Y-108.2484
G01 X214.2326 Y-108.2415
G01 X214.2125 Y-108.1733
G01 X214.2112 Y-108.1675
G01 X214.2105 Y-108.1604
G01 X214.2105 Y-108.0306
G01 X214.2123 Y-108.0060
G01 X214.2140 Y-107.9948
G01 X214.2107 Y-107.9307
G01 X214.2105 Y-107.9054
G01 X214.2080 Y-107.8803
G01 X214.2047 Y-107.8162
G01 X214.2015 Y-107.8039
G01 X214.1978 Y-107.7835
G01 X214.1965 Y-107.7722
G01 X214.1754 Y-107.7068
G01 X214.1584 Y-107.6435
G01 X214.1533 Y-107.6334
G01 X214.1453 Y-107.6142
G01 X214.1412 Y-107.6022
G01 X214.1070 Y-107.5426
G01 X214.0772 Y-107.4842
G01 X214.0701 Y-107.4753
G01 X214.0583 Y-107.4582
G01 X214.0519 Y-107.4473
G01 X214.0089 Y-107.3996
G01 X213.9929 Y-107.3801
G01 X213.9761 Y-107.3631
G01 X213.9322 Y-107.3145
G01 X213.9231 Y-107.3077
G01 X213.9044 Y-107.2916
G01 X213.1057 Y-106.4929
G01 X213.1005 Y-106.4864
G01 X213.0706 Y-106.4400
G01 X213.0668 Y-106.4322
G01 X213.0643 Y-106.4238
G01 X213.0635 Y-106.4176
G01 X213.0584 Y-106.3442
G01 X213.0586 Y-106.3393
G01 X213.0596 Y-106.3333
G01 X213.0614 Y-106.3274
G01 X213.0638 Y-106.3217
G01 X213.0986 Y-106.2575
G01 X213.1048 Y-106.2494
G01 X213.2328 Y-106.0667
G01 X213.2527 Y-106.0434
G01 X213.2597 Y-106.0367
G01 X213.2668 Y-106.0320
G01 X213.3314 Y-105.9994
G01 X213.3371 Y-105.9971
G01 X213.3419 Y-105.9958
G01 X213.3493 Y-105.9947
G01 X213.3567 Y-105.9947
G01 X213.4324 Y-106.0028
G01 X213.4418 Y-106.0058
G01 X213.4474 Y-106.0085
G01 X213.4515 Y-106.0112
G01 X213.5081 Y-106.0563
G01 X213.5133 Y-106.0612
G01 X213.5178 Y-106.0667
G01 X213.6453 Y-106.2488
G01 X213.8062 Y-106.4097
G01 X213.9925 Y-106.5401
G01 X214.1987 Y-106.6363
G01 X214.3450 Y-106.6755
G01 X214.3450 Y-106.2574
G01 X214.2995 Y-106.2410
G01 X214.2196 Y-106.2031
G01 X214.1450 Y-106.1583
G01 X214.0750 Y-106.1065
G01 X214.0069 Y-106.0446
G01 X213.9493 Y-105.9810
G01 X213.8974 Y-105.9110
G01 X213.8502 Y-105.8321
G01 X213.8135 Y-105.7544
G01 X213.7838 Y-105.6713
G01 X213.7623 Y-105.5856
G01 X213.7496 Y-105.5007
G01 X213.7450 Y-105.4100
G01 X213.7496 Y-105.3193
G01 X213.7623 Y-105.2344
G01 X213.7838 Y-105.1487
G01 X213.8135 Y-105.0656
G01 X213.8502 Y-104.9879
G01 X213.8974 Y-104.9090
G01 X213.9493 Y-104.8390
G01 X214.0069 Y-104.7754
G01 X214.0750 Y-104.7135
G01 X214.1450 Y-104.6617
G01 X214.2197 Y-104.6169
G01 X214.2995 Y-104.5790
G01 X214.3450 Y-104.5626
G01 X214.3450 Y-104.1445
G01 X214.1987 Y-104.1837
G01 X213.9925 Y-104.2799
G01 X213.8062 Y-104.4103
G01 X213.6453 Y-104.5712
G01 X213.5178 Y-104.7533
G01 X213.4963 Y-104.7784
G01 X213.4899 Y-104.7841
G01 X213.4827 Y-104.7885
G01 X213.4192 Y-104.8206
G01 X213.4123 Y-104.8233
G01 X213.4050 Y-104.8249
G01 X213.3989 Y-104.8254
G01 X213.3939 Y-104.8253
G01 X213.3232 Y-104.8180
G01 X213.3158 Y-104.8166
G01 X213.3099 Y-104.8147
G01 X213.3032 Y-104.8115
G01 X213.2981 Y-104.8080
G01 X213.2425 Y-104.7637
G01 X213.2373 Y-104.7588
G01 X213.2328 Y-104.7533
G01 X213.1050 Y-104.5709
G01 X213.0055 Y-104.4713
G01 X212.9841 Y-104.4447
G01 X212.9803 Y-104.4384
G01 X212.9772 Y-104.4304
G01 X212.9572 Y-104.3622
G01 X212.9562 Y-104.3575
G01 X212.9556 Y-104.3516
G01 X212.9555 Y-102.6458
G01 X212.9588 Y-102.6128
G01 X212.9606 Y-102.6045
G01 X212.9639 Y-102.5965
G01 X212.9979 Y-102.5341
G01 X213.0018 Y-102.5281
G01 X213.0065 Y-102.5227
G01 X213.0900 Y-102.4391
G01 X213.2178 Y-102.2567
G01 X213.2385 Y-102.2325
G01 X213.2457 Y-102.2259
G01 X213.2529 Y-102.2215
G01 X213.3164 Y-102.1894
G01 X213.3233 Y-102.1867
G01 X213.3293 Y-102.1853
G01 X213.3355 Y-102.1846
G01 X213.3417 Y-102.1847
G01 X213.4137 Y-102.1922
G01 X213.4233 Y-102.1944
G01 X213.4324 Y-102.1985
G01 X213.4385 Y-102.2027
G01 X213.4931 Y-102.2463
G01 X213.4991 Y-102.2521
G01 X213.5028 Y-102.2567
G01 X213.6303 Y-102.4388
G01 X213.7912 Y-102.5997
G01 X213.9775 Y-102.7301
G01 X214.1837 Y-102.8263
G01 X214.3300 Y-102.8655
G01 X214.3300 Y-102.4474
G01 X214.2845 Y-102.4310
G01 X214.2046 Y-102.3931
G01 X214.1300 Y-102.3483
G01 X214.0600 Y-102.2965
G01 X213.9919 Y-102.2346
G01 X213.9343 Y-102.1710
G01 X213.8824 Y-102.1010
G01 X213.8352 Y-102.0221
G01 X213.7985 Y-101.9444
G01 X213.7688 Y-101.8613
G01 X213.7473 Y-101.7756
G01 X213.7346 Y-101.6907
G01 X213.7300 Y-101.6000
G01 X213.7346 Y-101.5093
G01 X213.7473 Y-101.4244
G01 X213.7688 Y-101.3387
G01 X213.7985 Y-101.2556
G01 X213.8352 Y-101.1779
G01 X213.8824 Y-101.0990
G01 X213.9343 Y-101.0290
G01 X213.9919 Y-100.9654
G01 X214.0600 Y-100.9035
G01 X214.1300 Y-100.8517
G01 X214.2047 Y-100.8069
G01 X214.2845 Y-100.7690
G01 X214.3300 Y-100.7526
G01 X214.3300 Y-100.3345
G01 X214.1837 Y-100.3737
G01 X213.9775 Y-100.4699
G01 X213.7912 Y-100.6003
G01 X213.6303 Y-100.7612
G01 X213.5028 Y-100.9433
G01 X213.4813 Y-100.9684
G01 X213.4749 Y-100.9741
G01 X213.4677 Y-100.9785
G01 X213.4042 Y-101.0106
G01 X213.3985 Y-101.0129
G01 X213.3913 Y-101.0147
G01 X213.3839 Y-101.0154
G01 X213.3777 Y-101.0151
G01 X213.3069 Y-101.0078
G01 X213.3008 Y-101.0066
G01 X213.2949 Y-101.0047
G01 X213.2882 Y-101.0015
G01 X213.2831 Y-100.9980
G01 X213.2275 Y-100.9537
G01 X213.2223 Y-100.9488
G01 X213.2178 Y-100.9433
G01 X213.0900 Y-100.7609
G01 X213.0055 Y-100.6763
G01 X212.9841 Y-100.6497
G01 X212.9803 Y-100.6434
G01 X212.9772 Y-100.6354
G01 X212.9572 Y-100.5672
G01 X212.9559 Y-100.5602
G01 X212.9555 Y-100.5542
G01 X212.9555 Y-98.8508
G01 X212.9588 Y-98.8178
G01 X212.9606 Y-98.8095
G01 X212.9639 Y-98.8015
G01 X212.9979 Y-98.7391
G01 X213.0018 Y-98.7331
G01 X213.0065 Y-98.7277
G01 X213.1050 Y-98.6291
G01 X213.2328 Y-98.4467
G01 X213.2535 Y-98.4225
G01 X213.2607 Y-98.4159
G01 X213.2679 Y-98.4115
G01 X213.3314 Y-98.3794
G01 X213.3383 Y-98.3767
G01 X213.3443 Y-98.3753
G01 X213.3505 Y-98.3746
G01 X213.3567 Y-98.3747
G01 X213.4287 Y-98.3822
G01 X213.4383 Y-98.3844
G01 X213.4474 Y-98.3885
G01 X213.4535 Y-98.3927
G01 X213.5081 Y-98.4363
G01 X213.5141 Y-98.4421
G01 X213.5178 Y-98.4467
G01 X213.6453 Y-98.6288
G01 X213.8062 Y-98.7897
G01 X213.9925 Y-98.9201
G01 X214.1987 Y-99.0163
G01 X214.3450 Y-99.0555
G01 X214.3450 Y-98.6374
G01 X214.2995 Y-98.6210
G01 X214.2196 Y-98.5831
G01 X214.1450 Y-98.5383
G01 X214.0750 Y-98.4865
G01 X214.0069 Y-98.4246
G01 X213.9493 Y-98.3610
G01 X213.8974 Y-98.2910
G01 X213.8502 Y-98.2121
G01 X213.8135 Y-98.1344
G01 X213.7838 Y-98.0513
G01 X213.7623 Y-97.9656
G01 X213.7496 Y-97.8807
G01 X213.7450 Y-97.7900
G01 X213.7496 Y-97.6993
G01 X213.7623 Y-97.6144
G01 X213.7838 Y-97.5287
G01 X213.8135 Y-97.4456
G01 X213.8502 Y-97.3679
G01 X213.8974 Y-97.2890
G01 X213.9493 Y-97.2190
G01 X214.0069 Y-97.1554
G01 X214.0750 Y-97.0935
G01 X214.1450 Y-97.0417
G01 X214.2197 Y-96.9969
G01 X214.2995 Y-96.9590
G01 X214.3450 Y-96.9426
G01 X214.3450 Y-96.5245
G01 X214.1987 Y-96.5637
G01 X213.9925 Y-96.6599
G01 X213.8062 Y-96.7903
G01 X213.6453 Y-96.9512
G01 X213.5178 Y-97.1333
G01 X213.4963 Y-97.1584
G01 X213.4899 Y-97.1641
G01 X213.4827 Y-97.1685
G01 X213.4192 Y-97.2006
G01 X213.4123 Y-97.2033
G01 X213.4050 Y-97.2049
G01 X213.3989 Y-97.2054
G01 X213.3939 Y-97.2053
G01 X213.3232 Y-97.1980
G01 X213.3158 Y-97.1966
G01 X213.3099 Y-97.1947
G01 X213.3032 Y-97.1915
G01 X213.2981 Y-97.1880
G01 X213.2425 Y-97.1437
G01 X213.2373 Y-97.1388
G01 X213.2328 Y-97.1333
G01 X213.1050 Y-96.9509
G01 X213.0055 Y-96.8513
G01 X212.9841 Y-96.8247
G01 X212.9803 Y-96.8184
G01 X212.9772 Y-96.8104
G01 X212.9572 Y-96.7422
G01 X212.9559 Y-96.7352
G01 X212.9555 Y-96.7292
G01 X212.9555 Y-95.0408
G01 X212.9588 Y-95.0078
G01 X212.9606 Y-94.9995
G01 X212.9639 Y-94.9915
G01 X212.9979 Y-94.9291
G01 X213.0018 Y-94.9231
G01 X213.0065 Y-94.9177
G01 X213.1050 Y-94.8191
G01 X213.2328 Y-94.6367
G01 X213.2543 Y-94.6116
G01 X213.2607 Y-94.6059
G01 X213.2679 Y-94.6015
G01 X213.3314 Y-94.5694
G01 X213.3383 Y-94.5667
G01 X213.3443 Y-94.5653
G01 X213.3505 Y-94.5646
G01 X213.3567 Y-94.5647
G01 X213.4287 Y-94.5722
G01 X213.4383 Y-94.5744
G01 X213.4474 Y-94.5785
G01 X213.4535 Y-94.5827
G01 X213.5081 Y-94.6263
G01 X213.5141 Y-94.6321
G01 X213.5178 Y-94.6367
G01 X213.6453 Y-94.8188
G01 X213.8062 Y-94.9797
G01 X213.9925 Y-95.1101
G01 X214.1987 Y-95.2063
G01 X214.3450 Y-95.2455
G01 X214.3450 Y-94.8274
G01 X214.2995 Y-94.8110
G01 X214.2196 Y-94.7731
G01 X214.1450 Y-94.7283
G01 X214.0750 Y-94.6765
G01 X214.0069 Y-94.6146
G01 X213.9493 Y-94.5510
G01 X213.8974 Y-94.4810
G01 X213.8502 Y-94.4021
G01 X213.8135 Y-94.3244
G01 X213.7838 Y-94.2413
G01 X213.7623 Y-94.1556
G01 X213.7496 Y-94.0707
G01 X213.7450 Y-93.9800
G01 X213.7496 Y-93.8893
G01 X213.7623 Y-93.8044
G01 X213.7838 Y-93.7187
G01 X213.8135 Y-93.6356
G01 X213.8502 Y-93.5579
G01 X213.8974 Y-93.4790
G01 X213.9493 Y-93.4090
G01 X214.0069 Y-93.3454
G01 X214.0750 Y-93.2835
G01 X214.1450 Y-93.2317
G01 X214.2197 Y-93.1869
G01 X214.2995 Y-93.1490
G01 X214.3450 Y-93.1326
G01 X214.3450 Y-92.7145
G01 X214.1987 Y-92.7537
G01 X213.9925 Y-92.8499
G01 X213.8062 Y-92.9803
G01 X213.6453 Y-93.1412
G01 X213.5178 Y-93.3233
G01 X213.4963 Y-93.3484
G01 X213.4899 Y-93.3541
G01 X213.4827 Y-93.3585
G01 X213.4192 Y-93.3906
G01 X213.4123 Y-93.3933
G01 X213.4050 Y-93.3949
G01 X213.3989 Y-93.3954
G01 X213.3939 Y-93.3953
G01 X213.3232 Y-93.3880
G01 X213.3158 Y-93.3866
G01 X213.3099 Y-93.3847
G01 X213.3032 Y-93.3815
G01 X213.2981 Y-93.3780
G01 X213.2425 Y-93.3337
G01 X213.2373 Y-93.3288
G01 X213.2328 Y-93.3233
G01 X213.1050 Y-93.1409
G01 X213.0055 Y-93.0413
G01 X212.9841 Y-93.0147
G01 X212.9803 Y-93.0084
G01 X212.9772 Y-93.0004
G01 X212.9572 Y-92.9322
G01 X212.9559 Y-92.9252
G01 X212.9555 Y-92.9192
G01 X212.9555 Y-91.2158
G01 X212.9588 Y-91.1828
G01 X212.9606 Y-91.1745
G01 X212.9639 Y-91.1665
G01 X212.9979 Y-91.1041
G01 X213.0018 Y-91.0981
G01 X213.0065 Y-91.0927
G01 X213.0900 Y-91.0091
G01 X213.2178 Y-90.8267
G01 X213.2385 Y-90.8025
G01 X213.2447 Y-90.7967
G01 X213.2529 Y-90.7915
G01 X213.3164 Y-90.7594
G01 X213.3221 Y-90.7571
G01 X213.3293 Y-90.7553
G01 X213.3355 Y-90.7546
G01 X213.3417 Y-90.7547
G01 X213.4137 Y-90.7622
G01 X213.4233 Y-90.7644
G01 X213.4324 Y-90.7685
G01 X213.4385 Y-90.7727
G01 X213.4931 Y-90.8163
G01 X213.4991 Y-90.8221
G01 X213.5028 Y-90.8267
G01 X213.6303 Y-91.0088
G01 X213.7912 Y-91.1697
G01 X213.9775 Y-91.3001
G01 X214.1837 Y-91.3963
G01 X214.3300 Y-91.4355
G01 X214.3300 Y-91.0174
G01 X214.2845 Y-91.0010
G01 X214.2046 Y-90.9631
G01 X214.1300 Y-90.9183
G01 X214.0600 Y-90.8665
G01 X213.9919 Y-90.8046
G01 X213.9343 Y-90.7410
G01 X213.8824 Y-90.6710
G01 X213.8352 Y-90.5921
G01 X213.7985 Y-90.5144
G01 X213.7688 Y-90.4313
G01 X213.7473 Y-90.3456
G01 X213.7346 Y-90.2607
G01 X213.7300 Y-90.1700
G01 X213.7346 Y-90.0793
G01 X213.7473 Y-89.9944
G01 X213.7688 Y-89.9087
G01 X213.7985 Y-89.8256
G01 X213.8352 Y-89.7479
G01 X213.8824 Y-89.6690
G01 X213.9343 Y-89.5990
G01 X213.9919 Y-89.5354
G01 X214.0600 Y-89.4735
G01 X214.1300 Y-89.4217
G01 X214.2047 Y-89.3769
G01 X214.2845 Y-89.3390
G01 X214.3300 Y-89.3226
G01 X214.3300 Y-88.4774
G01 X214.2845 Y-88.4610
G01 X214.2046 Y-88.4231
G01 X214.1300 Y-88.3783
G01 X214.0600 Y-88.3265
G01 X213.9919 Y-88.2646
G01 X213.9343 Y-88.2010
G01 X213.8824 Y-88.1310
G01 X213.8352 Y-88.0521
G01 X213.7985 Y-87.9744
G01 X213.7688 Y-87.8913
G01 X213.7473 Y-87.8056
G01 X213.7346 Y-87.7207
G01 X213.7300 Y-87.6300
G01 X213.7346 Y-87.5393
G01 X213.7473 Y-87.4544
G01 X213.7688 Y-87.3687
G01 X213.7985 Y-87.2856
G01 X213.8352 Y-87.2079
G01 X213.8824 Y-87.1290
G01 X213.9343 Y-87.0590
G01 X213.9919 Y-86.9954
G01 X214.0600 Y-86.9335
G01 X214.1300 Y-86.8817
G01 X214.2047 Y-86.8369
G01 X214.2845 Y-86.7990
G01 X214.3300 Y-86.7826
G01 X214.3300 Y-86.3645
G01 X214.1837 Y-86.4037
G01 X213.9775 Y-86.4999
G01 X213.7912 Y-86.6303
G01 X213.6303 Y-86.7912
G01 X213.5021 Y-86.9743
G01 X213.4813 Y-86.9984
G01 X213.4759 Y-87.0033
G01 X213.4699 Y-87.0074
G01 X213.4042 Y-87.0406
G01 X213.3985 Y-87.0429
G01 X213.3925 Y-87.0445
G01 X213.3863 Y-87.0453
G01 X213.3789 Y-87.0453
G01 X213.3082 Y-87.0380
G01 X213.3020 Y-87.0369
G01 X213.2961 Y-87.0352
G01 X213.2904 Y-87.0327
G01 X213.2851 Y-87.0295
G01 X213.2275 Y-86.9837
G01 X213.2223 Y-86.9788
G01 X213.2178 Y-86.9733
G01 X213.0900 Y-86.7909
G01 X213.0055 Y-86.7063
G01 X212.9841 Y-86.6797
G01 X212.9803 Y-86.6734
G01 X212.9776 Y-86.6665
G01 X212.9575 Y-86.5983
G01 X212.9559 Y-86.5902
G01 X212.9555 Y-86.5842
G01 X212.9555 Y-84.8758
G01 X212.9588 Y-84.8428
G01 X212.9599 Y-84.8368
G01 X212.9618 Y-84.8310
G01 X212.9645 Y-84.8254
G01 X212.9979 Y-84.7641
G01 X213.0011 Y-84.7591
G01 X213.0065 Y-84.7527
G01 X213.1050 Y-84.6541
G01 X213.2335 Y-84.4707
G01 X213.2551 Y-84.4457
G01 X213.2607 Y-84.4409
G01 X213.2679 Y-84.4365
G01 X213.3314 Y-84.4044
G01 X213.3371 Y-84.4021
G01 X213.3419 Y-84.4008
G01 X213.3493 Y-84.3997
G01 X213.3567 Y-84.3997
G01 X213.4299 Y-84.4074
G01 X213.4360 Y-84.4087
G01 X213.4418 Y-84.4108
G01 X213.4474 Y-84.4135
G01 X213.4515 Y-84.4162
G01 X213.5081 Y-84.4613
G01 X213.5133 Y-84.4662
G01 X213.5178 Y-84.4717
G01 X213.6453 Y-84.6538
G01 X213.8062 Y-84.8147
G01 X213.9925 Y-84.9451
G01 X214.1987 Y-85.0413
G01 X214.3450 Y-85.0805
G01 X214.3450 Y-84.6624
G01 X214.2995 Y-84.6460
G01 X214.2196 Y-84.6081
G01 X214.1450 Y-84.5633
G01 X214.0750 Y-84.5115
G01 X214.0069 Y-84.4496
G01 X213.9493 Y-84.3860
G01 X213.8974 Y-84.3160
G01 X213.8502 Y-84.2371
G01 X213.8135 Y-84.1594
G01 X213.7838 Y-84.0763
G01 X213.7623 Y-83.9906
G01 X213.7496 Y-83.9057
G01 X213.7450 Y-83.8150
G01 X213.7496 Y-83.7243
G01 X213.7623 Y-83.6394
G01 X213.7838 Y-83.5537
G01 X213.8135 Y-83.4706
G01 X213.8502 Y-83.3929
G01 X213.8974 Y-83.3140
G01 X213.9493 Y-83.2440
G01 X214.0069 Y-83.1804
G01 X214.0750 Y-83.1185
G01 X214.1450 Y-83.0667
G01 X214.2197 Y-83.0219
G01 X214.2995 Y-82.9840
G01 X214.3450 Y-82.9676
G01 X214.3450 Y-82.1224
G01 X214.2995 Y-82.1060
G01 X214.2196 Y-82.0681
G01 X214.1450 Y-82.0233
G01 X214.0750 Y-81.9715
G01 X214.0069 Y-81.9096
G01 X213.9493 Y-81.8460
G01 X213.8974 Y-81.7760
G01 X213.8502 Y-81.6971
G01 X213.8135 Y-81.6194
G01 X213.7838 Y-81.5363
G01 X213.7623 Y-81.4506
G01 X213.7496 Y-81.3657
G01 X213.7450 Y-81.2750
G01 X213.7496 Y-81.1843
G01 X213.7623 Y-81.0994
G01 X213.7838 Y-81.0137
G01 X213.8135 Y-80.9306
G01 X213.8502 Y-80.8529
G01 X213.8974 Y-80.7740
G01 X213.9493 Y-80.7040
G01 X214.0069 Y-80.6404
G01 X214.0750 Y-80.5785
G01 X214.1450 Y-80.5267
G01 X214.2197 Y-80.4819
G01 X214.2995 Y-80.4440
G01 X214.3450 Y-80.4276
G01 X214.3450 Y-80.0095
G01 X214.1987 Y-80.0487
G01 X213.9925 Y-80.1449
G01 X213.8062 Y-80.2753
G01 X213.6453 Y-80.4362
G01 X213.5178 Y-80.6183
G01 X213.4963 Y-80.6434
G01 X213.4899 Y-80.6491
G01 X213.4838 Y-80.6530
G01 X213.4192 Y-80.6856
G01 X213.4099 Y-80.6889
G01 X213.4001 Y-80.6904
G01 X213.3927 Y-80.6901
G01 X213.3219 Y-80.6828
G01 X213.3158 Y-80.6816
G01 X213.3099 Y-80.6797
G01 X213.3032 Y-80.6765
G01 X213.2981 Y-80.6730
G01 X213.2416 Y-80.6279
G01 X213.2373 Y-80.6238
G01 X213.2328 Y-80.6183
G01 X213.1050 Y-80.4359
G01 X212.9441 Y-80.2750
G01 X212.7577 Y-80.1444
G01 X212.5515 Y-80.0483
G01 X212.3317 Y-79.9894
G01 X212.1050 Y-79.9695
G01 X211.8783 Y-79.9894
G01 X211.6585 Y-80.0483
G01 X211.4523 Y-80.1444
G01 X211.2659 Y-80.2750
G01 X211.1462 Y-80.3946
G01 X211.1416 Y-80.3985
G01 X211.1092 Y-80.4224
G01 X211.1025 Y-80.4258
G01 X211.0953 Y-80.4282
G01 X211.0258 Y-80.4433
G01 X211.0184 Y-80.4443
G01 X211.0085 Y-80.4440
G01 X211.0000 Y-80.4421
G01 X210.9311 Y-80.4164
G01 X210.9254 Y-80.4138
G01 X210.9202 Y-80.4104
G01 X210.9154 Y-80.4065
G01 X210.9112 Y-80.4019
G01 X210.8678 Y-80.3440
G01 X210.8628 Y-80.3359
G01 X210.8145 Y-80.2069
G01 X210.7368 Y-80.1032
G01 X210.6331 Y-80.0255
G01 X210.5109 Y-79.9800
G01 X210.4602 Y-79.9745
G01 X208.6698 Y-79.9745
G01 X208.6191 Y-79.9800
G01 X208.4969 Y-80.0255
G01 X208.3932 Y-80.1032
G01 X208.3155 Y-80.2069
G01 X208.2759 Y-80.3130
G01 X208.2704 Y-80.3256
G01 X208.2672 Y-80.3309
G01 X208.2641 Y-80.3348
G01 X208.2176 Y-80.3885
G01 X208.2122 Y-80.3936
G01 X208.2071 Y-80.3972
G01 X208.2017 Y-80.4002
G01 X208.1959 Y-80.4024
G01 X208.1276 Y-80.4225
G01 X208.1207 Y-80.4240
G01 X208.1136 Y-80.4245
G01 X205.8256 Y-80.4245
G01 X205.8010 Y-80.4227
G01 X205.7898 Y-80.4210
G01 X205.7257 Y-80.4243
G01 X205.7004 Y-80.4245
G01 X205.6753 Y-80.4270
G01 X205.6112 Y-80.4303
G01 X205.6002 Y-80.4332
G01 X205.5798 Y-80.4370
G01 X205.5672 Y-80.4385
G01 X205.5049 Y-80.4587
G01 X205.4385 Y-80.4766
G01 X205.4284 Y-80.4817
G01 X205.4092 Y-80.4897
G01 X205.3972 Y-80.4937
G01 X205.3404 Y-80.5265
G01 X205.2792 Y-80.5578
G01 X205.2703 Y-80.5649
G01 X205.2533 Y-80.5767
G01 X205.2423 Y-80.5831
G01 X205.1946 Y-80.6261
G01 X205.1751 Y-80.6421
G01 X205.1581 Y-80.6589
G01 X205.1095 Y-80.7028
G01 X205.1027 Y-80.7119
G01 X205.0866 Y-80.7306
G01 X199.1604 Y-86.6568
G01 X199.1539 Y-86.6623
G01 X199.1155 Y-86.6891
G01 X199.1079 Y-86.6926
G01 X199.0998 Y-86.6949
G01 X199.0284 Y-86.7063
G01 X199.0185 Y-86.7066
G01 X199.0111 Y-86.7056
G01 X199.0040 Y-86.7035
G01 X198.9556 Y-86.6824
G01 X198.9504 Y-86.6813
G01 X198.9446 Y-86.6793
G01 X198.9390 Y-86.6766
G01 X198.9349 Y-86.6740
G01 X198.7476 Y-86.5429
G01 X198.6930 Y-86.5174
G01 X198.6875 Y-86.5144
G01 X198.6814 Y-86.5099
G01 X198.6291 Y-86.4646
G01 X198.6240 Y-86.4592
G01 X198.6192 Y-86.4522
G01 X198.6153 Y-86.4432
G01 X198.5940 Y-86.3728
G01 X198.5926 Y-86.3630
G01 X198.5927 Y-86.3568
G01 X198.5933 Y-86.3518
G01 X198.6148 Y-86.2763
G01 X198.6173 Y-86.2706
G01 X198.6204 Y-86.2653
G01 X198.6234 Y-86.2613
G01 X198.6277 Y-86.2568
G01 X198.6811 Y-86.2098
G01 X198.6858 Y-86.2062
G01 X198.6930 Y-86.2020
G01 X198.7474 Y-86.1767
G01 X198.9266 Y-86.0512
G01 X199.0812 Y-85.8966
G01 X199.2067 Y-85.7174
G01 X199.2991 Y-85.5192
G01 X199.3337 Y-85.3900
G01 X198.9144 Y-85.3900
G01 X198.9048 Y-85.4164
G01 X198.8690 Y-85.4918
G01 X198.8267 Y-85.5622
G01 X198.7778 Y-85.6283
G01 X198.7193 Y-85.6927
G01 X198.6592 Y-85.7471
G01 X198.5932 Y-85.7961
G01 X198.5185 Y-85.8407
G01 X198.4453 Y-85.8753
G01 X198.3667 Y-85.9034
G01 X198.2834 Y-85.9241
G01 X198.2033 Y-85.9359
G01 X198.1200 Y-85.9400
G01 X198.0367 Y-85.9359
G01 X197.9566 Y-85.9241
G01 X197.8733 Y-85.9034
G01 X197.7947 Y-85.8753
G01 X197.7215 Y-85.8407
G01 X197.6468 Y-85.7961
G01 X197.5808 Y-85.7471
G01 X197.5207 Y-85.6927
G01 X197.4622 Y-85.6283
G01 X197.4133 Y-85.5622
G01 X197.3710 Y-85.4918
G01 X197.3352 Y-85.4164
G01 X197.3256 Y-85.3900
G01 X196.9063 Y-85.3900
G01 X196.9409 Y-85.5192
G01 X197.0333 Y-85.7174
G01 X197.1588 Y-85.8966
G01 X197.3134 Y-86.0512
G01 X197.4926 Y-86.1767
G01 X197.5470 Y-86.2020
G01 X197.5546 Y-86.2064
G01 X197.6118 Y-86.2557
G01 X197.6152 Y-86.2593
G01 X197.6189 Y-86.2641
G01 X197.6219 Y-86.2694
G01 X197.6243 Y-86.2751
G01 X197.6457 Y-86.3455
G01 X197.6469 Y-86.3515
G01 X197.6475 Y-86.3590
G01 X197.6470 Y-86.3652
G01 X197.6459 Y-86.3712
G01 X197.6257 Y-86.4420
G01 X197.6238 Y-86.4466
G01 X197.6209 Y-86.4521
G01 X197.6181 Y-86.4562
G01 X197.6140 Y-86.4609
G01 X197.5589 Y-86.5096
G01 X197.5542 Y-86.5133
G01 X197.5470 Y-86.5174
G01 X197.4924 Y-86.5429
G01 X197.3131 Y-86.6684
G01 X197.1584 Y-86.8231
G01 X197.0329 Y-87.0024
G01 X196.9404 Y-87.2007
G01 X196.8838 Y-87.4120
G01 X196.8647 Y-87.6300
G01 X196.8838 Y-87.8480
G01 X196.9404 Y-88.0593
G01 X197.0329 Y-88.2576
G01 X197.1584 Y-88.4369
G01 X197.3131 Y-88.5916
G01 X197.4924 Y-88.7171
G01 X197.5464 Y-88.7423
G01 X197.5540 Y-88.7467
G01 X197.5580 Y-88.7498
G01 X197.6129 Y-88.7977
G01 X197.6161 Y-88.8014
G01 X197.6196 Y-88.8065
G01 X197.6219 Y-88.8108
G01 X197.6241 Y-88.8165
G01 X197.6451 Y-88.8857
G01 X197.6465 Y-88.8930
G01 X197.6469 Y-88.8992
G01 X197.6465 Y-88.9054
G01 X197.6453 Y-88.9115
G01 X197.6251 Y-88.9823
G01 X197.6232 Y-88.9869
G01 X197.6203 Y-88.9924
G01 X197.6167 Y-88.9975
G01 X197.6135 Y-89.0012
G01 X197.5583 Y-89.0499
G01 X197.5536 Y-89.0536
G01 X197.5464 Y-89.0577
G01 X197.4924 Y-89.0829
G01 X197.3131 Y-89.2084
G01 X197.1584 Y-89.3631
G01 X197.0329 Y-89.5424
G01 X196.9404 Y-89.7407
G01 X196.8838 Y-89.9520
G01 X196.8647 Y-90.1700
G01 X196.8838 Y-90.3880
G01 X196.9404 Y-90.5993
G01 X197.0329 Y-90.7976
G01 X197.1584 Y-90.9769
G01 X197.3131 Y-91.1316
G01 X197.4924 Y-91.2571
G01 X197.5464 Y-91.2823
G01 X197.5540 Y-91.2867
G01 X197.5580 Y-91.2898
G01 X197.6129 Y-91.3377
G01 X197.6161 Y-91.3414
G01 X197.6196 Y-91.3465
G01 X197.6224 Y-91.3519
G01 X197.6241 Y-91.3565
G01 X197.6451 Y-91.4257
G01 X197.6465 Y-91.4330
G01 X197.6469 Y-91.4392
G01 X197.6465 Y-91.4454
G01 X197.6453 Y-91.4515
G01 X197.6251 Y-91.5223
G01 X197.6227 Y-91.5280
G01 X197.6203 Y-91.5324
G01 X197.6167 Y-91.5375
G01 X197.6135 Y-91.5412
G01 X197.5583 Y-91.5899
G01 X197.5536 Y-91.5936
G01 X197.5464 Y-91.5977
G01 X197.4924 Y-91.6229
G01 X197.3131 Y-91.7484
G01 X197.1584 Y-91.9031
G01 X197.0329 Y-92.0824
G01 X196.9404 Y-92.2807
G01 X196.8838 Y-92.4920
G01 X196.8647 Y-92.7100
G01 X196.8838 Y-92.9280
G01 X196.9404 Y-93.1393
G01 X197.0329 Y-93.3376
G01 X197.1584 Y-93.5169
G01 X197.3131 Y-93.6716
G01 X197.4924 Y-93.7971
G01 X197.5464 Y-93.8223
G01 X197.5540 Y-93.8267
G01 X197.5580 Y-93.8298
G01 X197.6129 Y-93.8777
G01 X197.6161 Y-93.8814
G01 X197.6196 Y-93.8865
G01 X197.6219 Y-93.8908
G01 X197.6241 Y-93.8965
G01 X197.6451 Y-93.9657
G01 X197.6463 Y-93.9718
G01 X197.6469 Y-93.9780
G01 X197.6465 Y-93.9854
G01 X197.6453 Y-93.9915
G01 X197.6254 Y-94.0611
G01 X197.6237 Y-94.0658
G01 X197.6210 Y-94.0713
G01 X197.6183 Y-94.0755
G01 X197.6143 Y-94.0803
G01 X197.5583 Y-94.1299
G01 X197.5536 Y-94.1336
G01 X197.5464 Y-94.1377
G01 X197.4924 Y-94.1629
G01 X197.3131 Y-94.2884
G01 X197.1584 Y-94.4431
G01 X197.0329 Y-94.6224
G01 X196.9404 Y-94.8207
G01 X196.8838 Y-95.0320
G01 X196.8647 Y-95.2500
G01 X196.8838 Y-95.4680
G01 X196.9404 Y-95.6793
G01 X197.0329 Y-95.8776
G01 X197.1584 Y-96.0569
G01 X197.3131 Y-96.2116
G01 X197.4924 Y-96.3371
G01 X197.5464 Y-96.3623
G01 X197.5540 Y-96.3667
G01 X197.5580 Y-96.3698
G01 X197.6129 Y-96.4177
G01 X197.6161 Y-96.4214
G01 X197.6196 Y-96.4265
G01 X197.6224 Y-96.4319
G01 X197.6241 Y-96.4365
G01 X197.6451 Y-96.5057
G01 X197.6463 Y-96.5118
G01 X197.6469 Y-96.5180
G01 X197.6465 Y-96.5254
G01 X197.6453 Y-96.5315
G01 X197.6254 Y-96.6011
G01 X197.6237 Y-96.6058
G01 X197.6210 Y-96.6113
G01 X197.6183 Y-96.6155
G01 X197.6143 Y-96.6203
G01 X197.5583 Y-96.6699
G01 X197.5536 Y-96.6736
G01 X197.5464 Y-96.6777
G01 X197.4924 Y-96.7029
G01 X197.3131 Y-96.8284
G01 X197.1584 Y-96.9831
G01 X197.0329 Y-97.1624
G01 X196.9404 Y-97.3607
G01 X196.8838 Y-97.5720
G01 X196.8647 Y-97.7900
G01 X196.8838 Y-98.0080
G01 X196.9404 Y-98.2193
G01 X197.0329 Y-98.4176
G01 X197.1584 Y-98.5969
G01 X197.3131 Y-98.7516
G01 X197.4924 Y-98.8771
G01 X197.5464 Y-98.9023
G01 X197.5540 Y-98.9067
G01 X197.5580 Y-98.9098
G01 X197.6129 Y-98.9577
G01 X197.6161 Y-98.9614
G01 X197.6196 Y-98.9665
G01 X197.6219 Y-98.9708
G01 X197.6241 Y-98.9765
G01 X197.6451 Y-99.0457
G01 X197.6463 Y-99.0518
G01 X197.6469 Y-99.0580
G01 X197.6465 Y-99.0654
G01 X197.6453 Y-99.0715
G01 X197.6254 Y-99.1411
G01 X197.6237 Y-99.1458
G01 X197.6210 Y-99.1513
G01 X197.6183 Y-99.1555
G01 X197.6143 Y-99.1603
G01 X197.5583 Y-99.2099
G01 X197.5536 Y-99.2136
G01 X197.5464 Y-99.2177
G01 X197.4924 Y-99.2429
G01 X197.3131 Y-99.3684
G01 X197.1584 Y-99.5231
G01 X197.0329 Y-99.7024
G01 X196.9404 Y-99.9007
G01 X196.8838 Y-100.1120
G01 X196.8647 Y-100.3300
G01 X196.8838 Y-100.5480
G01 X196.9404 Y-100.7593
G01 X197.0329 Y-100.9576
G01 X197.1584 Y-101.1369
G01 X197.3131 Y-101.2916
G01 X197.4924 Y-101.4171
G01 X197.5464 Y-101.4423
G01 X197.5540 Y-101.4467
G01 X197.5580 Y-101.4498
G01 X197.6129 Y-101.4977
G01 X197.6161 Y-101.5014
G01 X197.6196 Y-101.5065
G01 X197.6224 Y-101.5119
G01 X197.6241 Y-101.5165
G01 X197.6451 Y-101.5857
G01 X197.6463 Y-101.5918
G01 X197.6469 Y-101.5980
G01 X197.6465 Y-101.6054
G01 X197.6453 Y-101.6115
G01 X197.6254 Y-101.6811
G01 X197.6237 Y-101.6858
G01 X197.6210 Y-101.6913
G01 X197.6183 Y-101.6955
G01 X197.6143 Y-101.7003
G01 X197.5583 Y-101.7499
G01 X197.5536 Y-101.7536
G01 X197.5464 Y-101.7577
G01 X197.4924 Y-101.7829
G01 X197.3131 Y-101.9084
G01 X197.1584 Y-102.0631
G01 X197.0329 Y-102.2424
G01 X196.9404 Y-102.4407
G01 X196.8838 Y-102.6520
G01 X196.8647 Y-102.8700
G01 X196.8838 Y-103.0880
G01 X196.9404 Y-103.2993
G01 X197.0329 Y-103.4976
G01 X197.1584 Y-103.6769
G01 X197.3131 Y-103.8316
G01 X197.4924 Y-103.9571
G01 X197.5464 Y-103.9823
G01 X197.5540 Y-103.9867
G01 X197.5580 Y-103.9898
G01 X197.6129 Y-104.0377
G01 X197.6161 Y-104.0414
G01 X197.6196 Y-104.0465
G01 X197.6224 Y-104.0519
G01 X197.6241 Y-104.0565
G01 X197.6451 Y-104.1257
G01 X197.6463 Y-104.1318
G01 X197.6469 Y-104.1380
G01 X197.6465 Y-104.1454
G01 X197.6453 Y-104.1515
G01 X197.6254 Y-104.2211
G01 X197.6237 Y-104.2258
G01 X197.6210 Y-104.2313
G01 X197.6183 Y-104.2355
G01 X197.6143 Y-104.2403
G01 X197.5583 Y-104.2899
G01 X197.5536 Y-104.2936
G01 X197.5464 Y-104.2977
G01 X197.4924 Y-104.3229
G01 X197.3131 Y-104.4484
G01 X197.1584 Y-104.6031
G01 X197.0329 Y-104.7824
G01 X196.9404 Y-104.9807
G01 X196.8838 Y-105.1920
G01 X196.8647 Y-105.4100
G01 X196.8838 Y-105.6280
G01 X196.9404 Y-105.8393
G01 X197.0329 Y-106.0376
G01 X197.1584 Y-106.2169
G01 X197.3131 Y-106.3716
G01 X197.4924 Y-106.4971
G01 X197.5464 Y-106.5223
G01 X197.5540 Y-106.5267
G01 X197.5580 Y-106.5298
G01 X197.6129 Y-106.5777
G01 X197.6161 Y-106.5814
G01 X197.6196 Y-106.5865
G01 X197.6219 Y-106.5908
G01 X197.6241 Y-106.5965
G01 X197.6451 Y-106.6657
G01 X197.6463 Y-106.6718
G01 X197.6469 Y-106.6780
G01 X197.6465 Y-106.6854
G01 X197.6453 Y-106.6915
G01 X197.6251 Y-106.7623
G01 X197.6227 Y-106.7680
G01 X197.6203 Y-106.7724
G01 X197.6167 Y-106.7775
G01 X197.6126 Y-106.7821
G01 X197.5583 Y-106.8299
G01 X197.5536 Y-106.8336
G01 X197.5464 Y-106.8377
G01 X197.4924 Y-106.8629
G01 X197.3131 Y-106.9884
G01 X197.1584 Y-107.1431
G01 X197.0329 Y-107.3224
G01 X196.9404 Y-107.5207
G01 X196.8838 Y-107.7320
G01 X196.8647 Y-107.9500
G01 X196.8838 Y-108.1680
G01 X196.9404 Y-108.3793
G01 X197.0329 Y-108.5776
G01 X197.1584 Y-108.7569
G01 X197.3131 Y-108.9116
G01 X197.4924 Y-109.0371
G01 X197.5464 Y-109.0623
G01 X197.5540 Y-109.0667
G01 X197.5580 Y-109.0698
G01 X197.6129 Y-109.1177
G01 X197.6161 Y-109.1214
G01 X197.6196 Y-109.1265
G01 X197.6224 Y-109.1319
G01 X197.6241 Y-109.1365
G01 X197.6451 Y-109.2057
G01 X197.6463 Y-109.2118
G01 X197.6469 Y-109.2180
G01 X197.6465 Y-109.2254
G01 X197.6453 Y-109.2315
G01 X197.6251 Y-109.3023
G01 X197.6227 Y-109.3080
G01 X197.6197 Y-109.3134
G01 X197.6160 Y-109.3184
G01 X197.6126 Y-109.3221
G01 X197.5583 Y-109.3699
G01 X197.5536 Y-109.3736
G01 X197.5464 Y-109.3777
G01 X197.4924 Y-109.4029
G01 X197.3131 Y-109.5284
G01 X197.1584 Y-109.6831
G01 X197.0329 Y-109.8624
G01 X196.9468 Y-110.0470
G01 X196.9404 Y-110.0607
G01 X196.8838 Y-110.2720
G01 X196.8647 Y-110.4900
G01 X196.8838 Y-110.7080
G01 X196.9404 Y-110.9193
G01 X197.0329 Y-111.1176
G01 X197.1584 Y-111.2969
G01 X197.3131 Y-111.4516
G01 X197.4924 Y-111.5771
G01 X197.5464 Y-111.6023
G01 X197.5540 Y-111.6067
G01 X197.5580 Y-111.6098
G01 X197.6129 Y-111.6577
G01 X197.6161 Y-111.6614
G01 X197.6196 Y-111.6665
G01 X197.6219 Y-111.6708
G01 X197.6241 Y-111.6765
G01 X197.6451 Y-111.7457
G01 X197.6462 Y-111.7506
G01 X197.6468 Y-111.7568
G01 X197.6466 Y-111.7642
G01 X197.6453 Y-111.7715
G01 X197.6254 Y-111.8411
G01 X197.6232 Y-111.8469
G01 X197.6203 Y-111.8524
G01 X197.6167 Y-111.8575
G01 X197.6126 Y-111.8621
G01 X197.5583 Y-111.9099
G01 X197.5536 Y-111.9136
G01 X197.5464 Y-111.9177
G01 X197.4924 Y-111.9429
G01 X197.3131 Y-112.0684
G01 X197.1584 Y-112.2231
G01 X197.0329 Y-112.4024
G01 X196.9404 Y-112.6007
G01 X196.8838 Y-112.8120
G01 X196.8647 Y-113.0300
G01 X196.8838 Y-113.2480
G01 X196.9404 Y-113.4593
G01 X197.0329 Y-113.6576
G01 X197.1584 Y-113.8369
G01 X197.3131 Y-113.9916
G01 X197.4924 Y-114.1171
G01 X197.6907 Y-114.2096
G01 X197.9020 Y-114.2662
G01 X198.1200 Y-114.2853
G01 X198.3380 Y-114.2662
G01 X198.5493 Y-114.2096
G01 X198.7476 Y-114.1171
G01 X198.9269 Y-113.9916
G01 X198.9880 Y-113.9305
G01 X199.0116 Y-113.9113
G01 X199.0177 Y-113.9071
G01 X199.0232 Y-113.9043
G01 X199.0289 Y-113.9022
G01 X199.0971 Y-113.8822
G01 X199.1065 Y-113.8806
G01 X204.0456 Y-113.8805
G01 X204.0510 Y-113.8808
G01 X204.0798 Y-113.8839
G01 X204.0881 Y-113.8860
G01 X204.0960 Y-113.8895
G01 X204.1583 Y-113.9235
G01 X204.1633 Y-113.9268
G01 X204.1678 Y-113.9306
G01 X205.0966 Y-114.8594
G01 X205.1127 Y-114.8781
G01 X205.1195 Y-114.8872
G01 X205.1681 Y-114.9311
G01 X205.1851 Y-114.9479
G01 X205.2044 Y-114.9637
G01 X205.2523 Y-115.0069
G01 X205.2621 Y-115.0126
G01 X205.2793 Y-115.0244
G01 X205.2892 Y-115.0322
G01 X205.3476 Y-115.0620
G01 X205.4072 Y-115.0962
G01 X205.4192 Y-115.1003
G01 X205.4384 Y-115.1083
G01 X205.4485 Y-115.1134
G01 X205.5118 Y-115.1304
G01 X205.5772 Y-115.1515
G01 X205.5898 Y-115.1530
G01 X205.6102 Y-115.1568
G01 X205.6212 Y-115.1597
G01 X205.6853 Y-115.1630
G01 X205.7104 Y-115.1655
G01 X205.7357 Y-115.1657
G01 X205.7998 Y-115.1690
G01 X205.8110 Y-115.1673
G01 X205.8356 Y-115.1655
G01 X208.4642 Y-115.1655
G01 X208.4972 Y-115.1688
G01 X208.5055 Y-115.1706
G01 X208.5135 Y-115.1739
G01 X208.5759 Y-115.2079
G01 X208.5819 Y-115.2118
G01 X208.5873 Y-115.2165
G01 X208.6859 Y-115.3150
G01 X208.8723 Y-115.4456
G01 X209.0785 Y-115.5417
G01 X209.2983 Y-115.6006
G01 X209.5250 Y-115.6205
G01 X209.7517 Y-115.6006
G01 X209.9715 Y-115.5417
G01 X210.1777 Y-115.4456
G01 X210.3641 Y-115.3150
G01 X210.5250 Y-115.1541
G01 X210.6556 Y-114.9677
G01 X210.7517 Y-114.7615
G01 X210.8106 Y-114.5417
G01 X210.8305 Y-114.3150
G01 X210.8106 Y-114.0883
G01 X210.7517 Y-113.8685
G01 X210.6556 Y-113.6623
G01 X210.5250 Y-113.4759
G01 X210.3641 Y-113.3150
G01 X210.1811 Y-113.1868
G01 X210.1561 Y-113.1652
G01 X210.1514 Y-113.1596
G01 X210.1475 Y-113.1535
G01 X210.1149 Y-113.0889
G01 X210.1115 Y-113.0796
G01 X210.1104 Y-113.0735
G01 X210.1100 Y-113.0686
G01 X210.1103 Y-113.0624
G01 X210.1176 Y-112.9916
G01 X210.1188 Y-112.9855
G01 X210.1207 Y-112.9796
G01 X210.1240 Y-112.9729
G01 X210.1274 Y-112.9678
G01 X210.1725 Y-112.9113
G01 X210.1766 Y-112.9070
G01 X210.1822 Y-112.9025
G01 X210.3641 Y-112.7750
G01 X210.5251 Y-112.6141
G01 X210.6556 Y-112.4277
G01 X210.7517 Y-112.2215
G01 X210.8106 Y-112.0017
G01 X210.8305 Y-111.7750
G01 X210.8106 Y-111.5483
G01 X210.7517 Y-111.3285
G01 X210.6556 Y-111.1223
G01 X210.5250 Y-110.9359
G01 X210.4054 Y-110.8162
G01 X210.4015 Y-110.8116
G01 X210.3776 Y-110.7792
G01 X210.3742 Y-110.7725
G01 X210.3718 Y-110.7653
G01 X210.3567 Y-110.6958
G01 X210.3557 Y-110.6884
G01 X210.3559 Y-110.6797
G01 X210.3579 Y-110.6700
G01 X210.3836 Y-110.6010
G01 X210.3863 Y-110.5954
G01 X210.3896 Y-110.5902
G01 X210.3935 Y-110.5854
G01 X210.3981 Y-110.5812
G01 X210.4560 Y-110.5378
G01 X210.4641 Y-110.5328
G01 X210.5931 Y-110.4845
G01 X210.6968 Y-110.4068
G01 X210.7745 Y-110.3031
G01 X210.8200 Y-110.1809
G01 X210.8255 Y-110.1302
G01 X210.8255 Y-108.3398
G01 X210.8200 Y-108.2891
G01 X210.7745 Y-108.1669
G01 X210.6968 Y-108.0632
G01 X210.5931 Y-107.9855
G01 X210.4709 Y-107.9400
G01 X210.4202 Y-107.9345
G01 X208.6298 Y-107.9345
G01 X208.5791 Y-107.9400
G01 X208.4567 Y-107.9856
G01 X208.4202 Y-108.0058
G01 X208.4156 Y-108.0079
G01 X208.4096 Y-108.0098
G01 X208.4009 Y-108.0112
G01 X208.3300 Y-108.0163
G01 X208.3226 Y-108.0161
G01 X208.3152 Y-108.0148
G01 X208.3105 Y-108.0133
G01 X208.3048 Y-108.0108
G01 X208.2424 Y-107.9767
G01 X208.2364 Y-107.9729
G01 X208.2319 Y-107.9690
G01 X207.6684 Y-107.4056
G01 X207.6523 Y-107.3869
G01 X207.6455 Y-107.3778
G01 X207.5969 Y-107.3339
G01 X207.5799 Y-107.3171
G01 X207.5606 Y-107.3013
G01 X207.5127 Y-107.2581
G01 X207.5018 Y-107.2517
G01 X207.4847 Y-107.2399
G01 X207.4758 Y-107.2328
G01 X207.4174 Y-107.2030
G01 X207.3578 Y-107.1687
G01 X207.3458 Y-107.1647
G01 X207.3266 Y-107.1567
G01 X207.3165 Y-107.1516
G01 X207.2501 Y-107.1337
G01 X207.1878 Y-107.1135
G01 X207.1765 Y-107.1122
G01 X207.1561 Y-107.1085
G01 X207.1438 Y-107.1053
G01 X207.0797 Y-107.1020
G01 X207.0546 Y-107.0995
G01 X207.0293 Y-107.0993
G01 X206.9652 Y-107.0960
G01 X206.9540 Y-107.0977
G01 X206.9294 Y-107.0995
G01 X199.1100 Y-107.0995
G01 X199.1047 Y-107.0992
G01 X199.0759 Y-107.0961
G01 X199.0676 Y-107.0940
G01 X199.0608 Y-107.0911
G01 X198.9943 Y-107.0546
G01 X198.9870 Y-107.0485
G01 X198.9269 Y-106.9884
G01 X198.7476 Y-106.8629
G01 X198.6925 Y-106.8371
G01 X198.6870 Y-106.8340
G01 X198.6820 Y-106.8302
G01 X198.6297 Y-106.7848
G01 X198.6246 Y-106.7795
G01 X198.6204 Y-106.7735
G01 X198.6176 Y-106.7681
G01 X198.6155 Y-106.7623
G01 X198.5949 Y-106.6943
G01 X198.5933 Y-106.6845
G01 X198.5934 Y-106.6758
G01 X198.5947 Y-106.6685
G01 X198.6149 Y-106.5977
G01 X198.6173 Y-106.5920
G01 X198.6203 Y-106.5866
G01 X198.6240 Y-106.5816
G01 X198.6283 Y-106.5771
G01 X198.6817 Y-106.5301
G01 X198.6864 Y-106.5264
G01 X198.6936 Y-106.5223
G01 X198.7476 Y-106.4971
G01 X198.9269 Y-106.3716
G01 X198.9890 Y-106.3096
G01 X199.0146 Y-106.2890
G01 X199.0209 Y-106.2853
G01 X199.0266 Y-106.2830
G01 X199.0971 Y-106.2622
G01 X199.1029 Y-106.2610
G01 X199.1100 Y-106.2605
G01 X208.1136 Y-106.2605
G01 X208.1242 Y-106.2608
G01 X208.1316 Y-106.2617
G01 X208.1387 Y-106.2636
G01 X208.2065 Y-106.2888
G01 X208.2121 Y-106.2915
G01 X208.2173 Y-106.2948
G01 X208.2221 Y-106.2988
G01 X208.2264 Y-106.3033
G01 X208.2698 Y-106.3612
G01 X208.2742 Y-106.3683
G01 X208.2766 Y-106.3737
G01 X208.3155 Y-106.4781
G01 X208.3932 Y-106.5818
G01 X208.4969 Y-106.6595
G01 X208.6191 Y-106.7050
G01 X208.6698 Y-106.7105
G01 X210.4602 Y-106.7105
G01 X210.5109 Y-106.7050
G01 X210.6331 Y-106.6595
G01 X210.7368 Y-106.5818
G01 X210.8145 Y-106.4781
G01 X210.8618 Y-106.3512
G01 X210.8815 Y-106.3149
G01 X210.8842 Y-106.3107
G01 X210.8882 Y-106.3058
G01 X210.8948 Y-106.2999
G01 X210.9517 Y-106.2573
G01 X210.9581 Y-106.2535
G01 X210.9638 Y-106.2510
G01 X210.9697 Y-106.2493
G01 X210.9771 Y-106.2482
G01 X211.0480 Y-106.2431
G01 X211.0579 Y-106.2437
G01 X211.0652 Y-106.2453
G01 X211.0732 Y-106.2486
G01 X211.1356 Y-106.2827
G01 X211.1435 Y-106.2880
G01 X211.2054 Y-106.3497
G01 X211.2260 Y-106.3753
G01 X211.2291 Y-106.3805
G01 X211.2320 Y-106.3873
G01 X211.2528 Y-106.4578
G01 X211.2544 Y-106.4672
G01 X211.2545 Y-106.6157
G01 X211.2527 Y-106.6390
G01 X211.2510 Y-106.6502
G01 X211.2543 Y-106.7143
G01 X211.2545 Y-106.7396
G01 X211.2570 Y-106.7647
G01 X211.2603 Y-106.8288
G01 X211.2632 Y-106.8398
G01 X211.2670 Y-106.8602
G01 X211.2685 Y-106.8728
G01 X211.2896 Y-106.9381
G01 X211.3066 Y-107.0015
G01 X211.3117 Y-107.0116
G01 X211.3197 Y-107.0308
G01 X211.3238 Y-107.0428
G01 X211.3580 Y-107.1024
G01 X211.3878 Y-107.1608
G01 X211.3949 Y-107.1696
G01 X211.4067 Y-107.1868
G01 X211.4131 Y-107.1977
G01 X211.4570 Y-107.2464
G01 X211.4721 Y-107.2649
G01 X211.4898 Y-107.2828
G01 X211.5328 Y-107.3305
G01 X211.5419 Y-107.3373
G01 X211.5606 Y-107.3534
G01 X212.3528 Y-108.1457
G01 X212.3566 Y-108.1505
G01 X212.3816 Y-108.1858
G01 X212.3846 Y-108.1910
G01 X212.3870 Y-108.1965
G01 X212.3895 Y-108.2058
G01 X212.4007 Y-108.2760
G01 X212.4011 Y-108.2821
G01 X212.4008 Y-108.2883
G01 X212.3997 Y-108.2943
G01 X212.3984 Y-108.2990
G01 X212.3689 Y-108.3674
G01 X212.3643 Y-108.3750
G01 X212.2294 Y-108.5673
G01 X212.1333 Y-108.7735
G01 X212.0744 Y-108.9933
G01 X212.0545 Y-109.2200
G01 X212.0744 Y-109.4467
G01 X212.1333 Y-109.6665
G01 X212.2294 Y-109.8727
G01 X212.3600 Y-110.0591
G01 X212.4595 Y-110.1587
G01 X212.4810 Y-110.1853
G01 X212.4847 Y-110.1916
G01 X212.4878 Y-110.1996
G01 X212.5078 Y-110.2678
G01 X212.5088 Y-110.2725
G01 X212.5094 Y-110.2784
G01 X212.5095 Y-117.6856
G01 X212.5062 Y-117.7186
G01 X212.5051 Y-117.7246
G01 X212.5032 Y-117.7304
G01 X212.5005 Y-117.7360
G01 X212.4671 Y-117.7973
G01 X212.4639 Y-117.8023
G01 X212.4585 Y-117.8087
G01 X211.7867 Y-118.4804
G01 X211.7621 Y-118.5002
G01 X211.7569 Y-118.5035
G01 X211.7525 Y-118.5057
G01 X211.7468 Y-118.5078
G01 X211.6797 Y-118.5275
G01 X211.6716 Y-118.5291
G01 X211.6656 Y-118.5295
G01 X205.8206 Y-118.5295
G01 X205.7960 Y-118.5277
G01 X205.7848 Y-118.5260
G01 X205.7207 Y-118.5293
G01 X205.6954 Y-118.5295
G01 X205.6703 Y-118.5320
G01 X205.6062 Y-118.5353
G01 X205.5952 Y-118.5382
G01 X205.5748 Y-118.5420
G01 X205.5622 Y-118.5435
G01 X205.4999 Y-118.5637
G01 X205.4335 Y-118.5816
G01 X205.4234 Y-118.5867
G01 X205.4042 Y-118.5947
G01 X205.3922 Y-118.5987
G01 X205.3354 Y-118.6315
G01 X205.2742 Y-118.6628
G01 X205.2653 Y-118.6699
G01 X205.2483 Y-118.6817
G01 X205.2373 Y-118.6881
G01 X205.1896 Y-118.7311
G01 X205.1701 Y-118.7471
G01 X205.1531 Y-118.7639
G01 X205.1045 Y-118.8078
G01 X205.0977 Y-118.8169
G01 X205.0816 Y-118.8356
G01 X202.6556 Y-121.2616
G01 X202.6369 Y-121.2777
G01 X202.6278 Y-121.2845
G01 X202.5848 Y-121.3322
G01 X202.5671 Y-121.3501
G01 X202.5513 Y-121.3694
G01 X202.5081 Y-121.4173
G01 X202.5024 Y-121.4271
G01 X202.4906 Y-121.4443
G01 X202.4828 Y-121.4542
G01 X202.4530 Y-121.5126
G01 X202.4188 Y-121.5722
G01 X202.4152 Y-121.5830
G01 X202.4072 Y-121.6022
G01 X202.4016 Y-121.6135
G01 X202.3846 Y-121.6768
G01 X202.3635 Y-121.7422
G01 X202.3620 Y-121.7548
G01 X202.3582 Y-121.7752
G01 X202.3553 Y-121.7862
G01 X202.3520 Y-121.8503
G01 X202.3495 Y-121.8754
G01 X202.3493 Y-121.9007
G01 X202.3460 Y-121.9648
G01 X202.3477 Y-121.9760
G01 X202.3495 Y-121.9993
G01 X202.3495 Y-122.1306
G01 X202.3462 Y-122.1622
G01 X202.3444 Y-122.1705
G01 X202.3405 Y-122.1796
G01 X202.3071 Y-122.2409
G01 X202.3017 Y-122.2488
G01 X202.2593 Y-122.2913
G01 X202.2347 Y-122.3109
G01 X202.2295 Y-122.3141
G01 X202.2227 Y-122.3170
G01 X202.1522 Y-122.3378
G01 X202.1464 Y-122.3390
G01 X202.1392 Y-122.3395
G01 X147.7430 Y-122.3395
G01 X147.7102 Y-122.3361
G01 X147.7042 Y-122.3347
G01 X147.6985 Y-122.3327
G01 X147.6317 Y-122.2965
G01 X147.6267 Y-122.2932
G01 X147.6222 Y-122.2894
G01 X145.6815 Y-120.3487
G01 X145.6605 Y-120.3231
G01 X145.6571 Y-120.3180
G01 X145.6543 Y-120.3125
G01 X145.6522 Y-120.3068
G01 X145.6322 Y-120.2386
G01 X145.6309 Y-120.2316
G01 X145.6305 Y-120.2256
G01 X145.6305 Y-117.2644
G01 X145.6338 Y-117.2314
G01 X145.6346 Y-117.2266
G01 X145.6364 Y-117.2207
G01 X145.6395 Y-117.2140
G01 X145.6735 Y-117.1517
G01 X145.6768 Y-117.1467
G01 X145.6815 Y-117.1413
G01 X147.4425 Y-115.3803
G01 X147.4530 Y-115.3706
G01 X147.4581 Y-115.3671
G01 X147.4624 Y-115.3647
G01 X147.5282 Y-115.3346
G01 X147.5341 Y-115.3326
G01 X147.5414 Y-115.3310
G01 X147.5475 Y-115.3306
G01 X147.5537 Y-115.3310
G01 X147.6266 Y-115.3415
G01 X147.6326 Y-115.3431
G01 X147.6383 Y-115.3453
G01 X147.6438 Y-115.3483
G01 X147.6488 Y-115.3520
G01 X147.7035 Y-115.3994
G01 X147.7078 Y-115.4038
G01 X147.7122 Y-115.4098
G01 X147.7152 Y-115.4153
G01 X147.7174 Y-115.4210
G01 X147.7375 Y-115.4893
G01 X147.7390 Y-115.4962
G01 X147.7395 Y-115.5034
G01 X147.7393 Y-116.6233
G01 X147.7361 Y-116.6534
G01 X147.7351 Y-116.6582
G01 X147.7332 Y-116.6640
G01 X147.7306 Y-116.6696
G01 X147.6946 Y-116.7349
G01 X147.6885 Y-116.7423
G01 X147.5900 Y-116.8409
G01 X147.4594 Y-117.0273
G01 X147.3633 Y-117.2335
G01 X147.3044 Y-117.4533
G01 X147.2845 Y-117.6800
G01 X147.3044 Y-117.9067
G01 X147.3633 Y-118.1265
G01 X147.4594 Y-118.3327
G01 X147.5900 Y-118.5191
G01 X147.7509 Y-118.6800
G01 X147.9373 Y-118.8106
G01 X148.1435 Y-118.9067
G01 X148.3633 Y-118.9656
G01 X148.5900 Y-118.9855
G01 X148.8167 Y-118.9656
G01 X149.0365 Y-118.9067
G01 X149.2427 Y-118.8106
G01 X149.4291 Y-118.6800
G01 X149.5901 Y-118.5191
G01 X149.7182 Y-118.3361
G01 X149.7398 Y-118.3111
G01 X149.7454 Y-118.3064
G01 X149.7515 Y-118.3025
G01 X149.8161 Y-118.2699
G01 X149.8218 Y-118.2675
G01 X149.8278 Y-118.2660
G01 X149.8340 Y-118.2651
G01 X149.8389 Y-118.2650
G01 X149.9134 Y-118.2726
G01 X149.9195 Y-118.2738
G01 X149.9254 Y-118.2757
G01 X149.9310 Y-118.2783
G01 X149.9372 Y-118.2824
G01 X149.9955 Y-118.3291
G01 X149.9988 Y-118.3325
G01 X150.0025 Y-118.3372
G01 X150.1300 Y-118.5191
G01 X150.2909 Y-118.6800
G01 X150.4773 Y-118.8106
G01 X150.6835 Y-118.9067
G01 X150.9033 Y-118.9656
G01 X151.1300 Y-118.9855
G01 X151.3567 Y-118.9656
G01 X151.5765 Y-118.9067
G01 X151.7827 Y-118.8106
G01 X151.9691 Y-118.6800
G01 X152.1301 Y-118.5191
G01 X152.2582 Y-118.3361
G01 X152.2774 Y-118.3138
G01 X152.2816 Y-118.3095
G01 X152.2863 Y-118.3057
G01 X152.2915 Y-118.3025
G01 X152.3561 Y-118.2699
G01 X152.3606 Y-118.2680
G01 X152.3666 Y-118.2662
G01 X152.3715 Y-118.2654
G01 X152.3777 Y-118.2650
G01 X152.4534 Y-118.2726
G01 X152.4595 Y-118.2738
G01 X152.4654 Y-118.2757
G01 X152.4710 Y-118.2783
G01 X152.4772 Y-118.2824
G01 X152.5337 Y-118.3275
G01 X152.5380 Y-118.3316
G01 X152.5425 Y-118.3372
G01 X152.6700 Y-118.5191
G01 X152.8309 Y-118.6800
G01 X153.0173 Y-118.8106
G01 X153.2235 Y-118.9067
G01 X153.4433 Y-118.9656
G01 X153.6700 Y-118.9855
G01 X153.8967 Y-118.9656
G01 X154.1165 Y-118.9067
G01 X154.3227 Y-118.8106
G01 X154.5091 Y-118.6800
G01 X154.6288 Y-118.5604
G01 X154.6334 Y-118.5565
G01 X154.6658 Y-118.5326
G01 X154.6725 Y-118.5292
G01 X154.6797 Y-118.5268
G01 X154.7492 Y-118.5117
G01 X154.7591 Y-118.5106
G01 X154.7665 Y-118.5110
G01 X154.7750 Y-118.5129
G01 X154.8440 Y-118.5386
G01 X154.8496 Y-118.5412
G01 X154.8548 Y-118.5446
G01 X154.8596 Y-118.5485
G01 X154.8638 Y-118.5531
G01 X154.9072 Y-118.6110
G01 X154.9122 Y-118.6191
G01 X154.9605 Y-118.7481
G01 X155.0382 Y-118.8518
G01 X155.1419 Y-118.9295
G01 X155.2641 Y-118.9750
G01 X155.3148 Y-118.9805
G01 X157.1052 Y-118.9805
G01 X157.1559 Y-118.9750
G01 X157.2781 Y-118.9295
G01 X157.3818 Y-118.8518
G01 X157.4595 Y-118.7481
G01 X157.5050 Y-118.6259
G01 X157.5105 Y-118.5752
G01 X157.5105 Y-116.7848
G01 X157.5050 Y-116.7341
G01 X157.4595 Y-116.6119
G01 X157.3818 Y-116.5082
G01 X157.2781 Y-116.4305
G01 X157.1720 Y-116.3909
G01 X157.1594 Y-116.3854
G01 X157.1512 Y-116.3799
G01 X157.0965 Y-116.3326
G01 X157.0914 Y-116.3272
G01 X157.0878 Y-116.3221
G01 X157.0848 Y-116.3167
G01 X157.0826 Y-116.3109
G01 X157.0616 Y-116.2392
G01 X157.0607 Y-116.2333
G01 X157.0605 Y-116.2286
G01 X157.0605 Y-114.7244
G01 X157.0608 Y-114.7190
G01 X157.0644 Y-114.6878
G01 X157.0664 Y-114.6807
G01 X157.0695 Y-114.6740
G01 X157.1035 Y-114.6117
G01 X157.1068 Y-114.6067
G01 X157.1106 Y-114.6022
G01 X158.0244 Y-113.6884
G01 X158.0431 Y-113.6723
G01 X158.0522 Y-113.6655
G01 X158.0961 Y-113.6169
G01 X158.1129 Y-113.5999
G01 X158.1287 Y-113.5806
G01 X158.1719 Y-113.5327
G01 X158.1783 Y-113.5217
G01 X158.1901 Y-113.5047
G01 X158.1972 Y-113.4958
G01 X158.2285 Y-113.4346
G01 X158.2613 Y-113.3778
G01 X158.2653 Y-113.3658
G01 X158.2733 Y-113.3466
G01 X158.2784 Y-113.3365
G01 X158.2963 Y-113.2701
G01 X158.3165 Y-113.2078
G01 X158.3178 Y-113.1965
G01 X158.3215 Y-113.1761
G01 X158.3247 Y-113.1638
G01 X158.3280 Y-113.0997
G01 X158.3305 Y-113.0746
G01 X158.3307 Y-113.0493
G01 X158.3340 Y-112.9852
G01 X158.3323 Y-112.9740
G01 X158.3305 Y-112.9507
G01 X158.3305 Y-112.7487
G01 X158.3339 Y-112.7159
G01 X158.3353 Y-112.7099
G01 X158.3373 Y-112.7041
G01 X158.3729 Y-112.6384
G01 X158.3761 Y-112.6334
G01 X158.3815 Y-112.6270
G01 X158.4416 Y-112.5669
G01 X158.5671 Y-112.3876
G01 X158.5929 Y-112.3325
G01 X158.5960 Y-112.3270
G01 X158.5998 Y-112.3220
G01 X158.6452 Y-112.2697
G01 X158.6495 Y-112.2654
G01 X158.6555 Y-112.2611
G01 X158.6608 Y-112.2581
G01 X158.6665 Y-112.2559
G01 X158.7346 Y-112.2353
G01 X158.7406 Y-112.2338
G01 X158.7468 Y-112.2332
G01 X158.7517 Y-112.2332
G01 X158.7615 Y-112.2347
G01 X158.8311 Y-112.2546
G01 X158.8402 Y-112.2584
G01 X158.8465 Y-112.2625
G01 X158.8529 Y-112.2683
G01 X158.9007 Y-112.3226
G01 X158.9042 Y-112.3274
G01 X158.9072 Y-112.3325
G01 X158.9329 Y-112.3876
G01 X159.0584 Y-112.5669
G01 X159.1195 Y-112.6280
G01 X159.1387 Y-112.6516
G01 X159.1423 Y-112.6566
G01 X159.1457 Y-112.6632
G01 X159.1478 Y-112.6689
G01 X159.1678 Y-112.7371
G01 X159.1688 Y-112.7418
G01 X159.1694 Y-112.7477
G01 X159.1695 Y-116.2286
G01 X159.1689 Y-116.2429
G01 X159.1681 Y-116.2478
G01 X159.1664 Y-116.2537
G01 X159.1407 Y-116.3226
G01 X159.1379 Y-116.3282
G01 X159.1344 Y-116.3333
G01 X159.1312 Y-116.3371
G01 X159.1267 Y-116.3414
G01 X159.0688 Y-116.3848
G01 X159.0617 Y-116.3892
G01 X159.0563 Y-116.3916
G01 X158.9519 Y-116.4305
G01 X158.8482 Y-116.5082
G01 X158.7705 Y-116.6119
G01 X158.7250 Y-116.7341
G01 X158.7195 Y-116.7848
G01 X158.7195 Y-118.5752
G01 X158.7250 Y-118.6259
G01 X158.7705 Y-118.7481
G01 X158.8482 Y-118.8518
G01 X158.9519 Y-118.9295
G01 X159.0741 Y-118.9750
G01 X159.1248 Y-118.9805
G01 X160.9152 Y-118.9805
G01 X160.9659 Y-118.9750
G01 X161.0881 Y-118.9295
G01 X161.1918 Y-118.8518
G01 X161.2695 Y-118.7481
G01 X161.3168 Y-118.6212
G01 X161.3371 Y-118.5838
G01 X161.3415 Y-118.5777
G01 X161.3468 Y-118.5723
G01 X161.4067 Y-118.5273
G01 X161.4120 Y-118.5240
G01 X161.4176 Y-118.5214
G01 X161.4235 Y-118.5196
G01 X161.4309 Y-118.5183
G01 X161.5055 Y-118.5131
G01 X161.5105 Y-118.5133
G01 X161.5166 Y-118.5144
G01 X161.5225 Y-118.5161
G01 X161.5271 Y-118.5181
G01 X161.5906 Y-118.5527
G01 X161.5966 Y-118.5565
G01 X161.6020 Y-118.5612
G01 X161.7209 Y-118.6800
G01 X161.9073 Y-118.8106
G01 X162.1135 Y-118.9067
G01 X162.3333 Y-118.9656
G01 X162.5600 Y-118.9855
G01 X162.7867 Y-118.9656
G01 X163.0065 Y-118.9067
G01 X163.2127 Y-118.8106
G01 X163.3991 Y-118.6800
G01 X163.5601 Y-118.5191
G01 X163.6882 Y-118.3361
G01 X163.7074 Y-118.3138
G01 X163.7116 Y-118.3095
G01 X163.7163 Y-118.3057
G01 X163.7215 Y-118.3025
G01 X163.7861 Y-118.2699
G01 X163.7954 Y-118.2665
G01 X163.8015 Y-118.2654
G01 X163.8064 Y-118.2650
G01 X163.8126 Y-118.2653
G01 X163.8834 Y-118.2726
G01 X163.8895 Y-118.2738
G01 X163.8954 Y-118.2757
G01 X163.9010 Y-118.2783
G01 X163.9072 Y-118.2824
G01 X163.9637 Y-118.3275
G01 X163.9680 Y-118.3316
G01 X163.9725 Y-118.3372
G01 X164.1000 Y-118.5191
G01 X164.2609 Y-118.6800
G01 X164.4473 Y-118.8106
G01 X164.6535 Y-118.9067
G01 X164.8733 Y-118.9656
G01 X165.1000 Y-118.9855
G01 X165.3267 Y-118.9656
G01 X165.5465 Y-118.9067
G01 X165.7527 Y-118.8106
G01 X165.9391 Y-118.6800
G01 X166.1001 Y-118.5191
G01 X166.2282 Y-118.3361
G01 X166.2474 Y-118.3138
G01 X166.2516 Y-118.3095
G01 X166.2563 Y-118.3057
G01 X166.2615 Y-118.3025
G01 X166.3261 Y-118.2699
G01 X166.3354 Y-118.2665
G01 X166.3452 Y-118.2651
G01 X166.3526 Y-118.2653
G01 X166.4234 Y-118.2726
G01 X166.4295 Y-118.2738
G01 X166.4354 Y-118.2757
G01 X166.4410 Y-118.2783
G01 X166.4472 Y-118.2824
G01 X166.5055 Y-118.3291
G01 X166.5088 Y-118.3325
G01 X166.5125 Y-118.3372
G01 X166.6400 Y-118.5191
G01 X166.8009 Y-118.6800
G01 X166.9873 Y-118.8106
G01 X167.1935 Y-118.9067
G01 X167.4133 Y-118.9656
G01 X167.6400 Y-118.9855
G01 X167.8667 Y-118.9656
G01 X168.0865 Y-118.9067
G01 X168.2927 Y-118.8106
G01 X168.4791 Y-118.6800
G01 X168.6400 Y-118.5191
G01 X168.7706 Y-118.3327
G01 X168.8667 Y-118.1265
G01 X168.9256 Y-117.9067
G01 X168.9455 Y-117.6800
G01 X168.9256 Y-117.4533
G01 X168.8667 Y-117.2335
G01 X168.7706 Y-117.0273
G01 X168.6400 Y-116.8409
G01 X168.5405 Y-116.7413
G01 X168.5191 Y-116.7147
G01 X168.5153 Y-116.7084
G01 X168.5122 Y-116.7004
G01 X168.4922 Y-116.6322
G01 X168.4909 Y-116.6252
G01 X168.4905 Y-116.6192
G01 X168.4907 Y-112.7460
G01 X168.4939 Y-112.7159
G01 X168.4949 Y-112.7111
G01 X168.4968 Y-112.7053
G01 X168.4995 Y-112.6997
G01 X168.5348 Y-112.6353
G01 X168.5406 Y-112.6279
G01 X168.6016 Y-112.5669
G01 X168.7271 Y-112.3876
G01 X168.7529 Y-112.3325
G01 X168.7553 Y-112.3281
G01 X168.7582 Y-112.3239
G01 X168.8052 Y-112.2697
G01 X168.8095 Y-112.2654
G01 X168.8155 Y-112.2611
G01 X168.8208 Y-112.2581
G01 X168.8265 Y-112.2559
G01 X168.8994 Y-112.2341
G01 X168.9092 Y-112.2331
G01 X168.9142 Y-112.2334
G01 X168.9203 Y-112.2344
G01 X168.9911 Y-112.2546
G01 X168.9969 Y-112.2568
G01 X169.0024 Y-112.2597
G01 X169.0084 Y-112.2640
G01 X169.0129 Y-112.2683
G01 X169.0599 Y-112.3217
G01 X169.0636 Y-112.3264
G01 X169.0677 Y-112.3336
G01 X169.0929 Y-112.3876
G01 X169.2184 Y-112.5669
G01 X169.2804 Y-112.6290
G01 X169.2995 Y-112.6526
G01 X169.3029 Y-112.6577
G01 X169.3052 Y-112.6620
G01 X169.3078 Y-112.6689
G01 X169.3275 Y-112.7360
G01 X169.3288 Y-112.7418
G01 X169.3294 Y-112.7465
G01 X169.3295 Y-112.9507
G01 X169.3277 Y-112.9740
G01 X169.3260 Y-112.9852
G01 X169.3293 Y-113.0493
G01 X169.3295 Y-113.0746
G01 X169.3320 Y-113.0997
G01 X169.3353 Y-113.1638
G01 X169.3382 Y-113.1748
G01 X169.3420 Y-113.1952
G01 X169.3435 Y-113.2078
G01 X169.3637 Y-113.2701
G01 X169.3816 Y-113.3365
G01 X169.3867 Y-113.3466
G01 X169.3947 Y-113.3658
G01 X169.3988 Y-113.3778
G01 X169.4330 Y-113.4374
G01 X169.4628 Y-113.4958
G01 X169.4699 Y-113.5046
G01 X169.4817 Y-113.5218
G01 X169.4881 Y-113.5327
G01 X169.5311 Y-113.5804
G01 X169.5471 Y-113.5999
G01 X169.5648 Y-113.6178
G01 X169.6078 Y-113.6655
G01 X169.6169 Y-113.6723
G01 X169.6356 Y-113.6884
G01 X170.7916 Y-114.8444
G01 X170.8077 Y-114.8631
G01 X170.8145 Y-114.8722
G01 X170.8631 Y-114.9161
G01 X170.8801 Y-114.9329
G01 X170.8994 Y-114.9487
G01 X170.9473 Y-114.9919
G01 X170.9571 Y-114.9976
G01 X170.9743 Y-115.0094
G01 X170.9842 Y-115.0172
G01 X171.0426 Y-115.0470
G01 X171.1022 Y-115.0812
G01 X171.1142 Y-115.0853
G01 X171.1334 Y-115.0933
G01 X171.1435 Y-115.0984
G01 X171.2068 Y-115.1154
G01 X171.2722 Y-115.1365
G01 X171.2848 Y-115.1380
G01 X171.3052 Y-115.1418
G01 X171.3162 Y-115.1447
G01 X171.3803 Y-115.1480
G01 X171.4054 Y-115.1505
G01 X171.4307 Y-115.1507
G01 X171.4948 Y-115.1540
G01 X171.5060 Y-115.1523
G01 X171.5306 Y-115.1505
G01 X181.5294 Y-115.1505
G01 X181.5540 Y-115.1523
G01 X181.5652 Y-115.1540
G01 X181.6293 Y-115.1507
G01 X181.6546 Y-115.1505
G01 X181.6797 Y-115.1480
G01 X181.7438 Y-115.1447
G01 X181.7548 Y-115.1418
G01 X181.7752 Y-115.1380
G01 X181.7878 Y-115.1365
G01 X181.8532 Y-115.1154
G01 X181.9165 Y-115.0984
G01 X181.9278 Y-115.0928
G01 X181.9470 Y-115.0848
G01 X181.9578 Y-115.0812
G01 X182.0146 Y-115.0485
G01 X182.0758 Y-115.0172
G01 X182.0857 Y-115.0094
G01 X182.1028 Y-114.9976
G01 X182.1127 Y-114.9919
G01 X182.1604 Y-114.9489
G01 X182.1799 Y-114.9329
G01 X182.1978 Y-114.9152
G01 X182.2455 Y-114.8722
G01 X182.2523 Y-114.8631
G01 X182.2684 Y-114.8444
G01 X182.7777 Y-114.3351
G01 X182.7928 Y-114.3217
G01 X182.7988 Y-114.3174
G01 X182.8066 Y-114.3135
G01 X182.8717 Y-114.2880
G01 X182.8797 Y-114.2857
G01 X182.8856 Y-114.2848
G01 X183.0980 Y-114.2662
G01 X183.3093 Y-114.2096
G01 X183.5076 Y-114.1171
G01 X183.6869 Y-113.9916
G01 X183.8416 Y-113.8369
G01 X183.9671 Y-113.6576
G01 X184.0596 Y-113.4593
G01 X184.1162 Y-113.2480
G01 X184.1353 Y-113.0300
G01 X184.1162 Y-112.8120
G01 X184.0596 Y-112.6007
G01 X183.9671 Y-112.4024
G01 X183.8416 Y-112.2231
G01 X183.6869 Y-112.0684
G01 X183.5076 Y-111.9429
G01 X183.4536 Y-111.9177
G01 X183.4460 Y-111.9133
G01 X183.3888 Y-111.8640
G01 X183.3846 Y-111.8595
G01 X183.3811 Y-111.8545
G01 X183.3781 Y-111.8492
G01 X183.3759 Y-111.8435
G01 X183.3546 Y-111.7731
G01 X183.3534 Y-111.7657
G01 X183.3533 Y-111.7570
G01 X183.3550 Y-111.7473
G01 X183.3749 Y-111.6777
G01 X183.3768 Y-111.6731
G01 X183.3797 Y-111.6676
G01 X183.3833 Y-111.6625
G01 X183.3865 Y-111.6588
G01 X183.4417 Y-111.6101
G01 X183.4464 Y-111.6064
G01 X183.4536 Y-111.6023
G01 X183.5076 Y-111.5771
G01 X183.6869 Y-111.4516
