(G-CODE GENERATED BY FLATCAM v8.994 - www.flatcam.org - Version Date: 2020/11/7)

(Name: nanoRIghtAux.drl_cnc)
(Type: G-code from Geometry)
(Units: MM)

(Created on Monday, 19 June 2023 at 10:56)

(This preprocessor is the default preprocessor used by FlatCAM.)
(It is made to work with MACH3 compatible motion controllers.)


(TOOLS DIAMETER: )
(Tool: 1 -> Dia: 0.8000999999999999)
(Tool: 2 -> Dia: 1.0007599999999999)
(Tool: 3 -> Dia: 3.50012)

(FEEDRATE Z: )
(Tool: 1 -> Feedrate: 150.0)
(Tool: 2 -> Feedrate: 150.0)
(Tool: 3 -> Feedrate: 150.0)

(FEEDRATE RAPIDS: )
(Tool: 1 -> Feedrate Rapids: 1500)
(Tool: 2 -> Feedrate Rapids: 1500)
(Tool: 3 -> Feedrate Rapids: 1500)

(Z_CUT: )
(Tool: 1 -> Z_Cut: -2.0)
(Tool: 2 -> Z_Cut: -2.0)
(Tool: 3 -> Z_Cut: -2.0)

(Tools Offset: )
(Tool: 1 -> Offset Z: 0.0)
(Tool: 2 -> Offset Z: 0.0)
(Tool: 3 -> Offset Z: 0.0)

(Z_MOVE: )
(Tool: 1 -> Z_Move: 2)
(Tool: 2 -> Z_Move: 2)
(Tool: 3 -> Z_Move: 2)

(Z Toolchange: 15.0 mm)
(X,Y Toolchange: 0.0000, 0.0000 mm)
(Z Start: None mm)
(Z End: 4.0 mm)
(X,Y End: None mm)
(Steps per circle: 64)
(Preprocessor Excellon: default)

(X range:  137.9499 ...  218.9201  mm)
(Y range: -127.4801 ...  -63.0199  mm)

(Spindle Speed: 0 RPM)
G21
G90
G94

G01 F150.00

M5
G00 Z15.0000
T1
G00 X0.0000 Y0.0000                
M6
(MSG, Change to Tool Dia = 0.8001 ||| Total drills for tool T1 = 115)
M0
G00 Z15.0000

G01 F150.00
M03
G00 X175.2600 Y-96.5200
G01 Z-2.0000
G01 Z0
G00 Z2.0000
G00 X182.8800 Y-97.7900
G01 Z-2.0000
G01 Z0
G00 Z2.0000
G00 X182.8800 Y-95.2500
G01 Z-2.0000
G01 Z0
G00 Z2.0000
G00 X182.8800 Y-92.7100
G01 Z-2.0000
G01 Z0
G00 Z2.0000
G00 X182.8800 Y-90.1700
G01 Z-2.0000
G01 Z0
G00 Z2.0000
G00 X182.8800 Y-87.6300
G01 Z-2.0000
G01 Z0
G00 Z2.0000
G00 X182.8800 Y-85.0900
G01 Z-2.0000
G01 Z0
G00 Z2.0000
G00 X182.8800 Y-82.5500
G01 Z-2.0000
G01 Z0
G00 Z2.0000
G00 X182.8800 Y-80.0100
G01 Z-2.0000
G01 Z0
G00 Z2.0000
G00 X182.8800 Y-77.4700
G01 Z-2.0000
G01 Z0
G00 Z2.0000
G00 X198.1200 Y-77.4700
G01 Z-2.0000
G01 Z0
G00 Z2.0000
G00 X198.1200 Y-80.0100
G01 Z-2.0000
G01 Z0
G00 Z2.0000
G00 X198.1200 Y-82.5500
G01 Z-2.0000
G01 Z0
G00 Z2.0000
G00 X198.1200 Y-85.0900
G01 Z-2.0000
G01 Z0
G00 Z2.0000
G00 X198.1200 Y-87.6300
G01 Z-2.0000
G01 Z0
G00 Z2.0000
G00 X198.1200 Y-90.1700
G01 Z-2.0000
G01 Z0
G00 Z2.0000
G00 X198.1200 Y-92.7100
G01 Z-2.0000
G01 Z0
G00 Z2.0000
G00 X198.1200 Y-95.2500
G01 Z-2.0000
G01 Z0
G00 Z2.0000
G00 X198.1200 Y-97.7900
G01 Z-2.0000
G01 Z0
G00 Z2.0000
G00 X198.1200 Y-100.3300
G01 Z-2.0000
G01 Z0
G00 Z2.0000
G00 X209.5500 Y-101.6000
G01 Z-2.0000
G01 Z0
G00 Z2.0000
G00 X209.5652 Y-97.7900
G01 Z-2.0000
G01 Z0
G00 Z2.0000
G00 X209.5652 Y-93.9800
G01 Z-2.0000
G01 Z0
G00 Z2.0000
G00 X209.5500 Y-90.1700
G01 Z-2.0000
G01 Z0
G00 Z2.0000
G00 X212.0900 Y-90.1700
G01 Z-2.0000
G01 Z0
G00 Z2.0000
G00 X212.0900 Y-87.6300
G01 Z-2.0000
G01 Z0
G00 Z2.0000
G00 X209.5500 Y-87.6300
G01 Z-2.0000
G01 Z0
G00 Z2.0000
G00 X209.5652 Y-83.8149
G01 Z-2.0000
G01 Z0
G00 Z2.0000
G00 X209.5652 Y-81.2749
G01 Z-2.0000
G01 Z0
G00 Z2.0000
G00 X204.4700 Y-74.9300
G01 Z-2.0000
G01 Z0
G00 Z2.0000
G00 X207.0100 Y-74.9300
G01 Z-2.0000
G01 Z0
G00 Z2.0000
G00 X217.1700 Y-64.7700
G01 Z-2.0000
G01 Z0
G00 Z2.0000
G00 X214.6452 Y-81.2749
G01 Z-2.0000
G01 Z0
G00 Z2.0000
G00 X212.1052 Y-81.2749
G01 Z-2.0000
G01 Z0
G00 Z2.0000
G00 X212.1052 Y-83.8149
G01 Z-2.0000
G01 Z0
G00 Z2.0000
G00 X214.6452 Y-83.8149
G01 Z-2.0000
G01 Z0
G00 Z2.0000
G00 X214.6300 Y-87.6300
G01 Z-2.0000
G01 Z0
G00 Z2.0000
G00 X214.6300 Y-90.1700
G01 Z-2.0000
G01 Z0
G00 Z2.0000
G00 X212.1052 Y-93.9800
G01 Z-2.0000
G01 Z0
G00 Z2.0000
G00 X214.6452 Y-93.9800
G01 Z-2.0000
G01 Z0
G00 Z2.0000
G00 X214.6452 Y-97.7900
G01 Z-2.0000
G01 Z0
G00 Z2.0000
G00 X212.1052 Y-97.7900
G01 Z-2.0000
G01 Z0
G00 Z2.0000
G00 X212.0900 Y-101.6000
G01 Z-2.0000
G01 Z0
G00 Z2.0000
G00 X214.6300 Y-101.6000
G01 Z-2.0000
G01 Z0
G00 Z2.0000
G00 X214.6452 Y-105.4100
G01 Z-2.0000
G01 Z0
G00 Z2.0000
G00 X212.1052 Y-105.4100
G01 Z-2.0000
G01 Z0
G00 Z2.0000
G00 X209.5652 Y-105.4100
G01 Z-2.0000
G01 Z0
G00 Z2.0000
G00 X209.5246 Y-109.2352
G01 Z-2.0000
G01 Z0
G00 Z2.0000
G00 X213.3600 Y-109.2200
G01 Z-2.0000
G01 Z0
G00 Z2.0000
G00 X215.9000 Y-109.2200
G01 Z-2.0000
G01 Z0
G00 Z2.0000
G00 X209.5246 Y-111.7752
G01 Z-2.0000
G01 Z0
G00 Z2.0000
G00 X209.5246 Y-114.3152
G01 Z-2.0000
G01 Z0
G00 Z2.0000
G00 X217.1700 Y-125.7300
G01 Z-2.0000
G01 Z0
G00 Z2.0000
G00 X205.7400 Y-123.1900
G01 Z-2.0000
G01 Z0
G00 Z2.0000
G00 X203.2000 Y-123.1900
G01 Z-2.0000
G01 Z0
G00 Z2.0000
G00 X198.1200 Y-113.0300
G01 Z-2.0000
G01 Z0
G00 Z2.0000
G00 X198.1200 Y-110.4900
G01 Z-2.0000
G01 Z0
G00 Z2.0000
G00 X198.1200 Y-107.9500
G01 Z-2.0000
G01 Z0
G00 Z2.0000
G00 X198.1200 Y-105.4100
G01 Z-2.0000
G01 Z0
G00 Z2.0000
G00 X198.1200 Y-102.8700
G01 Z-2.0000
G01 Z0
G00 Z2.0000
G00 X182.8800 Y-100.3300
G01 Z-2.0000
G01 Z0
G00 Z2.0000
G00 X182.8800 Y-102.8700
G01 Z-2.0000
G01 Z0
G00 Z2.0000
G00 X182.8800 Y-105.4100
G01 Z-2.0000
G01 Z0
G00 Z2.0000
G00 X182.8800 Y-107.9500
G01 Z-2.0000
G01 Z0
G00 Z2.0000
G00 X182.8800 Y-110.4900
G01 Z-2.0000
G01 Z0
G00 Z2.0000
G00 X182.8800 Y-113.0300
G01 Z-2.0000
G01 Z0
G00 Z2.0000
G00 X175.2600 Y-111.7600
G01 Z-2.0000
G01 Z0
G00 Z2.0000
G00 X172.7200 Y-111.7600
G01 Z-2.0000
G01 Z0
G00 Z2.0000
G00 X170.1800 Y-111.7600
G01 Z-2.0000
G01 Z0
G00 Z2.0000
G00 X167.6400 Y-111.7600
G01 Z-2.0000
G01 Z0
G00 Z2.0000
G00 X165.1000 Y-111.7600
G01 Z-2.0000
G01 Z0
G00 Z2.0000
G00 X167.6400 Y-117.6807
G01 Z-2.0000
G01 Z0
G00 Z2.0000
G00 X165.1000 Y-117.6807
G01 Z-2.0000
G01 Z0
G00 Z2.0000
G00 X162.5600 Y-117.6807
G01 Z-2.0000
G01 Z0
G00 Z2.0000
G00 X160.0200 Y-117.6807
G01 Z-2.0000
G01 Z0
G00 Z2.0000
G00 X156.2100 Y-117.6807
G01 Z-2.0000
G01 Z0
G00 Z2.0000
G00 X153.6700 Y-117.6807
G01 Z-2.0000
G01 Z0
G00 Z2.0000
G00 X151.1300 Y-117.6807
G01 Z-2.0000
G01 Z0
G00 Z2.0000
G00 X148.5900 Y-117.6807
G01 Z-2.0000
G01 Z0
G00 Z2.0000
G00 X139.7000 Y-125.7300
G01 Z-2.0000
G01 Z0
G00 Z2.0000
G00 X142.2400 Y-111.7600
G01 Z-2.0000
G01 Z0
G00 Z2.0000
G00 X144.7800 Y-111.7600
G01 Z-2.0000
G01 Z0
G00 Z2.0000
G00 X147.3200 Y-111.7600
G01 Z-2.0000
G01 Z0
G00 Z2.0000
G00 X149.8600 Y-111.7600
G01 Z-2.0000
G01 Z0
G00 Z2.0000
G00 X152.4000 Y-111.7600
G01 Z-2.0000
G01 Z0
G00 Z2.0000
G00 X154.9400 Y-111.7600
G01 Z-2.0000
G01 Z0
G00 Z2.0000
G00 X157.4800 Y-111.7600
G01 Z-2.0000
G01 Z0
G00 Z2.0000
G00 X160.0200 Y-111.7600
G01 Z-2.0000
G01 Z0
G00 Z2.0000
G00 X162.5600 Y-111.7600
G01 Z-2.0000
G01 Z0
G00 Z2.0000
G00 X160.0200 Y-96.5200
G01 Z-2.0000
G01 Z0
G00 Z2.0000
G00 X157.4800 Y-96.5200
G01 Z-2.0000
G01 Z0
G00 Z2.0000
G00 X154.9400 Y-96.5200
G01 Z-2.0000
G01 Z0
G00 Z2.0000
G00 X152.4000 Y-96.5200
G01 Z-2.0000
G01 Z0
G00 Z2.0000
G00 X149.8600 Y-96.5200
G01 Z-2.0000
G01 Z0
G00 Z2.0000
G00 X147.3200 Y-96.5200
G01 Z-2.0000
G01 Z0
G00 Z2.0000
G00 X144.7800 Y-96.5200
G01 Z-2.0000
G01 Z0
G00 Z2.0000
G00 X142.2400 Y-96.5200
G01 Z-2.0000
G01 Z0
G00 Z2.0000
G00 X139.7000 Y-64.7700
G01 Z-2.0000
G01 Z0
G00 Z2.0000
G00 X148.5900 Y-91.0107
G01 Z-2.0000
G01 Z0
G00 Z2.0000
G00 X151.1300 Y-91.0107
G01 Z-2.0000
G01 Z0
G00 Z2.0000
G00 X153.6700 Y-91.0107
G01 Z-2.0000
G01 Z0
G00 Z2.0000
G00 X156.2100 Y-91.0107
G01 Z-2.0000
G01 Z0
G00 Z2.0000
G00 X160.0302 Y-91.0107
G01 Z-2.0000
G01 Z0
G00 Z2.0000
G00 X162.5600 Y-86.3600
G01 Z-2.0000
G01 Z0
G00 Z2.0000
G00 X162.5600 Y-83.8200
G01 Z-2.0000
G01 Z0
G00 Z2.0000
G00 X167.6400 Y-83.8200
G01 Z-2.0000
G01 Z0
G00 Z2.0000
G00 X167.6400 Y-86.3600
G01 Z-2.0000
G01 Z0
G00 Z2.0000
G00 X167.6502 Y-91.0107
G01 Z-2.0000
G01 Z0
G00 Z2.0000
G00 X165.1102 Y-91.0107
G01 Z-2.0000
G01 Z0
G00 Z2.0000
G00 X162.5702 Y-91.0107
G01 Z-2.0000
G01 Z0
G00 Z2.0000
G00 X162.5600 Y-96.5200
G01 Z-2.0000
G01 Z0
G00 Z2.0000
G00 X165.1000 Y-96.5200
G01 Z-2.0000
G01 Z0
G00 Z2.0000
G00 X167.6400 Y-96.5200
G01 Z-2.0000
G01 Z0
G00 Z2.0000
G00 X170.1800 Y-96.5200
G01 Z-2.0000
G01 Z0
G00 Z2.0000
G00 X172.7200 Y-96.5200
G01 Z-2.0000
G01 Z0
G00 Z2.0000
M05
G00 Z4.00


