(G-CODE GENERATED BY FLATCAM v8.994 - www.flatcam.org - Version Date: 2020/11/7)

(Name: nanoRIghtAux-Edge_Cuts.gbr_cutout_cnc)
(Type: G-code from Geometry)
(Units: MM)

(Created on Monday, 19 June 2023 at 10:59)

(This preprocessor is the default preprocessor used by FlatCAM.)
(It is made to work with MACH3 compatible motion controllers.)

(TOOL DIAMETER: 3.125 mm)
(Feedrate_XY: 120.0 mm/min)
(Feedrate_Z: 60.0 mm/min)
(Feedrate rapids 1500.0 mm/min)

(Z_Cut: -1.9000000000000001 mm)
(Z_Move: 2.0 mm)
(Z Start: None mm)
(Z End: 15.0 mm)
(X,Y End: None mm)
(Steps per circle: 64)
(Preprocessor Geometry: default)

(X range:  134.1775 ...  222.6925  mm)
(Y range: -131.2525 ...  -59.2475  mm)

(Spindle Speed: 0.0 RPM)
G21
G90
G94

G01 F120.00

M5
G00 Z15.0000
G00 X0.0000 Y0.0000
T1
M6    
(MSG, Change to Tool Dia = 3.1250)
M0
G00 Z15.0000

M03
G01 F120.00
G00 X134.1775 Y-91.5875
G01 F60.00
G01 Z-1.9000
G01 F120.00
G01 X134.1775 Y-60.9100
G01 X134.1855 Y-60.7470
G01 X134.2094 Y-60.5856
G01 X134.2491 Y-60.4274
G01 X134.3040 Y-60.2738
G01 X134.3738 Y-60.1263
G01 X134.4577 Y-59.9863
G01 X134.5548 Y-59.8553
G01 X134.6644 Y-59.7344
G01 X134.7853 Y-59.6248
G01 X134.9163 Y-59.5277
G01 X135.0563 Y-59.4438
G01 X135.2038 Y-59.3740
G01 X135.3574 Y-59.3191
G01 X135.5156 Y-59.2794
G01 X135.6770 Y-59.2555
G01 X135.8400 Y-59.2475
G01 X174.9725 Y-59.2475
G00 Z2.0000
G00 X182.0975 Y-59.2475
G01 F60.00
G01 Z-1.9000
G01 F120.00
G01 X221.0300 Y-59.2475
G01 X221.1930 Y-59.2555
G01 X221.3544 Y-59.2794
G01 X221.5126 Y-59.3191
G01 X221.6662 Y-59.3740
G01 X221.8137 Y-59.4438
G01 X221.9537 Y-59.5277
G01 X222.0847 Y-59.6248
G01 X222.2056 Y-59.7344
G01 X222.3152 Y-59.8553
G01 X222.4123 Y-59.9863
G01 X222.4962 Y-60.1263
G01 X222.5660 Y-60.2738
G01 X222.6209 Y-60.4274
G01 X222.6606 Y-60.5856
G01 X222.6845 Y-60.7470
G01 X222.6925 Y-60.9100
G01 X222.6925 Y-91.5875
G00 Z2.0000
G00 X222.6925 Y-98.7125
G01 F60.00
G01 Z-1.9000
G01 F120.00
G01 X222.6925 Y-129.5900
G01 X222.6845 Y-129.7530
G01 X222.6606 Y-129.9144
G01 X222.6209 Y-130.0726
G01 X222.5660 Y-130.2262
G01 X222.4962 Y-130.3737
G01 X222.4123 Y-130.5137
G01 X222.3152 Y-130.6447
G01 X222.2056 Y-130.7656
G01 X222.0847 Y-130.8752
G01 X221.9537 Y-130.9723
G01 X221.8137 Y-131.0562
G01 X221.6662 Y-131.1260
G01 X221.5126 Y-131.1809
G01 X221.3544 Y-131.2206
G01 X221.1930 Y-131.2445
G01 X221.0300 Y-131.2525
G01 X182.0975 Y-131.2525
G00 Z2.0000
G00 X174.9725 Y-131.2525
G01 F60.00
G01 Z-1.9000
G01 F120.00
G01 X135.8400 Y-131.2525
G01 X135.6770 Y-131.2445
G01 X135.5156 Y-131.2206
G01 X135.3574 Y-131.1809
G01 X135.2038 Y-131.1260
G01 X135.0563 Y-131.0562
G01 X134.9163 Y-130.9723
G01 X134.7853 Y-130.8752
G01 X134.6644 Y-130.7656
G01 X134.5548 Y-130.6447
G01 X134.4577 Y-130.5137
G01 X134.3738 Y-130.3737
G01 X134.3040 Y-130.2262
G01 X134.2491 Y-130.0726
G01 X134.2094 Y-129.9144
G01 X134.1855 Y-129.7530
G01 X134.1775 Y-129.5900
G01 X134.1775 Y-98.7125
G00 Z2.0000
M05
G00 Z2.0000
G00 Z15.00


