(G-CODE GENERATED BY FLATCAM v8.994 - www.flatcam.org - Version Date: 2020/11/7)

(Name: nanoRIghtAux-User_Drawings.gbr_iso_combined_cnc)
(Type: G-code from Geometry)
(Units: MM)

(Created on Tuesday, 20 June 2023 at 21:04)

(This preprocessor is the default preprocessor used by FlatCAM.)
(It is made to work with MACH3 compatible motion controllers.)

(TOOL DIAMETER: 0.1 mm)
(Feedrate_XY: 120.0 mm/min)
(Feedrate_Z: 60.0 mm/min)
(Feedrate rapids 1500.0 mm/min)

(Z_Cut: -0.1 mm)
(Z_Move: 2.0 mm)
(Z Start: None mm)
(Z End: 15.0 mm)
(X,Y End: None mm)
(Steps per circle: 64)
(Preprocessor Geometry: default)

(X range:   17.9589 ...  102.0432  mm)
(Y range:   20.1236 ...   78.5860  mm)

(Spindle Speed: 0.0 RPM)
G21
G90
G94

G01 F120.00

M5
G00 Z15.0000
G00 X0.0000 Y0.0000
T1
M6    
(MSG, Change to Tool Dia = 0.1000)
M0
G00 Z15.0000

M03
G01 F120.00
G00 X29.6040 Y21.7345
G01 F60.00
G01 Z-0.1000
G01 F120.00
G01 X29.6030 Y21.7149
G01 X29.6039 Y21.6955
G01 X29.6068 Y21.6761
G01 X29.6109 Y21.6595
G01 X29.6172 Y21.6409
G01 X29.6192 Y21.6361
G01 X29.6272 Y21.6195
G01 X29.6381 Y21.6017
G01 X29.6484 Y21.5880
G01 X29.6616 Y21.5734
G01 X29.6761 Y21.5602
G01 X29.6917 Y21.5487
G01 X29.7085 Y21.5386
G01 X29.7263 Y21.5301
G01 X29.7448 Y21.5235
G01 X29.7614 Y21.5193
G01 X29.7665 Y21.5182
G01 X29.7859 Y21.5156
G01 X29.8030 Y21.5148
G01 X29.8224 Y21.5157
G01 X29.8419 Y21.5186
G01 X29.8585 Y21.5227
G01 X29.8808 Y21.5305
G01 X29.8972 Y21.5383
G01 X29.9119 Y21.5471
G01 X29.9298 Y21.5601
G01 X29.9444 Y21.5732
G01 X29.9930 Y21.6219
G01 X30.0646 Y21.6577
G01 X30.3273 Y21.6577
G01 X30.3989 Y21.6219
G01 X30.4244 Y21.5964
G01 X30.4602 Y21.5248
G01 X30.4602 Y21.2621
G01 X30.4244 Y21.1905
G01 X30.3989 Y21.1650
G01 X30.3273 Y21.1292
G01 X30.0646 Y21.1292
G01 X29.9930 Y21.1650
G01 X29.9446 Y21.2135
G01 X29.9309 Y21.2259
G01 X29.9142 Y21.2384
G01 X29.8995 Y21.2473
G01 X29.8796 Y21.2569
G01 X29.8612 Y21.2635
G01 X29.8421 Y21.2683
G01 X29.8239 Y21.2710
G01 X29.8031 Y21.2721
G01 X29.7835 Y21.2711
G01 X29.7641 Y21.2683
G01 X29.7427 Y21.2627
G01 X29.7265 Y21.2569
G01 X29.7110 Y21.2496
G01 X29.6940 Y21.2397
G01 X29.6762 Y21.2267
G01 X29.6625 Y21.2144
G01 X29.6484 Y21.1990
G01 X29.6354 Y21.1811
G01 X29.6266 Y21.1663
G01 X29.6192 Y21.1508
G01 X29.6116 Y21.1301
G01 X29.6064 Y21.1086
G01 X29.6040 Y21.0916
G01 X29.6031 Y21.0745
G01 X29.6040 Y21.0524
G01 X29.6071 Y21.0318
G01 X29.6116 Y21.0140
G01 X29.6192 Y20.9932
G01 X29.6278 Y20.9756
G01 X29.6367 Y20.9609
G01 X29.6469 Y20.9470
G01 X29.6616 Y20.9306
G01 X29.7330 Y20.8591
G01 X29.7466 Y20.8467
G01 X29.7528 Y20.8418
G01 X29.7634 Y20.8342
G01 X29.7802 Y20.8242
G01 X29.9279 Y20.7502
G01 X29.9397 Y20.7448
G01 X29.9470 Y20.7419
G01 X29.9593 Y20.7377
G01 X29.9783 Y20.7329
G01 X29.9978 Y20.7301
G01 X30.0161 Y20.7291
G01 X30.3745 Y20.7291
G01 X30.3899 Y20.7297
G01 X30.4082 Y20.7320
G01 X30.4262 Y20.7359
G01 X30.4338 Y20.7381
G01 X30.4499 Y20.7439
G01 X30.4629 Y20.7497
G01 X30.6068 Y20.8216
G01 X30.6229 Y20.8306
G01 X30.6295 Y20.8349
G01 X30.6443 Y20.8459
G01 X30.6549 Y20.8553
G01 X30.7303 Y20.9306
G01 X30.7435 Y20.9451
G01 X30.7552 Y20.9609
G01 X30.7647 Y20.9766
G01 X30.7677 Y20.9826
G01 X30.8392 Y21.1254
G01 X30.8471 Y21.1434
G01 X30.8513 Y21.1556
G01 X30.8535 Y21.1632
G01 X30.8576 Y21.1824
G01 X30.8594 Y21.1965
G01 X30.8603 Y21.2137
G01 X30.8603 Y21.5733
G01 X30.8597 Y21.5874
G01 X30.8576 Y21.6045
G01 X30.8535 Y21.6237
G01 X30.8513 Y21.6313
G01 X30.8471 Y21.6435
G01 X30.8397 Y21.6604
G01 X30.7647 Y21.8103
G01 X30.7574 Y21.8225
G01 X30.7476 Y21.8366
G01 X30.7427 Y21.8428
G01 X30.7303 Y21.8564
G01 X30.6549 Y21.9316
G01 X30.6433 Y21.9417
G01 X30.6285 Y21.9527
G01 X30.6229 Y21.9563
G01 X30.6068 Y21.9653
G01 X30.4640 Y22.0367
G01 X30.4460 Y22.0446
G01 X30.4274 Y22.0507
G01 X30.4082 Y22.0550
G01 X30.3953 Y22.0567
G01 X30.3875 Y22.0574
G01 X30.3745 Y22.0578
G01 X30.0384 Y22.0578
G01 X30.0556 Y22.2291
G01 X30.5888 Y22.2291
G01 X30.6060 Y22.2299
G01 X30.6278 Y22.2329
G01 X30.6492 Y22.2385
G01 X30.6654 Y22.2443
G01 X30.6809 Y22.2516
G01 X30.7000 Y22.2628
G01 X30.7157 Y22.2745
G01 X30.7303 Y22.2877
G01 X30.7435 Y22.3022
G01 X30.7552 Y22.3180
G01 X30.7652 Y22.3349
G01 X30.7736 Y22.3526
G01 X30.7803 Y22.3711
G01 X30.7850 Y22.3901
G01 X30.7879 Y22.4096
G01 X30.7889 Y22.4292
G01 X30.7879 Y22.4488
G01 X30.7850 Y22.4682
G01 X30.7803 Y22.4873
G01 X30.7736 Y22.5057
G01 X30.7652 Y22.5235
G01 X30.7545 Y22.5413
G01 X30.7435 Y22.5561
G01 X30.7285 Y22.5723
G01 X30.7138 Y22.5853
G01 X30.7000 Y22.5955
G01 X30.6852 Y22.6044
G01 X30.6654 Y22.6140
G01 X30.6469 Y22.6206
G01 X30.6278 Y22.6254
G01 X30.6060 Y22.6285
G01 X30.5888 Y22.6292
G01 X29.8721 Y22.6292
G01 X29.8549 Y22.6283
G01 X29.8382 Y22.6259
G01 X29.8165 Y22.6206
G01 X29.7982 Y22.6141
G01 X29.7827 Y22.6069
G01 X29.7624 Y22.5948
G01 X29.7476 Y22.5839
G01 X29.7331 Y22.5707
G01 X29.7199 Y22.5561
G01 X29.7082 Y22.5404
G01 X29.6981 Y22.5235
G01 X29.6897 Y22.5058
G01 X29.6831 Y22.4873
G01 X29.6781 Y22.4670
G01 X29.6754 Y22.4491
G01 X29.6040 Y21.7345
G00 Z2.0000
G00 X30.8888 Y22.4237
G01 F60.00
G01 Z-0.1000
G01 F120.00
G01 X30.8907 Y22.4017
G01 X30.8937 Y22.3848
G01 X30.8990 Y22.3659
G01 X31.3990 Y20.8659
G01 X31.4019 Y20.8577
G01 X31.4066 Y20.8465
G01 X31.4150 Y20.8301
G01 X31.4255 Y20.8135
G01 X31.4376 Y20.7981
G01 X31.4512 Y20.7839
G01 X31.4661 Y20.7711
G01 X31.4822 Y20.7599
G01 X31.4993 Y20.7502
G01 X31.5173 Y20.7423
G01 X31.5360 Y20.7362
G01 X31.5551 Y20.7320
G01 X31.5746 Y20.7296
G01 X31.5942 Y20.7292
G01 X31.6138 Y20.7307
G01 X31.6332 Y20.7341
G01 X31.6521 Y20.7394
G01 X31.6603 Y20.7423
G01 X31.6715 Y20.7470
G01 X31.6879 Y20.7554
G01 X31.6954 Y20.7599
G01 X31.7054 Y20.7666
G01 X31.7208 Y20.7788
G01 X31.7272 Y20.7848
G01 X31.7391 Y20.7972
G01 X31.7469 Y20.8065
G01 X31.7521 Y20.8135
G01 X31.7626 Y20.8301
G01 X31.7715 Y20.8476
G01 X31.7786 Y20.8659
G01 X32.2790 Y22.3671
G01 X32.2839 Y22.3848
G01 X32.2873 Y22.4041
G01 X32.2888 Y22.4237
G01 X32.2884 Y22.4434
G01 X32.2860 Y22.4628
G01 X32.2818 Y22.4820
G01 X32.2757 Y22.5007
G01 X32.2683 Y22.5175
G01 X32.2581 Y22.5358
G01 X32.2453 Y22.5537
G01 X32.2341 Y22.5667
G01 X32.2217 Y22.5787
G01 X32.2044 Y22.5924
G01 X32.1857 Y22.6042
G01 X32.1704 Y22.6119
G01 X32.1544 Y22.6181
G01 X32.1332 Y22.6243
G01 X32.1114 Y22.6279
G01 X32.0942 Y22.6292
G01 X32.0771 Y22.6289
G01 X32.0551 Y22.6264
G01 X32.0336 Y22.6214
G01 X32.0173 Y22.6160
G01 X32.0015 Y22.6092
G01 X31.9822 Y22.5985
G01 X31.9642 Y22.5857
G01 X31.9512 Y22.5744
G01 X31.9393 Y22.5621
G01 X31.9255 Y22.5448
G01 X31.9138 Y22.5261
G01 X31.9061 Y22.5107
G01 X31.8990 Y22.4924
G01 X31.5888 Y21.5619
G01 X31.2782 Y22.4936
G01 X31.2715 Y22.5107
G01 X31.2626 Y22.5283
G01 X31.2521 Y22.5448
G01 X31.2407 Y22.5593
G01 X31.2245 Y22.5761
G01 X31.2115 Y22.5872
G01 X31.1954 Y22.5985
G01 X31.1783 Y22.6081
G01 X31.1626 Y22.6151
G01 X31.1416 Y22.6221
G01 X31.1225 Y22.6264
G01 X31.1054 Y22.6285
G01 X31.0833 Y22.6292
G01 X31.0638 Y22.6277
G01 X31.0468 Y22.6248
G01 X31.0232 Y22.6181
G01 X31.0072 Y22.6119
G01 X30.9897 Y22.6030
G01 X30.9732 Y22.5924
G01 X30.9596 Y22.5819
G01 X30.9419 Y22.5649
G01 X30.9307 Y22.5518
G01 X30.9208 Y22.5378
G01 X30.9088 Y22.5164
G01 X30.9019 Y22.5007
G01 X30.8958 Y22.4820
G01 X30.8916 Y22.4628
G01 X30.8895 Y22.4458
G01 X30.8888 Y22.4237
G00 Z2.0000
G00 X33.5328 Y22.4512
G01 F60.00
G01 Z-0.1000
G01 F120.00
G01 X33.5316 Y22.4292
G01 X33.5316 Y20.9292
G01 X33.5327 Y20.9083
G01 X33.5354 Y20.8901
G01 X33.5402 Y20.8711
G01 X33.5468 Y20.8526
G01 X33.5552 Y20.8349
G01 X33.5653 Y20.8180
G01 X33.5770 Y20.8022
G01 X33.5902 Y20.7877
G01 X33.6047 Y20.7745
G01 X33.6205 Y20.7628
G01 X33.6373 Y20.7527
G01 X33.6551 Y20.7443
G01 X33.6736 Y20.7377
G01 X33.6926 Y20.7329
G01 X33.7120 Y20.7301
G01 X33.7317 Y20.7291
G01 X33.7525 Y20.7302
G01 X33.7707 Y20.7329
G01 X33.7897 Y20.7377
G01 X33.8082 Y20.7443
G01 X33.8238 Y20.7516
G01 X33.8448 Y20.7642
G01 X33.8586 Y20.7745
G01 X33.8731 Y20.7877
G01 X33.8863 Y20.8022
G01 X33.8980 Y20.8180
G01 X33.9081 Y20.8349
G01 X33.9155 Y20.8504
G01 X33.9238 Y20.8735
G01 X33.9279 Y20.8901
G01 X33.9308 Y20.9096
G01 X33.9317 Y20.9292
G01 X33.9317 Y22.4292
G01 X33.9306 Y22.4500
G01 X33.9279 Y22.4682
G01 X33.9231 Y22.4873
G01 X33.9165 Y22.5057
G01 X33.9081 Y22.5235
G01 X33.8980 Y22.5403
G01 X33.8863 Y22.5561
G01 X33.8731 Y22.5706
G01 X33.8604 Y22.5822
G01 X33.8407 Y22.5968
G01 X33.8260 Y22.6056
G01 X33.8059 Y22.6149
G01 X33.7897 Y22.6206
G01 X33.7707 Y22.6254
G01 X33.7513 Y22.6283
G01 X33.7317 Y22.6292
G01 X33.7120 Y22.6283
G01 X33.6926 Y22.6254
G01 X33.6736 Y22.6206
G01 X33.6574 Y22.6149
G01 X33.6373 Y22.6056
G01 X33.6226 Y22.5968
G01 X33.6029 Y22.5822
G01 X33.5902 Y22.5706
G01 X33.5770 Y22.5561
G01 X33.5653 Y22.5403
G01 X33.5552 Y22.5235
G01 X33.5468 Y22.5057
G01 X33.5402 Y22.4873
G01 X33.5354 Y22.4682
G01 X33.5328 Y22.4512
G00 Z2.0000
G00 X34.2471 Y21.9512
G01 F60.00
G01 Z-0.1000
G01 F120.00
G01 X34.2459 Y21.9292
G01 X34.2459 Y20.9267
G01 X34.2468 Y20.9096
G01 X34.2497 Y20.8901
G01 X34.2545 Y20.8711
G01 X34.2602 Y20.8549
G01 X34.2707 Y20.8327
G01 X34.2796 Y20.8180
G01 X34.2913 Y20.8022
G01 X34.3045 Y20.7877
G01 X34.3209 Y20.7730
G01 X34.3348 Y20.7628
G01 X34.3495 Y20.7539
G01 X34.3694 Y20.7443
G01 X34.3879 Y20.7377
G01 X34.4093 Y20.7325
G01 X34.4263 Y20.7301
G01 X34.4435 Y20.7292
G01 X34.4655 Y20.7301
G01 X34.4874 Y20.7335
G01 X34.5040 Y20.7377
G01 X34.5202 Y20.7434
G01 X34.5403 Y20.7527
G01 X34.5571 Y20.7628
G01 X34.5729 Y20.7745
G01 X34.5891 Y20.7895
G01 X34.6006 Y20.8022
G01 X34.6109 Y20.8160
G01 X34.6218 Y20.8338
G01 X34.6308 Y20.8526
G01 X34.6381 Y20.8735
G01 X34.6422 Y20.8901
G01 X34.6447 Y20.9071
G01 X34.6460 Y20.9279
G01 X34.6460 Y21.6984
G01 X34.7075 Y21.7291
G01 X34.8273 Y21.7291
G01 X34.8682 Y21.7086
G01 X34.8887 Y21.6677
G01 X34.8887 Y20.9279
G01 X34.8897 Y20.9096
G01 X34.8926 Y20.8901
G01 X34.8973 Y20.8711
G01 X34.9040 Y20.8526
G01 X34.9136 Y20.8327
G01 X34.9224 Y20.8180
G01 X34.9326 Y20.8042
G01 X34.9473 Y20.7877
G01 X34.9619 Y20.7745
G01 X34.9776 Y20.7628
G01 X34.9967 Y20.7516
G01 X35.0145 Y20.7434
G01 X35.0307 Y20.7377
G01 X35.0474 Y20.7335
G01 X35.0692 Y20.7301
G01 X35.0888 Y20.7291
G01 X35.1084 Y20.7301
G01 X35.1302 Y20.7335
G01 X35.1469 Y20.7377
G01 X35.1631 Y20.7434
G01 X35.1809 Y20.7516
G01 X35.2000 Y20.7628
G01 X35.2157 Y20.7745
G01 X35.2303 Y20.7877
G01 X35.2435 Y20.8022
G01 X35.2552 Y20.8180
G01 X35.2652 Y20.8349
G01 X35.2736 Y20.8526
G01 X35.2803 Y20.8711
G01 X35.2850 Y20.8901
G01 X35.2880 Y20.9108
G01 X35.2889 Y20.9292
G01 X35.2889 Y21.7149
G01 X35.2884 Y21.7278
G01 X35.2878 Y21.7357
G01 X35.2860 Y21.7486
G01 X35.2818 Y21.7677
G01 X35.2757 Y21.7864
G01 X35.2683 Y21.8033
G01 X35.1918 Y21.9558
G01 X35.1867 Y21.9643
G01 X35.1806 Y21.9734
G01 X35.1693 Y21.9879
G01 X35.1626 Y21.9953
G01 X35.1558 Y22.0022
G01 X35.1475 Y22.0097
G01 X35.1330 Y22.0210
G01 X35.1240 Y22.0271
G01 X35.1154 Y22.0322
G01 X34.9629 Y22.1087
G01 X34.9499 Y22.1145
G01 X34.9338 Y22.1203
G01 X34.9262 Y22.1225
G01 X34.9135 Y22.1254
G01 X34.8941 Y22.1283
G01 X34.8757 Y22.1292
G01 X34.6602 Y22.1292
G01 X34.6460 Y22.1287
G01 X34.6278 Y22.1266
G01 X34.6212 Y22.1254
G01 X34.6086 Y22.1225
G01 X34.6010 Y22.1203
G01 X34.5825 Y22.1135
G01 X34.5719 Y22.1087
G01 X34.5519 Y22.0987
G01 X34.5403 Y22.1056
G01 X34.5236 Y22.1135
G01 X34.5028 Y22.1210
G01 X34.4850 Y22.1254
G01 X34.4680 Y22.1280
G01 X34.4435 Y22.1292
G01 X34.4263 Y22.1283
G01 X34.4069 Y22.1254
G01 X34.3879 Y22.1206
G01 X34.3717 Y22.1149
G01 X34.3516 Y22.1056
G01 X34.3369 Y22.0968
G01 X34.3172 Y22.0822
G01 X34.3045 Y22.0706
G01 X34.2913 Y22.0561
G01 X34.2796 Y22.0403
G01 X34.2695 Y22.0235
G01 X34.2611 Y22.0057
G01 X34.2545 Y21.9873
G01 X34.2497 Y21.9682
G01 X34.2471 Y21.9512
G00 Z2.0000
G00 X35.6113 Y21.9861
G01 F60.00
G01 Z-0.1000
G01 F120.00
G01 X35.6069 Y21.9683
G01 X35.6043 Y21.9512
G01 X35.6030 Y21.9292
G01 X35.6030 Y20.4292
G01 X35.6041 Y20.4083
G01 X35.6069 Y20.3901
G01 X35.6116 Y20.3711
G01 X35.6182 Y20.3526
G01 X35.6266 Y20.3349
G01 X35.6367 Y20.3180
G01 X35.6484 Y20.3022
G01 X35.6616 Y20.2877
G01 X35.6762 Y20.2745
G01 X35.6919 Y20.2628
G01 X35.7088 Y20.2527
G01 X35.7265 Y20.2443
G01 X35.7450 Y20.2377
G01 X35.7640 Y20.2329
G01 X35.7835 Y20.2301
G01 X35.8031 Y20.2291
G01 X35.8239 Y20.2302
G01 X35.8421 Y20.2329
G01 X35.8588 Y20.2371
G01 X35.8796 Y20.2443
G01 X35.8995 Y20.2539
G01 X35.9142 Y20.2628
G01 X35.9281 Y20.2730
G01 X35.9446 Y20.2877
G01 X35.9593 Y20.3042
G01 X35.9694 Y20.3180
G01 X35.9783 Y20.3327
G01 X35.9888 Y20.3549
G01 X35.9945 Y20.3711
G01 X35.9993 Y20.3901
G01 X36.0022 Y20.4096
G01 X36.0031 Y20.4267
G01 X36.0032 Y20.7291
G01 X36.2317 Y20.7291
G01 X36.2446 Y20.7295
G01 X36.2641 Y20.7318
G01 X36.2719 Y20.7332
G01 X36.2897 Y20.7377
G01 X36.3032 Y20.7423
G01 X36.3211 Y20.7502
G01 X36.4640 Y20.8216
G01 X36.4800 Y20.8306
G01 X36.4867 Y20.8349
G01 X36.5014 Y20.8459
G01 X36.5121 Y20.8553
G01 X36.5874 Y20.9306
G01 X36.6014 Y20.9461
G01 X36.6116 Y20.9599
G01 X36.6153 Y20.9654
G01 X36.6249 Y20.9826
G01 X36.6969 Y21.1265
G01 X36.7038 Y21.1422
G01 X36.7085 Y21.1556
G01 X36.7106 Y21.1632
G01 X36.7148 Y21.1824
G01 X36.7169 Y21.2007
G01 X36.7174 Y21.2149
G01 X36.7174 Y21.6435
G01 X36.7170 Y21.6564
G01 X36.7163 Y21.6643
G01 X36.7136 Y21.6825
G01 X36.7100 Y21.6975
G01 X36.7042 Y21.7150
G01 X36.6969 Y21.7318
G01 X36.6224 Y21.8806
G01 X36.6159 Y21.8919
G01 X36.6116 Y21.8985
G01 X36.6006 Y21.9132
G01 X36.5912 Y21.9239
G01 X36.5121 Y22.0030
G01 X36.5005 Y22.0132
G01 X36.4857 Y22.0241
G01 X36.4699 Y22.0336
G01 X36.4640 Y22.0367
G01 X36.3211 Y22.1081
G01 X36.3071 Y22.1145
G01 X36.2897 Y22.1206
G01 X36.2719 Y22.1251
G01 X36.2641 Y22.1266
G01 X36.2500 Y22.1284
G01 X36.2329 Y22.1292
G01 X35.9459 Y22.1292
G01 X35.9263 Y22.1283
G01 X35.9081 Y22.1256
G01 X35.8931 Y22.1221
G01 X35.8743 Y22.1160
G01 X35.8612 Y22.1206
G01 X35.8433 Y22.1251
G01 X35.8215 Y22.1284
G01 X35.8031 Y22.1292
G01 X35.7859 Y22.1285
G01 X35.7640 Y22.1254
G01 X35.7450 Y22.1206
G01 X35.7288 Y22.1149
G01 X35.7088 Y22.1056
G01 X35.6899 Y22.0941
G01 X35.6762 Y22.0838
G01 X35.6634 Y22.0723
G01 X35.6484 Y22.0561
G01 X35.6354 Y22.0383
G01 X35.6266 Y22.0235
G01 X35.6192 Y22.0080
G01 X35.6113 Y21.9861
G00 Z2.0000
G00 X36.2815 Y21.6678
G01 F60.00
G01 Z-0.1000
G01 F120.00
G01 X36.2560 Y21.6933
G01 X36.1844 Y21.7291
G01 X36.0032 Y21.7291
G01 X36.0032 Y21.1292
G01 X36.1844 Y21.1292
G01 X36.2560 Y21.1650
G01 X36.2815 Y21.1905
G01 X36.3173 Y21.2621
G01 X36.3173 Y21.5962
G01 X36.2815 Y21.6678
G00 Z2.0000
G00 X36.9609 Y21.9463
G01 F60.00
G01 Z-0.1000
G01 F120.00
G01 X36.9601 Y21.9292
G01 X36.9601 Y21.1435
G01 X36.9611 Y21.1238
G01 X36.9638 Y21.1056
G01 X36.9673 Y21.0906
G01 X36.9734 Y21.0720
G01 X36.9807 Y21.0551
G01 X37.0572 Y20.9026
G01 X37.0623 Y20.8940
G01 X37.0684 Y20.8850
G01 X37.0797 Y20.8704
G01 X37.0864 Y20.8630
G01 X37.0941 Y20.8553
G01 X37.1090 Y20.8425
G01 X37.1251 Y20.8313
G01 X37.1422 Y20.8216
G01 X37.2850 Y20.7502
G01 X37.2968 Y20.7448
G01 X37.3042 Y20.7419
G01 X37.3229 Y20.7359
G01 X37.3367 Y20.7327
G01 X37.3537 Y20.7302
G01 X37.3616 Y20.7295
G01 X37.3745 Y20.7291
G01 X37.5888 Y20.7291
G01 X37.6072 Y20.7300
G01 X37.6278 Y20.7329
G01 X37.6405 Y20.7359
G01 X37.6480 Y20.7381
G01 X37.6665 Y20.7448
G01 X37.6772 Y20.7497
G01 X37.6971 Y20.7596
G01 X37.7088 Y20.7527
G01 X37.7265 Y20.7443
G01 X37.7450 Y20.7377
G01 X37.7617 Y20.7335
G01 X37.7859 Y20.7299
G01 X37.8031 Y20.7291
G01 X37.8215 Y20.7300
G01 X37.8445 Y20.7335
G01 X37.8612 Y20.7377
G01 X37.8796 Y20.7443
G01 X37.8974 Y20.7527
G01 X37.9122 Y20.7615
G01 X37.9300 Y20.7745
G01 X37.9446 Y20.7877
G01 X37.9577 Y20.8022
G01 X37.9694 Y20.8180
G01 X37.9806 Y20.8370
G01 X37.9888 Y20.8549
G01 X37.9945 Y20.8711
G01 X37.9988 Y20.8877
G01 X38.0022 Y20.9096
G01 X38.0031 Y20.9279
G01 X38.0031 Y21.9316
G01 X38.0022 Y21.9488
G01 X37.9993 Y21.9682
G01 X37.9945 Y21.9873
G01 X37.9888 Y22.0034
G01 X37.9783 Y22.0256
G01 X37.9694 Y22.0403
G01 X37.9577 Y22.0561
G01 X37.9446 Y22.0706
G01 X37.9281 Y22.0853
G01 X37.9142 Y22.0955
G01 X37.8995 Y22.1044
G01 X37.8796 Y22.1140
G01 X37.8588 Y22.1213
G01 X37.8421 Y22.1254
G01 X37.8251 Y22.1280
G01 X37.8031 Y22.1292
G01 X37.7810 Y22.1280
G01 X37.7640 Y22.1254
G01 X37.7474 Y22.1213
G01 X37.7265 Y22.1140
G01 X37.7066 Y22.1044
G01 X37.6919 Y22.0955
G01 X37.6781 Y22.0853
G01 X37.6616 Y22.0706
G01 X37.6469 Y22.0542
G01 X37.6367 Y22.0403
G01 X37.6278 Y22.0256
G01 X37.6187 Y22.0069
G01 X37.6116 Y21.9873
G01 X37.6069 Y21.9682
G01 X37.6040 Y21.9488
G01 X37.6030 Y21.9304
G01 X37.6030 Y21.1600
G01 X37.5416 Y21.1292
G01 X37.4217 Y21.1292
G01 X37.3808 Y21.1497
G01 X37.3603 Y21.1907
G01 X37.3602 Y21.9316
G01 X37.3593 Y21.9488
G01 X37.3569 Y21.9658
G01 X37.3517 Y21.9873
G01 X37.3451 Y22.0057
G01 X37.3378 Y22.0213
G01 X37.3259 Y22.0413
G01 X37.3149 Y22.0561
G01 X37.3034 Y22.0689
G01 X37.2872 Y22.0838
G01 X37.2714 Y22.0955
G01 X37.2567 Y22.1044
G01 X37.2345 Y22.1149
G01 X37.2183 Y22.1206
G01 X37.1993 Y22.1254
G01 X37.1798 Y22.1283
G01 X37.1627 Y22.1292
G01 X37.1382 Y22.1280
G01 X37.1212 Y22.1254
G01 X37.1045 Y22.1213
G01 X37.0814 Y22.1130
G01 X37.0659 Y22.1056
G01 X37.0491 Y22.0955
G01 X37.0314 Y22.0822
G01 X37.0187 Y22.0706
G01 X37.0056 Y22.0561
G01 X36.9926 Y22.0383
G01 X36.9838 Y22.0235
G01 X36.9754 Y22.0057
G01 X36.9688 Y21.9873
G01 X36.9645 Y21.9706
G01 X36.9609 Y21.9463
G00 Z2.0000
G00 X38.1040 Y21.9096
G01 F60.00
G01 Z-0.1000
G01 F120.00
G01 X38.1069 Y21.8901
G01 X38.1116 Y21.8711
G01 X38.1182 Y21.8526
G01 X38.1266 Y21.8349
G01 X38.1367 Y21.8180
G01 X38.1484 Y21.8022
G01 X38.1616 Y21.7877
G01 X38.1752 Y21.7753
G01 X38.1919 Y21.7628
G01 X38.2088 Y21.7527
G01 X38.2265 Y21.7443
G01 X38.2438 Y21.7381
G01 X38.2640 Y21.7329
G01 X38.2823 Y21.7302
G01 X38.3019 Y21.7291
G01 X38.3173 Y21.7291
G01 X38.3173 Y21.1435
G01 X38.3177 Y21.1305
G01 X38.3184 Y21.1226
G01 X38.3211 Y21.1044
G01 X38.3247 Y21.0894
G01 X38.3305 Y21.0720
G01 X38.3379 Y21.0551
G01 X38.4104 Y20.9100
G01 X38.4195 Y20.8940
G01 X38.4307 Y20.8779
G01 X38.4435 Y20.8630
G01 X38.4577 Y20.8495
G01 X38.4732 Y20.8373
G01 X38.4822 Y20.8313
G01 X38.4908 Y20.8262
G01 X38.6422 Y20.7502
G01 X38.6540 Y20.7448
G01 X38.6613 Y20.7419
G01 X38.6736 Y20.7377
G01 X38.6800 Y20.7359
G01 X38.6980 Y20.7320
G01 X38.7162 Y20.7297
G01 X38.7317 Y20.7291
G01 X38.8745 Y20.7291
G01 X38.8966 Y20.7304
G01 X38.9135 Y20.7329
G01 X38.9302 Y20.7371
G01 X38.9511 Y20.7443
G01 X38.9710 Y20.7539
G01 X38.9857 Y20.7628
G01 X39.0005 Y20.7737
G01 X39.0160 Y20.7877
G01 X39.0292 Y20.8022
G01 X39.0409 Y20.8180
G01 X39.0498 Y20.8327
G01 X39.0602 Y20.8549
G01 X39.0660 Y20.8711
G01 X39.0712 Y20.8926
G01 X39.0736 Y20.9096
G01 X39.0746 Y20.9292
G01 X39.0736 Y20.9488
G01 X39.0707 Y20.9682
G01 X39.0660 Y20.9873
G01 X39.0594 Y21.0057
G01 X39.0510 Y21.0235
G01 X39.0409 Y21.0403
G01 X39.0292 Y21.0561
G01 X39.0177 Y21.0689
G01 X38.9995 Y21.0853
G01 X38.9857 Y21.0955
G01 X38.9688 Y21.1056
G01 X38.9511 Y21.1140
G01 X38.9338 Y21.1203
G01 X38.9135 Y21.1254
G01 X38.8917 Y21.1285
G01 X38.8745 Y21.1292
G01 X38.7789 Y21.1292
G01 X38.7379 Y21.1497
G01 X38.7174 Y21.1907
G01 X38.7174 Y21.7291
G01 X38.8745 Y21.7291
G01 X38.8953 Y21.7302
G01 X38.9159 Y21.7335
G01 X38.9326 Y21.7377
G01 X38.9488 Y21.7434
G01 X38.9688 Y21.7527
G01 X38.9857 Y21.7628
G01 X39.0033 Y21.7761
G01 X39.0160 Y21.7877
G01 X39.0292 Y21.8022
G01 X39.0422 Y21.8201
G01 X39.0510 Y21.8349
G01 X39.0594 Y21.8526
G01 X39.0660 Y21.8711
G01 X39.0702 Y21.8877
G01 X39.0736 Y21.9096
G01 X39.0745 Y21.9316
G01 X39.0736 Y21.9488
G01 X39.0707 Y21.9682
G01 X39.0660 Y21.9873
G01 X39.0584 Y22.0080
G01 X39.0510 Y22.0235
G01 X39.0422 Y22.0383
G01 X39.0292 Y22.0561
G01 X39.0160 Y22.0706
G01 X38.9995 Y22.0853
G01 X38.9857 Y22.0955
G01 X38.9710 Y22.1044
G01 X38.9522 Y22.1135
G01 X38.9326 Y22.1206
G01 X38.9159 Y22.1249
G01 X38.8929 Y22.1284
G01 X38.8745 Y22.1292
G01 X38.7174 Y22.1292
G01 X38.7174 Y22.4292
G01 X38.7165 Y22.4488
G01 X38.7138 Y22.4670
G01 X38.7088 Y22.4873
G01 X38.7022 Y22.5057
G01 X38.6938 Y22.5235
G01 X38.6850 Y22.5383
G01 X38.6704 Y22.5580
G01 X38.6588 Y22.5706
G01 X38.6433 Y22.5846
G01 X38.6285 Y22.5955
G01 X38.6117 Y22.6056
G01 X38.5939 Y22.6140
G01 X38.5754 Y22.6206
G01 X38.5564 Y22.6254
G01 X38.5370 Y22.6283
G01 X38.5174 Y22.6292
G01 X38.4978 Y22.6283
G01 X38.4783 Y22.6254
G01 X38.4593 Y22.6206
G01 X38.4408 Y22.6140
G01 X38.4231 Y22.6056
G01 X38.4062 Y22.5955
G01 X38.3904 Y22.5838
G01 X38.3759 Y22.5706
G01 X38.3619 Y22.5551
G01 X38.3510 Y22.5403
G01 X38.3421 Y22.5256
G01 X38.3325 Y22.5057
G01 X38.3259 Y22.4873
G01 X38.3217 Y22.4706
G01 X38.3183 Y22.4488
G01 X38.3173 Y22.4292
G01 X38.3173 Y22.1292
G01 X38.3019 Y22.1292
G01 X38.2847 Y22.1284
G01 X38.2653 Y22.1256
G01 X38.2450 Y22.1206
G01 X38.2277 Y22.1145
G01 X38.2088 Y22.1056
G01 X38.1919 Y22.0955
G01 X38.1762 Y22.0838
G01 X38.1608 Y22.0698
G01 X38.1484 Y22.0561
G01 X38.1354 Y22.0383
G01 X38.1266 Y22.0235
G01 X38.1192 Y22.0080
G01 X38.1124 Y21.9896
G01 X38.1069 Y21.9682
G01 X38.1040 Y21.9488
G01 X38.1030 Y21.9292
G01 X38.1040 Y21.9096
G00 Z2.0000
G00 X48.8447 Y23.0124
G01 F60.00
G01 Z-0.1000
G01 F120.00
G01 X48.8435 Y22.9904
G01 X48.8435 Y20.9891
G01 X48.8444 Y20.9708
G01 X48.8469 Y20.9537
G01 X48.8521 Y20.9323
G01 X48.8597 Y20.9116
G01 X48.8671 Y20.8960
G01 X48.8772 Y20.8792
G01 X48.8905 Y20.8616
G01 X48.9021 Y20.8489
G01 X48.9148 Y20.8373
G01 X48.9324 Y20.8240
G01 X48.9492 Y20.8139
G01 X48.9693 Y20.8046
G01 X48.9855 Y20.7989
G01 X49.0021 Y20.7947
G01 X49.0239 Y20.7913
G01 X49.0436 Y20.7903
G01 X49.0632 Y20.7913
G01 X49.0850 Y20.7947
G01 X49.1016 Y20.7989
G01 X49.1178 Y20.8046
G01 X49.1379 Y20.8139
G01 X49.1567 Y20.8254
G01 X49.1705 Y20.8357
G01 X49.1833 Y20.8472
G01 X49.1982 Y20.8634
G01 X49.2106 Y20.8802
G01 X49.2200 Y20.8960
G01 X49.2274 Y20.9116
G01 X49.2350 Y20.9323
G01 X49.2402 Y20.9537
G01 X49.2427 Y20.9708
G01 X49.2436 Y20.9879
G01 X49.2436 Y21.7427
G01 X49.4156 Y21.7427
G01 X50.0225 Y20.8756
G01 X50.0345 Y20.8601
G01 X50.0463 Y20.8476
G01 X50.0648 Y20.8315
G01 X50.0789 Y20.8216
G01 X50.0982 Y20.8109
G01 X50.1139 Y20.8039
G01 X50.1325 Y20.7977
G01 X50.1516 Y20.7933
G01 X50.1711 Y20.7909
G01 X50.1908 Y20.7903
G01 X50.2079 Y20.7915
G01 X50.2321 Y20.7956
G01 X50.2486 Y20.8002
G01 X50.2670 Y20.8072
G01 X50.2845 Y20.8160
G01 X50.3001 Y20.8258
G01 X50.3167 Y20.8385
G01 X50.3292 Y20.8503
G01 X50.3453 Y20.8688
G01 X50.3551 Y20.8828
G01 X50.3649 Y20.8999
G01 X50.3729 Y20.9178
G01 X50.3791 Y20.9364
G01 X50.3834 Y20.9556
G01 X50.3857 Y20.9726
G01 X50.3863 Y20.9972
G01 X50.3851 Y21.0143
G01 X50.3818 Y21.0336
G01 X50.3766 Y21.0526
G01 X50.3696 Y21.0709
G01 X50.3608 Y21.0885
G01 X50.3503 Y21.1051
G01 X49.8906 Y21.7618
G01 X50.0854 Y21.8590
G01 X50.1015 Y21.8680
G01 X50.1071 Y21.8716
G01 X50.1219 Y21.8826
G01 X50.1335 Y21.8927
G01 X50.2365 Y21.9956
G01 X50.2450 Y22.0054
G01 X50.2500 Y22.0115
G01 X50.2605 Y22.0266
G01 X50.2676 Y22.0389
G01 X50.3654 Y22.2342
G01 X50.3713 Y22.2471
G01 X50.3775 Y22.2644
G01 X50.3797 Y22.2720
G01 X50.3838 Y22.2912
G01 X50.3856 Y22.3053
G01 X50.3865 Y22.3225
G01 X50.3865 Y22.6094
G01 X50.3855 Y22.6290
G01 X50.3829 Y22.6472
G01 X50.3797 Y22.6611
G01 X50.3775 Y22.6687
G01 X50.3717 Y22.6848
G01 X50.3659 Y22.6978
G01 X50.2701 Y22.8894
G01 X50.2611 Y22.9054
G01 X50.2575 Y22.9110
G01 X50.2466 Y22.9259
G01 X50.2365 Y22.9375
G01 X50.1374 Y23.0366
G01 X50.1219 Y23.0506
G01 X50.1081 Y23.0608
G01 X50.1025 Y23.0644
G01 X50.0854 Y23.0741
G01 X49.8949 Y23.1693
G01 X49.8832 Y23.1747
G01 X49.8758 Y23.1776
G01 X49.8571 Y23.1836
G01 X49.8391 Y23.1876
G01 X49.8196 Y23.1899
G01 X49.8055 Y23.1904
G01 X49.0436 Y23.1904
G01 X49.0239 Y23.1895
G01 X49.0057 Y23.1868
G01 X48.9831 Y23.1811
G01 X48.9670 Y23.1752
G01 X48.9492 Y23.1668
G01 X48.9324 Y23.1567
G01 X48.9186 Y23.1465
G01 X48.9004 Y23.1301
G01 X48.8889 Y23.1173
G01 X48.8772 Y23.1015
G01 X48.8671 Y23.0847
G01 X48.8597 Y23.0692
G01 X48.8514 Y23.0461
G01 X48.8473 Y23.0294
G01 X48.8447 Y23.0124
G00 Z2.0000
G00 X49.8774 Y22.7307
G01 F60.00
G01 Z-0.1000
G01 F120.00
G01 X49.7582 Y22.7903
G01 X49.2436 Y22.7903
G01 X49.2436 Y22.1428
G01 X49.7582 Y22.1428
G01 X49.8774 Y22.2024
G01 X49.9267 Y22.2517
G01 X49.9863 Y22.3709
G01 X49.9863 Y22.5622
G01 X49.9267 Y22.6814
G01 X49.8774 Y22.7307
G00 Z2.0000
G00 X50.7492 Y22.9147
G01 F60.00
G01 Z-0.1000
G01 F120.00
G01 X50.7482 Y22.8951
G01 X50.7492 Y22.8755
G01 X50.7521 Y22.8561
G01 X50.7569 Y22.8370
G01 X50.7635 Y22.8186
G01 X50.7719 Y22.8008
G01 X50.7820 Y22.7840
G01 X50.7945 Y22.7673
G01 X50.8068 Y22.7536
G01 X50.9030 Y22.6576
G01 X50.9166 Y22.6452
G01 X50.9314 Y22.6342
G01 X50.9492 Y22.6234
G01 X50.9693 Y22.6142
G01 X50.9855 Y22.6084
G01 X51.0021 Y22.6042
G01 X51.0252 Y22.6007
G01 X51.0436 Y22.5998
G01 X51.0632 Y22.6008
G01 X51.0826 Y22.6037
G01 X51.1016 Y22.6084
G01 X51.1201 Y22.6150
G01 X51.1379 Y22.6234
G01 X51.1547 Y22.6335
G01 X51.1714 Y22.6460
G01 X51.1850 Y22.6584
G01 X51.2811 Y22.7545
G01 X51.2935 Y22.7682
G01 X51.3045 Y22.7830
G01 X51.3152 Y22.8008
G01 X51.3245 Y22.8208
G01 X51.3303 Y22.8370
G01 X51.3345 Y22.8537
G01 X51.3380 Y22.8767
G01 X51.3389 Y22.8951
G01 X51.3379 Y22.9147
G01 X51.3350 Y22.9342
G01 X51.3303 Y22.9532
G01 X51.3236 Y22.9717
G01 X51.3152 Y22.9894
G01 X51.3052 Y23.0063
G01 X51.2927 Y23.0230
G01 X51.2803 Y23.0366
G01 X51.1842 Y23.1327
G01 X51.1705 Y23.1450
G01 X51.1557 Y23.1560
G01 X51.1379 Y23.1668
G01 X51.1178 Y23.1761
G01 X51.1016 Y23.1818
G01 X51.0850 Y23.1861
G01 X51.0619 Y23.1896
G01 X51.0436 Y23.1904
G01 X51.0239 Y23.1895
G01 X51.0045 Y23.1866
G01 X50.9855 Y23.1818
G01 X50.9670 Y23.1752
G01 X50.9492 Y23.1668
G01 X50.9324 Y23.1567
G01 X50.9157 Y23.1442
G01 X50.9021 Y23.1318
G01 X50.8060 Y23.0357
G01 X50.7937 Y23.0221
G01 X50.7834 Y23.0083
G01 X50.7719 Y22.9894
G01 X50.7626 Y22.9694
G01 X50.7569 Y22.9532
G01 X50.7526 Y22.9366
G01 X50.7492 Y22.9147
G00 Z2.0000
G00 X50.8447 Y22.3457
G01 F60.00
G01 Z-0.1000
G01 F120.00
G01 X50.8435 Y22.3237
G01 X50.8435 Y20.9904
G01 X50.8447 Y20.9683
G01 X50.8473 Y20.9513
G01 X50.8521 Y20.9323
G01 X50.8587 Y20.9138
G01 X50.8671 Y20.8960
G01 X50.8772 Y20.8792
G01 X50.8889 Y20.8634
G01 X50.9021 Y20.8489
G01 X50.9166 Y20.8357
G01 X50.9324 Y20.8240
G01 X50.9492 Y20.8139
G01 X50.9670 Y20.8055
G01 X50.9855 Y20.7989
G01 X51.0045 Y20.7941
G01 X51.0239 Y20.7913
G01 X51.0436 Y20.7903
G01 X51.0656 Y20.7916
G01 X51.0826 Y20.7941
G01 X51.1016 Y20.7989
G01 X51.1201 Y20.8055
G01 X51.1357 Y20.8128
G01 X51.1567 Y20.8254
G01 X51.1705 Y20.8357
G01 X51.1850 Y20.8489
G01 X51.1982 Y20.8634
G01 X51.2085 Y20.8772
G01 X51.2211 Y20.8982
G01 X51.2284 Y20.9138
G01 X51.2350 Y20.9323
G01 X51.2398 Y20.9513
G01 X51.2425 Y20.9695
G01 X51.2436 Y20.9904
G01 X51.2436 Y22.3237
G01 X51.2424 Y22.3457
G01 X51.2398 Y22.3627
G01 X51.2350 Y22.3818
G01 X51.2284 Y22.4003
G01 X51.2200 Y22.4180
G01 X51.2099 Y22.4349
G01 X51.1982 Y22.4506
G01 X51.1850 Y22.4652
G01 X51.1723 Y22.4768
G01 X51.1526 Y22.4914
G01 X51.1379 Y22.5001
G01 X51.1178 Y22.5094
G01 X51.1016 Y22.5152
G01 X51.0826 Y22.5199
G01 X51.0632 Y22.5228
G01 X51.0436 Y22.5238
G01 X51.0239 Y22.5228
G01 X51.0045 Y22.5199
G01 X50.9855 Y22.5152
G01 X50.9693 Y22.5094
G01 X50.9492 Y22.5001
G01 X50.9345 Y22.4914
G01 X50.9148 Y22.4768
G01 X50.9021 Y22.4652
G01 X50.8889 Y22.4506
G01 X50.8772 Y22.4349
G01 X50.8671 Y22.4180
G01 X50.8587 Y22.4003
G01 X50.8521 Y22.3818
G01 X50.8473 Y22.3627
G01 X50.8447 Y22.3457
G00 Z2.0000
G00 X51.7012 Y21.9581
G01 F60.00
G01 Z-0.1000
G01 F120.00
G01 X51.7006 Y21.9427
G01 X51.7006 Y21.3713
G01 X51.7011 Y21.3571
G01 X51.7033 Y21.3389
G01 X51.7047 Y21.3311
G01 X51.7096 Y21.3121
G01 X51.7154 Y21.2959
G01 X51.7212 Y21.2829
G01 X51.8195 Y21.0865
G01 X51.8296 Y21.0697
G01 X51.8413 Y21.0539
G01 X51.8545 Y21.0394
G01 X51.9527 Y20.9412
G01 X51.9642 Y20.9309
G01 X51.9800 Y20.9192
G01 X51.9856 Y20.9156
G01 X52.0017 Y20.9066
G01 X52.1922 Y20.8114
G01 X52.2051 Y20.8055
G01 X52.2224 Y20.7993
G01 X52.2300 Y20.7971
G01 X52.2492 Y20.7929
G01 X52.2633 Y20.7911
G01 X52.2804 Y20.7903
G01 X52.6530 Y20.7903
G01 X52.6530 Y20.7519
G01 X52.5934 Y20.6327
G01 X52.5441 Y20.5834
G01 X52.4249 Y20.5238
G01 X52.2336 Y20.5238
G01 X52.0832 Y20.5989
G01 X52.0674 Y20.6058
G01 X52.0511 Y20.6112
G01 X52.0272 Y20.6165
G01 X52.0101 Y20.6185
G01 X51.9905 Y20.6189
G01 X51.9709 Y20.6174
G01 X51.9540 Y20.6145
G01 X51.9304 Y20.6079
G01 X51.9144 Y20.6016
G01 X51.8969 Y20.5928
G01 X51.8803 Y20.5822
G01 X51.8648 Y20.5701
G01 X51.8507 Y20.5565
G01 X51.8379 Y20.5416
G01 X51.8266 Y20.5255
G01 X51.8170 Y20.5084
G01 X51.8091 Y20.4904
G01 X51.8030 Y20.4718
G01 X51.7987 Y20.4526
G01 X51.7964 Y20.4331
G01 X51.7959 Y20.4135
G01 X51.7974 Y20.3939
G01 X51.8008 Y20.3746
G01 X51.8061 Y20.3557
G01 X51.8132 Y20.3374
G01 X51.8234 Y20.3177
G01 X51.8327 Y20.3033
G01 X51.8432 Y20.2897
G01 X51.8584 Y20.2737
G01 X51.8752 Y20.2594
G01 X51.8894 Y20.2496
G01 X51.9043 Y20.2411
G01 X52.0969 Y20.1447
G01 X52.1087 Y20.1393
G01 X52.1161 Y20.1364
G01 X52.1348 Y20.1304
G01 X52.1527 Y20.1265
G01 X52.1722 Y20.1241
G01 X52.1864 Y20.1236
G01 X52.4721 Y20.1236
G01 X52.4917 Y20.1246
G01 X52.5112 Y20.1275
G01 X52.5238 Y20.1304
G01 X52.5314 Y20.1326
G01 X52.5476 Y20.1384
G01 X52.5605 Y20.1442
G01 X52.7521 Y20.2400
G01 X52.7692 Y20.2496
G01 X52.7748 Y20.2533
G01 X52.7886 Y20.2635
G01 X52.8041 Y20.2775
G01 X52.9031 Y20.3766
G01 X52.9133 Y20.3882
G01 X52.9242 Y20.4030
G01 X52.9278 Y20.4086
G01 X52.9368 Y20.4247
G01 X53.0320 Y20.6152
G01 X53.0374 Y20.6270
G01 X53.0404 Y20.6343
G01 X53.0464 Y20.6530
G01 X53.0495 Y20.6668
G01 X53.0521 Y20.6838
G01 X53.0527 Y20.6917
G01 X53.0532 Y20.7046
G01 X53.0531 Y22.3249
G01 X53.0522 Y22.3433
G01 X53.0497 Y22.3603
G01 X53.0445 Y22.3818
G01 X53.0369 Y22.4025
G01 X53.0295 Y22.4180
G01 X53.0201 Y22.4338
G01 X53.0077 Y22.4506
G01 X52.9946 Y22.4652
G01 X52.9800 Y22.4784
G01 X52.9622 Y22.4914
G01 X52.9474 Y22.5001
G01 X52.9319 Y22.5075
G01 X52.9135 Y22.5144
G01 X52.8921 Y22.5199
G01 X52.8727 Y22.5228
G01 X52.8506 Y22.5237
G01 X52.8335 Y22.5228
G01 X52.8140 Y22.5199
G01 X52.7950 Y22.5152
G01 X52.7788 Y22.5094
G01 X52.7580 Y22.4997
G01 X52.7403 Y22.5081
G01 X52.7341 Y22.5106
G01 X52.7219 Y22.5148
G01 X52.7143 Y22.5170
G01 X52.7004 Y22.5202
G01 X52.6834 Y22.5227
G01 X52.6638 Y22.5238
G01 X52.2804 Y22.5238
G01 X52.2620 Y22.5228
G01 X52.2438 Y22.5202
G01 X52.2288 Y22.5167
G01 X52.2113 Y22.5110
G01 X52.2040 Y22.5081
G01 X52.1922 Y22.5026
G01 X52.0017 Y22.4074
G01 X51.9856 Y22.3984
G01 X51.9800 Y22.3948
G01 X51.9652 Y22.3839
G01 X51.9536 Y22.3737
G01 X51.8498 Y22.2699
G01 X51.8405 Y22.2592
G01 X51.8303 Y22.2454
G01 X51.8260 Y22.2388
G01 X51.8195 Y22.2275
G01 X51.7212 Y22.0311
G01 X51.7138 Y22.0142
G01 X51.7077 Y21.9956
G01 X51.7035 Y21.9764
G01 X51.7012 Y21.9581
G00 Z2.0000
G00 X52.3289 Y22.1236
G01 F60.00
G01 Z-0.1000
G01 F120.00
G01 X52.2097 Y22.0640
G01 X52.1604 Y22.0147
G01 X52.1008 Y21.8955
G01 X52.1008 Y21.4185
G01 X52.1604 Y21.2994
G01 X52.2097 Y21.2500
G01 X52.3289 Y21.1904
G01 X52.6154 Y21.1904
G01 X52.6530 Y21.2093
G01 X52.6530 Y22.1048
G01 X52.6154 Y22.1236
G01 X52.3289 Y22.1236
G00 Z2.0000
G00 X53.6067 Y23.0124
G01 F60.00
G01 Z-0.1000
G01 F120.00
G01 X53.6054 Y22.9904
G01 X53.6054 Y20.9904
G01 X53.6064 Y20.9708
G01 X53.6098 Y20.9489
G01 X53.6140 Y20.9323
G01 X53.6197 Y20.9161
G01 X53.6290 Y20.8960
G01 X53.6405 Y20.8772
G01 X53.6508 Y20.8634
G01 X53.6623 Y20.8507
G01 X53.6785 Y20.8357
G01 X53.6964 Y20.8227
G01 X53.7111 Y20.8139
G01 X53.7267 Y20.8065
G01 X53.7474 Y20.7989
G01 X53.7688 Y20.7937
G01 X53.7859 Y20.7913
G01 X53.8055 Y20.7903
G01 X53.8275 Y20.7916
G01 X53.8445 Y20.7941
G01 X53.8612 Y20.7982
G01 X53.8820 Y20.8055
G01 X53.9019 Y20.8151
G01 X53.9166 Y20.8240
G01 X53.9305 Y20.8342
G01 X53.9469 Y20.8489
G01 X53.9616 Y20.8654
G01 X53.9718 Y20.8792
G01 X53.9813 Y20.8950
G01 X53.9903 Y20.9138
G01 X53.9976 Y20.9346
G01 X54.0017 Y20.9513
G01 X54.0043 Y20.9683
G01 X54.0055 Y20.9891
G01 X54.0055 Y22.0503
G01 X54.0192 Y22.0640
G01 X54.1384 Y22.1236
G01 X54.3297 Y22.1236
G01 X54.4182 Y22.0793
G01 X54.4625 Y21.9907
G01 X54.4625 Y20.9904
G01 X54.4635 Y20.9708
G01 X54.4660 Y20.9537
G01 X54.4715 Y20.9311
G01 X54.4778 Y20.9138
G01 X54.4874 Y20.8939
G01 X54.4962 Y20.8792
G01 X54.5064 Y20.8654
G01 X54.5194 Y20.8507
G01 X54.5357 Y20.8357
G01 X54.5515 Y20.8240
G01 X54.5683 Y20.8139
G01 X54.5860 Y20.8055
G01 X54.6045 Y20.7989
G01 X54.6236 Y20.7941
G01 X54.6430 Y20.7913
G01 X54.6651 Y20.7903
G01 X54.6822 Y20.7913
G01 X54.6992 Y20.7937
G01 X54.7183 Y20.7982
G01 X54.7392 Y20.8055
G01 X54.7569 Y20.8139
G01 X54.7738 Y20.8240
G01 X54.7914 Y20.8373
G01 X54.8041 Y20.8489
G01 X54.8157 Y20.8616
G01 X54.8290 Y20.8792
G01 X54.8391 Y20.8960
G01 X54.8483 Y20.9161
G01 X54.8541 Y20.9323
G01 X54.8583 Y20.9489
G01 X54.8617 Y20.9708
G01 X54.8627 Y20.9904
G01 X54.8627 Y22.0380
G01 X54.8617 Y22.0576
G01 X54.8588 Y22.0770
G01 X54.8541 Y22.0961
G01 X54.8475 Y22.1145
G01 X54.8416 Y22.1275
G01 X54.7458 Y22.3190
G01 X54.7373 Y22.3340
G01 X54.7306 Y22.3441
G01 X54.7247 Y22.3521
G01 X54.7135 Y22.3651
G01 X54.7049 Y22.3737
G01 X54.6975 Y22.3804
G01 X54.6840 Y22.3910
G01 X54.6740 Y22.3978
G01 X54.6568 Y22.4074
G01 X54.4664 Y22.5026
G01 X54.4484 Y22.5106
G01 X54.4361 Y22.5148
G01 X54.4285 Y22.5170
G01 X54.4147 Y22.5202
G01 X54.3977 Y22.5227
G01 X54.3781 Y22.5238
G01 X54.0899 Y22.5238
G01 X54.0716 Y22.5228
G01 X54.0587 Y22.5211
G01 X54.0509 Y22.5197
G01 X54.0319 Y22.5148
G01 X54.0197 Y22.5106
G01 X54.0055 Y22.5044
G01 X54.0055 Y22.9904
G01 X54.0043 Y23.0124
G01 X54.0012 Y23.0318
G01 X53.9969 Y23.0484
G01 X53.9912 Y23.0646
G01 X53.9819 Y23.0847
G01 X53.9731 Y23.0994
G01 X53.9601 Y23.1173
G01 X53.9469 Y23.1318
G01 X53.9324 Y23.1450
G01 X53.9145 Y23.1580
G01 X53.8998 Y23.1668
G01 X53.8843 Y23.1742
G01 X53.8659 Y23.1811
G01 X53.8445 Y23.1866
G01 X53.8251 Y23.1895
G01 X53.8030 Y23.1904
G01 X53.7859 Y23.1895
G01 X53.7688 Y23.1870
G01 X53.7474 Y23.1818
G01 X53.7267 Y23.1742
G01 X53.7111 Y23.1668
G01 X53.6964 Y23.1580
G01 X53.6785 Y23.1450
G01 X53.6623 Y23.1301
G01 X53.6508 Y23.1173
G01 X53.6405 Y23.1035
G01 X53.6290 Y23.0847
G01 X53.6197 Y23.0646
G01 X53.6140 Y23.0484
G01 X53.6098 Y23.0318
G01 X53.6067 Y23.0124
G00 Z2.0000
G00 X55.1302 Y22.3041
G01 F60.00
G01 Z-0.1000
G01 F120.00
G01 X55.1331 Y22.2846
G01 X55.1386 Y22.2633
G01 X55.1454 Y22.2449
G01 X55.1528 Y22.2294
G01 X55.1616 Y22.2146
G01 X55.1746 Y22.1968
G01 X55.1878 Y22.1822
G01 X55.2023 Y22.1690
G01 X55.2191 Y22.1567
G01 X55.2350 Y22.1472
G01 X55.2527 Y22.1389
G01 X55.2712 Y22.1322
G01 X55.2914 Y22.1272
G01 X55.3097 Y22.1246
G01 X55.3280 Y22.1236
G01 X55.4149 Y22.1236
G01 X55.4149 Y21.2748
G01 X55.4159 Y21.2565
G01 X55.4188 Y21.2370
G01 X55.4235 Y21.2180
G01 X55.4277 Y21.2057
G01 X55.4306 Y21.1984
G01 X55.4360 Y21.1866
G01 X55.5358 Y20.9876
G01 X55.5409 Y20.9790
G01 X55.5477 Y20.9690
G01 X55.5583 Y20.9554
G01 X55.5658 Y20.9471
G01 X55.5782 Y20.9353
G01 X55.5876 Y20.9275
G01 X55.6026 Y20.9169
G01 X55.6122 Y20.9112
G01 X55.8112 Y20.8114
G01 X55.8292 Y20.8035
G01 X55.8479 Y20.7974
G01 X55.8670 Y20.7931
G01 X55.8799 Y20.7914
G01 X55.8877 Y20.7907
G01 X55.9007 Y20.7903
G01 X56.0924 Y20.7903
G01 X56.1132 Y20.7916
G01 X56.1302 Y20.7941
G01 X56.1469 Y20.7982
G01 X56.1677 Y20.8055
G01 X56.1876 Y20.8151
G01 X56.2023 Y20.8240
G01 X56.2162 Y20.8342
G01 X56.2318 Y20.8480
G01 X56.2458 Y20.8634
G01 X56.2588 Y20.8813
G01 X56.2687 Y20.8982
G01 X56.2760 Y20.9138
G01 X56.2817 Y20.9295
G01 X56.2857 Y20.9177
G01 X56.2926 Y20.9020
G01 X56.3022 Y20.8848
G01 X56.3141 Y20.8677
G01 X56.3260 Y20.8537
G01 X56.3410 Y20.8392
G01 X56.3565 Y20.8271
G01 X56.3730 Y20.8165
G01 X56.3917 Y20.8072
G01 X56.4089 Y20.8006
G01 X56.4302 Y20.7948
G01 X56.4495 Y20.7916
G01 X56.4667 Y20.7904
G01 X56.4839 Y20.7907
G01 X56.5058 Y20.7931
G01 X56.5250 Y20.7974
G01 X56.5436 Y20.8035
G01 X56.5638 Y20.8126
G01 X56.5787 Y20.8210
G01 X56.5948 Y20.8323
G01 X56.6097 Y20.8451
G01 X56.6216 Y20.8575
G01 X56.6368 Y20.8768
G01 X56.6459 Y20.8913
G01 X56.6548 Y20.9088
G01 X56.6619 Y20.9271
G01 X56.8068 Y21.3617
G01 X57.4708 Y21.3617
G01 X57.6165 Y20.9248
G01 X57.6228 Y20.9088
G01 X57.6305 Y20.8934
G01 X57.6408 Y20.8768
G01 X57.6543 Y20.8593
G01 X57.6688 Y20.8443
G01 X57.6848 Y20.8308
G01 X57.6989 Y20.8210
G01 X57.7138 Y20.8126
G01 X57.7340 Y20.8035
G01 X57.7526 Y20.7974
G01 X57.7718 Y20.7931
G01 X57.7937 Y20.7907
G01 X57.8109 Y20.7904
G01 X57.8280 Y20.7916
G01 X57.8474 Y20.7948
G01 X57.8687 Y20.8006
G01 X57.8870 Y20.8077
G01 X57.9045 Y20.8165
G01 X57.9231 Y20.8286
G01 X57.9366 Y20.8392
G01 X57.9490 Y20.8511
G01 X57.9620 Y20.8658
G01 X57.9748 Y20.8838
G01 X57.9844 Y20.9009
G01 X57.9923 Y20.9189
G01 X57.9984 Y20.9375
G01 X58.0027 Y20.9567
G01 X58.0050 Y20.9762
G01 X58.0055 Y20.9958
G01 X58.0040 Y21.0154
G01 X58.0006 Y21.0347
G01 X57.9953 Y21.0536
G01 X57.3261 Y23.0607
G01 X57.3215 Y23.0719
G01 X57.3177 Y23.0798
G01 X57.3088 Y23.0959
G01 X57.2976 Y23.1121
G01 X57.2891 Y23.1224
G01 X57.2764 Y23.1356
G01 X57.2615 Y23.1484
G01 X57.2454 Y23.1597
G01 X57.2283 Y23.1693
G01 X57.2103 Y23.1772
G01 X57.1916 Y23.1833
G01 X57.1725 Y23.1876
G01 X57.1530 Y23.1899
G01 X57.1333 Y23.1904
G01 X57.1138 Y23.1889
G01 X57.0944 Y23.1855
G01 X57.0860 Y23.1833
G01 X57.0744 Y23.1798
G01 X57.0584 Y23.1735
G01 X57.0504 Y23.1698
G01 X57.0333 Y23.1603
G01 X57.0232 Y23.1536
G01 X57.0161 Y23.1484
G01 X57.0021 Y23.1365
G01 X56.9935 Y23.1279
G01 X56.9876 Y23.1215
G01 X56.9755 Y23.1060
G01 X56.9650 Y23.0894
G01 X56.9561 Y23.0719
G01 X56.9490 Y23.0536
G01 X56.2816 Y21.0514
G01 X56.2760 Y21.0669
G01 X56.2687 Y21.0825
G01 X56.2588 Y21.0994
G01 X56.2458 Y21.1173
G01 X56.2343 Y21.1301
G01 X56.2181 Y21.1450
G01 X56.2023 Y21.1567
G01 X56.1855 Y21.1668
G01 X56.1689 Y21.1747
G01 X56.1493 Y21.1818
G01 X56.1326 Y21.1861
G01 X56.1096 Y21.1896
G01 X56.0912 Y21.1904
G01 X55.9479 Y21.1904
G01 X55.8594 Y21.2347
G01 X55.8151 Y21.3233
G01 X55.8151 Y22.1236
G01 X56.0936 Y22.1237
G01 X56.1108 Y22.1246
G01 X56.1302 Y22.1275
G01 X56.1493 Y22.1322
G01 X56.1677 Y22.1389
G01 X56.1855 Y22.1472
G01 X56.2003 Y22.1560
G01 X56.2181 Y22.1690
G01 X56.2327 Y22.1822
G01 X56.2442 Y22.1949
G01 X56.2575 Y22.2125
G01 X56.2676 Y22.2294
G01 X56.2750 Y22.2449
G01 X56.2826 Y22.2656
G01 X56.2874 Y22.2847
G01 X56.2900 Y22.3016
G01 X56.2912 Y22.3261
G01 X56.2903 Y22.3433
G01 X56.2878 Y22.3603
G01 X56.2826 Y22.3818
G01 X56.2750 Y22.4025
G01 X56.2676 Y22.4180
G01 X56.2575 Y22.4349
G01 X56.2442 Y22.4525
G01 X56.2327 Y22.4652
G01 X56.2181 Y22.4784
G01 X56.2003 Y22.4914
G01 X56.1855 Y22.5001
G01 X56.1677 Y22.5085
G01 X56.1493 Y22.5152
G01 X56.1302 Y22.5199
G01 X56.1108 Y22.5228
G01 X56.0936 Y22.5237
G01 X55.8151 Y22.5238
G01 X55.8151 Y22.9904
G01 X55.8138 Y23.0124
G01 X55.8107 Y23.0318
G01 X55.8064 Y23.0484
G01 X55.8007 Y23.0646
G01 X55.7914 Y23.0847
G01 X55.7827 Y23.0994
G01 X55.7696 Y23.1173
G01 X55.7565 Y23.1318
G01 X55.7419 Y23.1450
G01 X55.7272 Y23.1560
G01 X55.7093 Y23.1668
G01 X55.6916 Y23.1752
G01 X55.6731 Y23.1818
G01 X55.6540 Y23.1866
G01 X55.6346 Y23.1895
G01 X55.6150 Y23.1904
G01 X55.5954 Y23.1895
G01 X55.5760 Y23.1866
G01 X55.5569 Y23.1818
G01 X55.5384 Y23.1752
G01 X55.5207 Y23.1668
G01 X55.5038 Y23.1567
G01 X55.4881 Y23.1450
G01 X55.4735 Y23.1318
G01 X55.4603 Y23.1173
G01 X55.4493 Y23.1025
G01 X55.4374 Y23.0825
G01 X55.4301 Y23.0669
G01 X55.4243 Y23.0508
G01 X55.4188 Y23.0294
G01 X55.4157 Y23.0075
G01 X55.4149 Y22.9904
G01 X55.4149 Y22.5238
G01 X55.3280 Y22.5238
G01 X55.3097 Y22.5228
G01 X55.2902 Y22.5199
G01 X55.2712 Y22.5152
G01 X55.2505 Y22.5075
G01 X55.2350 Y22.5001
G01 X55.2202 Y22.4914
G01 X55.2033 Y22.4791
G01 X55.1878 Y22.4652
G01 X55.1731 Y22.4487
G01 X55.1629 Y22.4349
G01 X55.1540 Y22.4201
G01 X55.1444 Y22.4003
G01 X55.1378 Y22.3818
G01 X55.1326 Y22.3603
G01 X55.1302 Y22.3433
G01 X55.1293 Y22.3261
G01 X55.1302 Y22.3041
G00 Z2.0000
G00 X56.9402 Y21.7619
G01 F60.00
G01 Z-0.1000
G01 F120.00
G01 X57.3374 Y21.7619
G01 X57.1388 Y22.3577
G01 X56.9402 Y21.7619
G00 Z2.0000
G00 X58.2728 Y23.0075
G01 F60.00
G01 Z-0.1000
G01 F120.00
G01 X58.2721 Y22.9904
G01 X58.2721 Y21.3713
G01 X58.2726 Y21.3571
G01 X58.2749 Y21.3376
G01 X58.2789 Y21.3197
G01 X58.2810 Y21.3121
G01 X58.2878 Y21.2936
G01 X58.2932 Y21.2818
G01 X58.3884 Y21.0914
G01 X58.3974 Y21.0753
G01 X58.4017 Y21.0687
G01 X58.4093 Y21.0582
G01 X58.4135 Y21.0530
G01 X58.4259 Y21.0394
G01 X58.5250 Y20.9403
G01 X58.5366 Y20.9302
G01 X58.5514 Y20.9192
G01 X58.5571 Y20.9156
G01 X58.5731 Y20.9066
G01 X58.7647 Y20.8109
G01 X58.7804 Y20.8040
G01 X58.7938 Y20.7993
G01 X58.8014 Y20.7971
G01 X58.8206 Y20.7929
G01 X58.8389 Y20.7908
G01 X58.8531 Y20.7903
G01 X59.2340 Y20.7903
G01 X59.2494 Y20.7909
G01 X59.2677 Y20.7931
G01 X59.2857 Y20.7971
G01 X59.2933 Y20.7993
G01 X59.3095 Y20.8051
G01 X59.3224 Y20.8109
G01 X59.5140 Y20.9066
G01 X59.5301 Y20.9156
G01 X59.5367 Y20.9199
G01 X59.5472 Y20.9275
G01 X59.5524 Y20.9317
G01 X59.5660 Y20.9441
G01 X59.6650 Y21.0433
G01 X59.6752 Y21.0549
G01 X59.6861 Y21.0697
G01 X59.6956 Y21.0855
G01 X59.6987 Y21.0914
G01 X59.7939 Y21.2818
G01 X59.7993 Y21.2936
G01 X59.8023 Y21.3010
G01 X59.8083 Y21.3197
G01 X59.8114 Y21.3335
G01 X59.8140 Y21.3505
G01 X59.8146 Y21.3584
G01 X59.8151 Y21.3713
G01 X59.8150 Y22.9916
G01 X59.8141 Y23.0100
G01 X59.8116 Y23.0270
G01 X59.8064 Y23.0484
G01 X59.7988 Y23.0692
G01 X59.7914 Y23.0847
G01 X59.7827 Y23.0994
G01 X59.7680 Y23.1191
G01 X59.7565 Y23.1318
G01 X59.7419 Y23.1450
G01 X59.7241 Y23.1580
G01 X59.7093 Y23.1668
G01 X59.6938 Y23.1742
G01 X59.6731 Y23.1818
G01 X59.6516 Y23.1870
G01 X59.6346 Y23.1895
G01 X59.6174 Y23.1904
G01 X59.5929 Y23.1892
G01 X59.5760 Y23.1866
G01 X59.5593 Y23.1825
G01 X59.5384 Y23.1752
G01 X59.5207 Y23.1668
G01 X59.5059 Y23.1580
G01 X59.4881 Y23.1450
G01 X59.4735 Y23.1318
G01 X59.4619 Y23.1191
G01 X59.4486 Y23.1015
G01 X59.4385 Y23.0847
G01 X59.4311 Y23.0692
G01 X59.4235 Y23.0484
G01 X59.4183 Y23.0270
G01 X59.4159 Y23.0100
G01 X59.4149 Y22.9904
G01 X59.4149 Y21.4185
G01 X59.3553 Y21.2994
G01 X59.3060 Y21.2500
G01 X59.1868 Y21.1904
G01 X58.9003 Y21.1904
G01 X58.7811 Y21.2500
G01 X58.7318 Y21.2994
G01 X58.6722 Y21.4185
G01 X58.6722 Y22.9916
G01 X58.6712 Y23.0100
G01 X58.6678 Y23.0318
G01 X58.6636 Y23.0484
G01 X58.6579 Y23.0646
G01 X58.6491 Y23.0836
G01 X58.6371 Y23.1035
G01 X58.6268 Y23.1173
G01 X58.6136 Y23.1318
G01 X58.5991 Y23.1450
G01 X58.5853 Y23.1553
G01 X58.5643 Y23.1679
G01 X58.5487 Y23.1752
G01 X58.5302 Y23.1818
G01 X58.5112 Y23.1866
G01 X58.4942 Y23.1892
G01 X58.4697 Y23.1904
G01 X58.4525 Y23.1895
G01 X58.4331 Y23.1866
G01 X58.4141 Y23.1818
G01 X58.3979 Y23.1761
G01 X58.3757 Y23.1656
G01 X58.3610 Y23.1567
G01 X58.3452 Y23.1450
G01 X58.3307 Y23.1318
G01 X58.3191 Y23.1191
G01 X58.3045 Y23.0994
G01 X58.2957 Y23.0847
G01 X58.2873 Y23.0669
G01 X58.2807 Y23.0484
G01 X58.2764 Y23.0318
G01 X58.2728 Y23.0075
G00 Z2.0000
G00 X60.1768 Y22.9906
G01 F60.00
G01 Z-0.1000
G01 F120.00
G01 X60.1778 Y22.9710
G01 X60.1802 Y22.9540
G01 X60.1854 Y22.9325
G01 X60.1930 Y22.9117
G01 X60.2003 Y22.8962
G01 X60.2098 Y22.8804
G01 X60.8031 Y21.9904
G01 X60.2104 Y21.1013
G01 X60.1998 Y21.0834
G01 X60.1920 Y21.0667
G01 X60.1861 Y21.0506
G01 X60.1806 Y21.0292
G01 X60.1776 Y21.0073
G01 X60.1768 Y20.9902
G01 X60.1778 Y20.9705
G01 X60.1807 Y20.9511
G01 X60.1848 Y20.9344
G01 X60.1921 Y20.9136
G01 X60.2018 Y20.8937
G01 X60.2107 Y20.8790
G01 X60.2216 Y20.8642
G01 X60.2356 Y20.8487
G01 X60.2501 Y20.8356
G01 X60.2659 Y20.8239
G01 X60.2828 Y20.8138
G01 X60.3005 Y20.8054
G01 X60.3190 Y20.7988
G01 X60.3381 Y20.7941
G01 X60.3599 Y20.7911
G01 X60.3771 Y20.7903
G01 X60.3991 Y20.7916
G01 X60.4161 Y20.7942
G01 X60.4328 Y20.7983
G01 X60.4514 Y20.8047
G01 X60.4714 Y20.8140
G01 X60.4882 Y20.8241
G01 X60.5040 Y20.8358
G01 X60.5176 Y20.8482
G01 X60.5317 Y20.8636
G01 X60.5434 Y20.8794
G01 X61.0436 Y21.6297
G01 X61.5438 Y20.8794
G01 X61.5554 Y20.8636
G01 X61.5686 Y20.8490
G01 X61.5831 Y20.8358
G01 X61.5989 Y20.8241
G01 X61.6157 Y20.8140
G01 X61.6312 Y20.8066
G01 X61.6543 Y20.7983
G01 X61.6710 Y20.7942
G01 X61.6929 Y20.7911
G01 X61.7100 Y20.7903
G01 X61.7296 Y20.7912
G01 X61.7491 Y20.7941
G01 X61.7681 Y20.7988
G01 X61.7866 Y20.8054
G01 X61.8044 Y20.8138
G01 X61.8212 Y20.8239
G01 X61.8360 Y20.8348
G01 X61.8516 Y20.8487
G01 X61.8631 Y20.8614
G01 X61.8778 Y20.8811
G01 X61.8866 Y20.8959
G01 X61.8950 Y20.9136
G01 X61.9016 Y20.9321
G01 X61.9064 Y20.9511
G01 X61.9093 Y20.9705
G01 X61.9102 Y20.9877
G01 X61.9091 Y21.0122
G01 X61.9065 Y21.0292
G01 X61.9017 Y21.0482
G01 X61.8952 Y21.0667
G01 X61.8879 Y21.0823
G01 X61.8767 Y21.1013
G01 X61.2840 Y21.9904
G01 X61.8767 Y22.8794
G01 X61.8873 Y22.8973
G01 X61.8952 Y22.9140
G01 X61.9010 Y22.9302
G01 X61.9065 Y22.9515
G01 X61.9095 Y22.9734
G01 X61.9103 Y22.9906
G01 X61.9093 Y23.0102
G01 X61.9064 Y23.0296
G01 X61.9023 Y23.0463
G01 X61.8950 Y23.0671
G01 X61.8854 Y23.0870
G01 X61.8764 Y23.1017
G01 X61.8655 Y23.1165
G01 X61.8516 Y23.1320
G01 X61.8370 Y23.1452
G01 X61.8212 Y23.1568
G01 X61.8044 Y23.1669
G01 X61.7866 Y23.1753
G01 X61.7681 Y23.1819
G01 X61.7491 Y23.1866
G01 X61.7272 Y23.1897
G01 X61.7100 Y23.1904
G01 X61.6880 Y23.1891
G01 X61.6710 Y23.1866
G01 X61.6543 Y23.1824
G01 X61.6358 Y23.1760
G01 X61.6157 Y23.1667
G01 X61.5989 Y23.1566
G01 X61.5831 Y23.1449
G01 X61.5695 Y23.1325
G01 X61.5554 Y23.1171
G01 X61.5438 Y23.1013
G01 X61.0436 Y22.3511
G01 X60.5427 Y23.1024
G01 X60.5317 Y23.1171
G01 X60.5185 Y23.1317
G01 X60.5040 Y23.1449
G01 X60.4902 Y23.1552
G01 X60.4692 Y23.1678
G01 X60.4537 Y23.1751
G01 X60.4375 Y23.1810
G01 X60.4161 Y23.1866
G01 X60.3943 Y23.1896
G01 X60.3771 Y23.1904
G01 X60.3599 Y23.1897
G01 X60.3381 Y23.1866
G01 X60.3167 Y23.1811
G01 X60.3005 Y23.1753
G01 X60.2828 Y23.1669
G01 X60.2639 Y23.1554
G01 X60.2501 Y23.1452
G01 X60.2373 Y23.1337
G01 X60.2224 Y23.1174
G01 X60.2093 Y23.0996
G01 X60.2005 Y23.0849
G01 X60.1931 Y23.0694
G01 X60.1855 Y23.0486
G01 X60.1807 Y23.0296
G01 X60.1781 Y23.0126
G01 X60.1768 Y22.9906
G00 Z2.0000
G00 X63.7009 Y22.1442
G01 F60.00
G01 Z-0.1000
G01 F120.00
G01 X63.7006 Y22.1332
G01 X63.7006 Y21.8475
G01 X63.7015 Y21.8291
G01 X63.7028 Y21.8182
G01 X63.7066 Y21.7990
G01 X63.8018 Y21.4180
G01 X63.8068 Y21.4016
G01 X63.8091 Y21.3950
G01 X63.8170 Y21.3771
G01 X63.9122 Y21.1866
G01 X63.9219 Y21.1695
G01 X63.9331 Y21.1534
G01 X63.9451 Y21.1394
G01 X63.9497 Y21.1346
G01 X64.1402 Y20.9441
G01 X64.1547 Y20.9309
G01 X64.1705 Y20.9192
G01 X64.1815 Y20.9124
G01 X64.1884 Y20.9086
G01 X64.2012 Y20.9024
G01 X64.2172 Y20.8962
G01 X64.5041 Y20.8006
G01 X64.5218 Y20.7956
G01 X64.5283 Y20.7941
G01 X64.5478 Y20.7913
G01 X64.5674 Y20.7903
G01 X64.7578 Y20.7903
G01 X64.7762 Y20.7911
G01 X64.7829 Y20.7919
G01 X64.8022 Y20.7953
G01 X64.8211 Y20.8006
G01 X65.1068 Y20.8958
G01 X65.1240 Y20.9024
G01 X65.1379 Y20.9092
G01 X65.1537 Y20.9186
G01 X65.1602 Y20.9231
G01 X65.1737 Y20.9337
G01 X65.1842 Y20.9433
G01 X65.2812 Y21.0403
G01 X65.2935 Y21.0539
G01 X65.3052 Y21.0697
G01 X65.3164 Y21.0887
G01 X65.3236 Y21.1043
G01 X65.3295 Y21.1204
G01 X65.3350 Y21.1418
G01 X65.3379 Y21.1612
G01 X65.3388 Y21.1833
G01 X65.3379 Y21.2005
G01 X65.3354 Y21.2175
G01 X65.3303 Y21.2389
G01 X65.3236 Y21.2574
G01 X65.3152 Y21.2752
G01 X65.3037 Y21.2940
G01 X65.2935 Y21.3078
G01 X65.2820 Y21.3205
G01 X65.2657 Y21.3355
G01 X65.2479 Y21.3485
G01 X65.2331 Y21.3573
G01 X65.2176 Y21.3647
G01 X65.1969 Y21.3723
G01 X65.1778 Y21.3771
G01 X65.1584 Y21.3800
G01 X65.1412 Y21.3809
G01 X65.1192 Y21.3800
G01 X65.0974 Y21.3765
G01 X65.0807 Y21.3723
G01 X65.0622 Y21.3657
G01 X65.0445 Y21.3573
G01 X65.0297 Y21.3485
G01 X65.0119 Y21.3355
G01 X64.9973 Y21.3223
G01 X64.9355 Y21.2605
G01 X64.7254 Y21.1904
G01 X64.5998 Y21.1904
G01 X64.3897 Y21.2605
G01 X64.2556 Y21.3946
G01 X64.1847 Y21.5364
G01 X64.1008 Y21.8721
G01 X64.1008 Y22.1086
G01 X64.1847 Y22.4443
G01 X64.2556 Y22.5861
G01 X64.3897 Y22.7203
G01 X64.5998 Y22.7903
G01 X64.7254 Y22.7903
G01 X64.9355 Y22.7203
G01 X64.9982 Y22.6576
G01 X65.0119 Y22.6452
G01 X65.0266 Y22.6342
G01 X65.0445 Y22.6234
G01 X65.0622 Y22.6150
G01 X65.0807 Y22.6084
G01 X65.0998 Y22.6037
G01 X65.1216 Y22.6006
G01 X65.1388 Y22.5998
G01 X65.1560 Y22.6006
G01 X65.1778 Y22.6037
G01 X65.1992 Y22.6092
G01 X65.2154 Y22.6150
G01 X65.2309 Y22.6223
G01 X65.2500 Y22.6335
G01 X65.2676 Y22.6468
G01 X65.2803 Y22.6584
G01 X65.2919 Y22.6711
G01 X65.3052 Y22.6887
G01 X65.3164 Y22.7078
G01 X65.3236 Y22.7233
G01 X65.3295 Y22.7395
G01 X65.3350 Y22.7609
G01 X65.3381 Y22.7827
G01 X65.3389 Y22.7999
G01 X65.3381 Y22.8170
G01 X65.3350 Y22.8389
G01 X65.3295 Y22.8603
G01 X65.3236 Y22.8765
G01 X65.3152 Y22.8942
G01 X65.3052 Y22.9110
G01 X65.2927 Y22.9278
G01 X65.2803 Y22.9414
G01 X65.1842 Y23.0375
G01 X65.1705 Y23.0498
G01 X65.1547 Y23.0615
G01 X65.1437 Y23.0683
G01 X65.1368 Y23.0721
G01 X65.1240 Y23.0783
G01 X65.1080 Y23.0845
G01 X64.8211 Y23.1802
G01 X64.8034 Y23.1852
G01 X64.7957 Y23.1868
G01 X64.7775 Y23.1895
G01 X64.7578 Y23.1904
G01 X64.5619 Y23.1904
G01 X64.5423 Y23.1889
G01 X64.5230 Y23.1855
G01 X64.5041 Y23.1802
G01 X64.2172 Y23.0845
G01 X64.2040 Y23.0795
G01 X64.1884 Y23.0721
G01 X64.1715 Y23.0621
G01 X64.1650 Y23.0577
G01 X64.1547 Y23.0498
G01 X64.1411 Y23.0375
G01 X63.9459 Y22.8422
G01 X63.9365 Y22.8316
G01 X63.9255 Y22.8168
G01 X63.9212 Y22.8102
G01 X63.9122 Y22.7941
G01 X63.8170 Y22.6036
G01 X63.8095 Y22.5868
G01 X63.8071 Y22.5803
G01 X63.8018 Y22.5627
G01 X63.7066 Y22.1817
G01 X63.7028 Y22.1625
G01 X63.7009 Y22.1442
G00 Z2.0000
G00 X65.7012 Y21.9581
G01 F60.00
G01 Z-0.1000
G01 F120.00
G01 X65.7006 Y21.9427
G01 X65.7006 Y21.3713
G01 X65.7011 Y21.3584
G01 X65.7017 Y21.3505
G01 X65.7045 Y21.3323
G01 X65.7077 Y21.3185
G01 X65.7138 Y21.2998
G01 X65.7217 Y21.2818
G01 X65.8170 Y21.0914
G01 X65.8260 Y21.0753
G01 X65.8296 Y21.0697
G01 X65.8405 Y21.0549
G01 X65.8507 Y21.0433
G01 X65.9497 Y20.9441
G01 X65.9643 Y20.9309
G01 X65.9800 Y20.9192
G01 X65.9856 Y20.9156
G01 X66.0017 Y20.9066
G01 X66.1933 Y20.8109
G01 X66.2090 Y20.8040
G01 X66.2224 Y20.7993
G01 X66.2300 Y20.7971
G01 X66.2426 Y20.7941
G01 X66.2620 Y20.7913
G01 X66.2817 Y20.7903
G01 X66.5674 Y20.7903
G01 X66.5816 Y20.7908
G01 X66.5998 Y20.7929
G01 X66.6076 Y20.7944
G01 X66.6266 Y20.7993
G01 X66.6428 Y20.8051
G01 X66.6557 Y20.8109
G01 X66.8473 Y20.9066
G01 X66.8634 Y20.9156
G01 X66.8690 Y20.9192
G01 X66.8838 Y20.9302
G01 X66.8954 Y20.9403
G01 X66.9946 Y21.0394
G01 X67.0077 Y21.0539
G01 X67.0194 Y21.0697
G01 X67.0289 Y21.0855
G01 X67.0320 Y21.0914
G01 X67.1278 Y21.2830
G01 X67.1347 Y21.2987
G01 X67.1394 Y21.3121
G01 X67.1416 Y21.3197
G01 X67.1457 Y21.3389
G01 X67.1479 Y21.3571
G01 X67.1484 Y21.3713
G01 X67.1484 Y21.9427
G01 X67.1480 Y21.9557
G01 X67.1473 Y21.9636
G01 X67.1453 Y21.9776
G01 X67.1416 Y21.9944
G01 X67.1356 Y22.0131
G01 X67.1327 Y22.0204
G01 X67.1273 Y22.0322
G01 X67.0320 Y22.2227
G01 X67.0224 Y22.2398
G01 X67.0187 Y22.2454
G01 X67.0085 Y22.2592
G01 X66.9946 Y22.2747
G01 X66.8954 Y22.3737
G01 X66.8838 Y22.3839
G01 X66.8690 Y22.3948
G01 X66.8634 Y22.3984
G01 X66.8473 Y22.4074
G01 X66.6557 Y22.5032
G01 X66.6400 Y22.5101
G01 X66.6266 Y22.5148
G01 X66.6190 Y22.5170
G01 X66.6010 Y22.5209
G01 X66.5858 Y22.5229
G01 X66.5674 Y22.5238
G01 X66.2804 Y22.5238
G01 X66.2620 Y22.5228
G01 X66.2426 Y22.5199
G01 X66.2276 Y22.5163
G01 X66.2101 Y22.5106
G01 X66.1922 Y22.5026
G01 X66.0017 Y22.4074
G01 X65.9856 Y22.3984
G01 X65.9800 Y22.3948
G01 X65.9652 Y22.3839
G01 X65.9536 Y22.3737
G01 X65.8498 Y22.2699
G01 X65.8405 Y22.2592
G01 X65.8303 Y22.2454
G01 X65.8260 Y22.2388
G01 X65.8195 Y22.2275
G01 X65.7212 Y22.0311
G01 X65.7138 Y22.0142
G01 X65.7077 Y21.9956
G01 X65.7035 Y21.9764
G01 X65.7012 Y21.9581
G00 Z2.0000
G00 X66.7482 Y21.8955
G01 F60.00
G01 Z-0.1000
G01 F120.00
G01 X66.6887 Y22.0147
G01 X66.6393 Y22.0640
G01 X66.5201 Y22.1236
G01 X66.3289 Y22.1236
G01 X66.2097 Y22.0640
G01 X66.1604 Y22.0147
G01 X66.1008 Y21.8955
G01 X66.1008 Y21.4185
G01 X66.1604 Y21.2994
G01 X66.2097 Y21.2500
G01 X66.3289 Y21.1904
G01 X66.5201 Y21.1904
G01 X66.6393 Y21.2500
G01 X66.6887 Y21.2994
G01 X66.7482 Y21.4185
G01 X66.7482 Y21.8955
G00 Z2.0000
G00 X67.6067 Y22.3457
G01 F60.00
G01 Z-0.1000
G01 F120.00
G01 X67.6054 Y22.3237
G01 X67.6054 Y20.9891
G01 X67.6064 Y20.9708
G01 X67.6092 Y20.9513
G01 X67.6140 Y20.9323
G01 X67.6197 Y20.9161
G01 X67.6302 Y20.8939
G01 X67.6391 Y20.8792
G01 X67.6500 Y20.8644
G01 X67.6640 Y20.8489
G01 X67.6805 Y20.8342
G01 X67.6943 Y20.8240
G01 X67.7090 Y20.8151
G01 X67.7289 Y20.8055
G01 X67.7474 Y20.7989
G01 X67.7688 Y20.7937
G01 X67.7859 Y20.7913
G01 X67.8030 Y20.7903
G01 X67.8251 Y20.7913
G01 X67.8469 Y20.7947
G01 X67.8635 Y20.7989
G01 X67.8797 Y20.8046
G01 X67.8998 Y20.8139
G01 X67.9166 Y20.8240
G01 X67.9342 Y20.8373
G01 X67.9469 Y20.8489
G01 X67.9585 Y20.8616
G01 X67.9718 Y20.8792
G01 X67.9819 Y20.8960
G01 X67.9903 Y20.9138
G01 X67.9976 Y20.9346
G01 X68.0017 Y20.9513
G01 X68.0043 Y20.9683
G01 X68.0055 Y20.9891
G01 X68.0055 Y22.0503
G01 X68.0192 Y22.0640
G01 X68.1384 Y22.1236
G01 X68.3297 Y22.1236
G01 X68.4182 Y22.0793
G01 X68.4625 Y21.9907
G01 X68.4625 Y20.9904
G01 X68.4635 Y20.9708
G01 X68.4660 Y20.9537
G01 X68.4719 Y20.9300
G01 X68.4788 Y20.9116
G01 X68.4862 Y20.8960
G01 X68.4949 Y20.8813
G01 X68.5079 Y20.8634
G01 X68.5211 Y20.8489
G01 X68.5357 Y20.8357
G01 X68.5535 Y20.8227
G01 X68.5683 Y20.8139
G01 X68.5838 Y20.8065
G01 X68.6045 Y20.7989
G01 X68.6260 Y20.7937
G01 X68.6430 Y20.7913
G01 X68.6602 Y20.7903
G01 X68.6822 Y20.7913
G01 X68.7016 Y20.7941
G01 X68.7207 Y20.7989
G01 X68.7414 Y20.8065
G01 X68.7569 Y20.8139
G01 X68.7717 Y20.8227
G01 X68.7886 Y20.8349
G01 X68.8041 Y20.8489
G01 X68.8173 Y20.8634
G01 X68.8290 Y20.8792
G01 X68.8391 Y20.8960
G01 X68.8475 Y20.9138
G01 X68.8541 Y20.9323
G01 X68.8588 Y20.9513
G01 X68.8619 Y20.9732
G01 X68.8627 Y20.9904
G01 X68.8627 Y22.0380
G01 X68.8623 Y22.0509
G01 X68.8616 Y22.0588
G01 X68.8598 Y22.0717
G01 X68.8559 Y22.0896
G01 X68.8499 Y22.1083
G01 X68.8470 Y22.1157
G01 X68.8416 Y22.1275
G01 X68.7458 Y22.3190
G01 X68.7367 Y22.3350
G01 X68.7254 Y22.3511
G01 X68.7126 Y22.3660
G01 X68.6985 Y22.3796
G01 X68.6830 Y22.3917
G01 X68.6740 Y22.3978
G01 X68.6654 Y22.4029
G01 X68.4652 Y22.5032
G01 X68.4495 Y22.5101
G01 X68.4361 Y22.5148
G01 X68.4286 Y22.5170
G01 X68.4159 Y22.5199
G01 X68.3965 Y22.5228
G01 X68.3769 Y22.5238
G01 X68.0912 Y22.5238
G01 X68.0716 Y22.5228
G01 X68.0575 Y22.5209
G01 X68.0395 Y22.5170
G01 X68.0319 Y22.5148
G01 X68.0197 Y22.5106
G01 X68.0017 Y22.5026
G01 X67.9398 Y22.4717
G01 X67.9314 Y22.4791
G01 X67.9156 Y22.4907
G01 X67.8998 Y22.5001
G01 X67.8809 Y22.5090
G01 X67.8635 Y22.5152
G01 X67.8445 Y22.5199
G01 X67.8251 Y22.5228
G01 X67.8055 Y22.5238
G01 X67.7859 Y22.5228
G01 X67.7664 Y22.5199
G01 X67.7474 Y22.5152
G01 X67.7312 Y22.5094
G01 X67.7111 Y22.5001
G01 X67.6964 Y22.4914
G01 X67.6767 Y22.4768
G01 X67.6640 Y22.4652
G01 X67.6508 Y22.4506
G01 X67.6391 Y22.4349
G01 X67.6290 Y22.4180
G01 X67.6206 Y22.4003
G01 X67.6140 Y22.3818
G01 X67.6092 Y22.3627
G01 X67.6067 Y22.3457
G00 Z2.0000
G00 X69.1302 Y22.3041
G01 F60.00
G01 Z-0.1000
G01 F120.00
G01 X69.1331 Y22.2846
G01 X69.1386 Y22.2633
G01 X69.1454 Y22.2449
G01 X69.1528 Y22.2294
G01 X69.1616 Y22.2146
G01 X69.1746 Y22.1968
G01 X69.1878 Y22.1822
G01 X69.2023 Y22.1690
G01 X69.2191 Y22.1567
G01 X69.2350 Y22.1472
G01 X69.2527 Y22.1389
G01 X69.2712 Y22.1322
G01 X69.2914 Y22.1272
G01 X69.3097 Y22.1246
G01 X69.3280 Y22.1236
G01 X69.4149 Y22.1236
G01 X69.4149 Y21.2761
G01 X69.4153 Y21.2631
G01 X69.4160 Y21.2552
G01 X69.4188 Y21.2370
G01 X69.4224 Y21.2221
G01 X69.4281 Y21.2046
G01 X69.4355 Y21.1877
G01 X69.5313 Y20.9961
G01 X69.5403 Y20.9801
G01 X69.5470 Y20.9700
G01 X69.5522 Y20.9629
G01 X69.5599 Y20.9536
G01 X69.5718 Y20.9412
G01 X69.5782 Y20.9353
G01 X69.5876 Y20.9275
G01 X69.5946 Y20.9223
G01 X69.6111 Y20.9118
G01 X69.6207 Y20.9066
G01 X69.8124 Y20.8109
G01 X69.8281 Y20.8040
G01 X69.8415 Y20.7993
G01 X69.8605 Y20.7944
G01 X69.8682 Y20.7929
G01 X69.8811 Y20.7913
G01 X69.8995 Y20.7903
G01 X70.0912 Y20.7903
G01 X70.1108 Y20.7913
G01 X70.1326 Y20.7947
G01 X70.1493 Y20.7989
G01 X70.1655 Y20.8046
G01 X70.1855 Y20.8139
G01 X70.2043 Y20.8254
G01 X70.2181 Y20.8357
G01 X70.2327 Y20.8489
G01 X70.2458 Y20.8634
G01 X70.2588 Y20.8813
G01 X70.2676 Y20.8960
G01 X70.2769 Y20.9161
G01 X70.2826 Y20.9323
G01 X70.2869 Y20.9489
G01 X70.2900 Y20.9683
G01 X70.2913 Y20.9904
G01 X70.2903 Y21.0100
G01 X70.2874 Y21.0294
G01 X70.2826 Y21.0484
G01 X70.2760 Y21.0669
G01 X70.2676 Y21.0847
G01 X70.2575 Y21.1015
G01 X70.2466 Y21.1163
G01 X70.2327 Y21.1318
G01 X70.2200 Y21.1434
G01 X70.2003 Y21.1580
G01 X70.1855 Y21.1668
G01 X70.1677 Y21.1752
G01 X70.1493 Y21.1818
G01 X70.1326 Y21.1861
G01 X70.1108 Y21.1895
G01 X70.0924 Y21.1904
G01 X69.9479 Y21.1904
G01 X69.8594 Y21.2347
G01 X69.8151 Y21.3233
G01 X69.8151 Y22.1236
G01 X70.0912 Y22.1236
G01 X70.1096 Y22.1245
G01 X70.1302 Y22.1275
G01 X70.1493 Y22.1322
G01 X70.1677 Y22.1389
G01 X70.1844 Y22.1467
G01 X70.2043 Y22.1588
G01 X70.2181 Y22.1690
G01 X70.2327 Y22.1822
G01 X70.2458 Y22.1968
G01 X70.2561 Y22.2105
G01 X70.2687 Y22.2316
G01 X70.2760 Y22.2471
G01 X70.2826 Y22.2656
G01 X70.2874 Y22.2847
G01 X70.2900 Y22.3016
G01 X70.2912 Y22.3261
G01 X70.2903 Y22.3433
G01 X70.2874 Y22.3627
G01 X70.2819 Y22.3841
G01 X70.2760 Y22.4003
G01 X70.2687 Y22.4158
G01 X70.2575 Y22.4349
G01 X70.2442 Y22.4525
G01 X70.2327 Y22.4652
G01 X70.2200 Y22.4768
G01 X70.2023 Y22.4901
G01 X70.1833 Y22.5012
G01 X70.1677 Y22.5085
G01 X70.1504 Y22.5148
G01 X70.1278 Y22.5203
G01 X70.1108 Y22.5228
G01 X70.0924 Y22.5238
G01 X69.8151 Y22.5238
G01 X69.8151 Y22.9904
G01 X69.8138 Y23.0124
G01 X69.8107 Y23.0318
G01 X69.8064 Y23.0484
G01 X69.8007 Y23.0646
G01 X69.7914 Y23.0847
G01 X69.7827 Y23.0994
G01 X69.7696 Y23.1173
G01 X69.7565 Y23.1318
G01 X69.7419 Y23.1450
G01 X69.7272 Y23.1560
G01 X69.7093 Y23.1668
G01 X69.6916 Y23.1752
G01 X69.6731 Y23.1818
G01 X69.6540 Y23.1866
G01 X69.6346 Y23.1895
G01 X69.6150 Y23.1904
G01 X69.5954 Y23.1895
G01 X69.5760 Y23.1866
G01 X69.5569 Y23.1818
G01 X69.5384 Y23.1752
G01 X69.5207 Y23.1668
G01 X69.5038 Y23.1567
G01 X69.4881 Y23.1450
G01 X69.4735 Y23.1318
G01 X69.4603 Y23.1173
G01 X69.4493 Y23.1025
G01 X69.4374 Y23.0825
G01 X69.4301 Y23.0669
G01 X69.4243 Y23.0508
G01 X69.4188 Y23.0294
G01 X69.4157 Y23.0075
G01 X69.4149 Y22.9904
G01 X69.4149 Y22.5238
G01 X69.3280 Y22.5238
G01 X69.3097 Y22.5228
G01 X69.2902 Y22.5199
G01 X69.2712 Y22.5152
G01 X69.2505 Y22.5075
G01 X69.2350 Y22.5001
G01 X69.2202 Y22.4914
G01 X69.2033 Y22.4791
G01 X69.1878 Y22.4652
G01 X69.1731 Y22.4487
G01 X69.1629 Y22.4349
G01 X69.1540 Y22.4201
G01 X69.1444 Y22.4003
G01 X69.1378 Y22.3818
G01 X69.1326 Y22.3603
G01 X69.1302 Y22.3433
G01 X69.1293 Y22.3261
G01 X69.1302 Y22.3041
G00 Z2.0000
G00 X70.5590 Y22.3457
G01 F60.00
G01 Z-0.1000
G01 F120.00
G01 X70.5578 Y22.3237
G01 X70.5578 Y20.9904
G01 X70.5590 Y20.9683
G01 X70.5616 Y20.9513
G01 X70.5664 Y20.9323
G01 X70.5730 Y20.9138
G01 X70.5814 Y20.8960
G01 X70.5915 Y20.8792
G01 X70.6032 Y20.8634
G01 X70.6164 Y20.8489
G01 X70.6309 Y20.8357
G01 X70.6467 Y20.8240
G01 X70.6635 Y20.8139
G01 X70.6813 Y20.8055
G01 X70.6998 Y20.7989
G01 X70.7188 Y20.7941
G01 X70.7382 Y20.7913
G01 X70.7578 Y20.7903
G01 X70.7799 Y20.7916
G01 X70.7969 Y20.7941
G01 X70.8136 Y20.7982
G01 X70.8367 Y20.8065
G01 X70.8522 Y20.8139
G01 X70.8690 Y20.8240
G01 X70.8848 Y20.8357
G01 X70.8975 Y20.8472
G01 X70.9140 Y20.8654
G01 X70.9242 Y20.8792
G01 X70.9343 Y20.8960
G01 X70.9427 Y20.9138
G01 X70.9485 Y20.9300
G01 X70.9543 Y20.9525
G01 X70.9570 Y20.9708
G01 X70.9579 Y20.9904
G01 X70.9579 Y21.8955
G01 X71.0175 Y22.0147
G01 X71.0668 Y22.0640
G01 X71.1860 Y22.1236
G01 X71.3305 Y22.1236
G01 X71.3489 Y22.1246
G01 X71.3671 Y22.1272
G01 X71.3874 Y22.1322
G01 X71.4081 Y22.1398
G01 X71.4236 Y22.1472
G01 X71.4384 Y22.1560
G01 X71.4552 Y22.1683
G01 X71.4707 Y22.1822
G01 X71.4854 Y22.1987
G01 X71.4956 Y22.2125
G01 X71.5045 Y22.2272
G01 X71.5141 Y22.2471
G01 X71.5214 Y22.2680
G01 X71.5255 Y22.2847
G01 X71.5281 Y22.3016
G01 X71.5293 Y22.3237
G01 X71.5281 Y22.3457
G01 X71.5255 Y22.3627
G01 X71.5214 Y22.3794
G01 X71.5131 Y22.4025
G01 X71.5057 Y22.4180
G01 X71.4956 Y22.4349
G01 X71.4839 Y22.4506
G01 X71.4724 Y22.4634
G01 X71.4543 Y22.4799
G01 X71.4404 Y22.4901
G01 X71.4236 Y22.5001
G01 X71.4035 Y22.5094
G01 X71.3874 Y22.5152
G01 X71.3695 Y22.5197
G01 X71.3489 Y22.5228
G01 X71.3293 Y22.5238
G01 X71.1376 Y22.5238
G01 X71.1192 Y22.5228
G01 X71.1051 Y22.5209
G01 X71.0986 Y22.5197
G01 X71.0807 Y22.5152
G01 X71.0684 Y22.5110
G01 X71.0611 Y22.5081
G01 X71.0493 Y22.5026
G01 X70.9214 Y22.4387
G01 X70.9125 Y22.4506
G01 X70.9010 Y22.4634
G01 X70.8866 Y22.4768
G01 X70.8690 Y22.4901
G01 X70.8522 Y22.5001
G01 X70.8321 Y22.5094
G01 X70.8159 Y22.5152
G01 X70.7993 Y22.5194
G01 X70.7775 Y22.5228
G01 X70.7578 Y22.5238
G01 X70.7382 Y22.5228
G01 X70.7188 Y22.5199
G01 X70.6998 Y22.5152
G01 X70.6836 Y22.5094
G01 X70.6635 Y22.5001
G01 X70.6488 Y22.4914
G01 X70.6291 Y22.4768
G01 X70.6164 Y22.4652
G01 X70.6032 Y22.4506
G01 X70.5915 Y22.4349
G01 X70.5814 Y22.4180
G01 X70.5730 Y22.4003
G01 X70.5664 Y22.3818
G01 X70.5616 Y22.3627
G01 X70.5590 Y22.3457
G00 Z2.0000
G00 X71.7012 Y21.9581
G01 F60.00
G01 Z-0.1000
G01 F120.00
G01 X71.7006 Y21.9427
G01 X71.7006 Y21.3713
G01 X71.7011 Y21.3584
G01 X71.7017 Y21.3505
G01 X71.7045 Y21.3323
G01 X71.7077 Y21.3185
G01 X71.7138 Y21.2998
G01 X71.7217 Y21.2818
G01 X71.8170 Y21.0914
G01 X71.8260 Y21.0753
G01 X71.8296 Y21.0697
G01 X71.8405 Y21.0549
G01 X71.8507 Y21.0433
G01 X71.9497 Y20.9441
G01 X71.9643 Y20.9309
G01 X71.9800 Y20.9192
G01 X71.9856 Y20.9156
G01 X72.0017 Y20.9066
G01 X72.1933 Y20.8109
G01 X72.2090 Y20.8040
G01 X72.2224 Y20.7993
G01 X72.2300 Y20.7971
G01 X72.2426 Y20.7941
G01 X72.2620 Y20.7913
G01 X72.2817 Y20.7903
G01 X72.5674 Y20.7903
G01 X72.5816 Y20.7908
G01 X72.5998 Y20.7929
G01 X72.6076 Y20.7944
G01 X72.6266 Y20.7993
G01 X72.6428 Y20.8051
G01 X72.6557 Y20.8109
G01 X72.8473 Y20.9066
G01 X72.8634 Y20.9156
G01 X72.8690 Y20.9192
G01 X72.8838 Y20.9302
G01 X72.8954 Y20.9403
G01 X72.9946 Y21.0394
G01 X73.0077 Y21.0539
G01 X73.0194 Y21.0697
G01 X73.0289 Y21.0855
G01 X73.0320 Y21.0914
G01 X73.1278 Y21.2830
G01 X73.1347 Y21.2987
G01 X73.1394 Y21.3121
G01 X73.1416 Y21.3197
G01 X73.1457 Y21.3389
G01 X73.1479 Y21.3571
G01 X73.1484 Y21.3713
G01 X73.1484 Y21.9427
G01 X73.1480 Y21.9557
G01 X73.1473 Y21.9636
G01 X73.1453 Y21.9776
G01 X73.1416 Y21.9944
G01 X73.1356 Y22.0131
G01 X73.1327 Y22.0204
G01 X73.1273 Y22.0322
G01 X73.0320 Y22.2227
G01 X73.0224 Y22.2398
G01 X73.0187 Y22.2454
G01 X73.0085 Y22.2592
G01 X72.9946 Y22.2747
G01 X72.8954 Y22.3737
G01 X72.8838 Y22.3839
G01 X72.8690 Y22.3948
G01 X72.8634 Y22.3984
G01 X72.8473 Y22.4074
G01 X72.6557 Y22.5032
G01 X72.6400 Y22.5101
G01 X72.6266 Y22.5148
G01 X72.6190 Y22.5170
G01 X72.6010 Y22.5209
G01 X72.5858 Y22.5229
G01 X72.5674 Y22.5238
G01 X72.2804 Y22.5238
G01 X72.2620 Y22.5228
G01 X72.2426 Y22.5199
G01 X72.2276 Y22.5163
G01 X72.2101 Y22.5106
G01 X72.1922 Y22.5026
G01 X72.0017 Y22.4074
G01 X71.9856 Y22.3984
G01 X71.9800 Y22.3948
G01 X71.9652 Y22.3839
G01 X71.9536 Y22.3737
G01 X71.8498 Y22.2699
G01 X71.8405 Y22.2592
G01 X71.8303 Y22.2454
G01 X71.8260 Y22.2388
G01 X71.8195 Y22.2275
G01 X71.7212 Y22.0311
G01 X71.7138 Y22.0142
G01 X71.7077 Y21.9956
G01 X71.7035 Y21.9764
G01 X71.7012 Y21.9581
G00 Z2.0000
G00 X72.7482 Y21.8955
G01 F60.00
G01 Z-0.1000
G01 F120.00
G01 X72.6887 Y22.0147
G01 X72.6393 Y22.0640
G01 X72.5201 Y22.1236
G01 X72.3289 Y22.1236
G01 X72.2097 Y22.0640
G01 X72.1604 Y22.0147
G01 X72.1008 Y21.8955
G01 X72.1008 Y21.4185
G01 X72.1604 Y21.2994
G01 X72.2097 Y21.2500
G01 X72.3289 Y21.1904
G01 X72.5201 Y21.1904
G01 X72.6393 Y21.2500
G01 X72.6887 Y21.2994
G01 X72.7482 Y21.4185
G01 X72.7482 Y21.8955
G00 Z2.0000
G00 X73.6067 Y23.0124
G01 F60.00
G01 Z-0.1000
G01 F120.00
G01 X73.6054 Y22.9904
G01 X73.6054 Y21.2761
G01 X73.6058 Y21.2631
G01 X73.6065 Y21.2552
G01 X73.6090 Y21.2383
G01 X73.6122 Y21.2244
G01 X73.6144 Y21.2168
G01 X73.6186 Y21.2046
G01 X73.6260 Y21.1877
G01 X73.7217 Y20.9961
G01 X73.7269 Y20.9865
G01 X73.7374 Y20.9700
G01 X73.7496 Y20.9545
G01 X73.7631 Y20.9403
G01 X73.7771 Y20.9283
G01 X73.7851 Y20.9223
G01 X73.7941 Y20.9163
G01 X73.8112 Y20.9066
G01 X74.0017 Y20.8114
G01 X74.0197 Y20.8035
G01 X74.0407 Y20.7968
G01 X74.0575 Y20.7931
G01 X74.0770 Y20.7908
G01 X74.0966 Y20.7904
G01 X74.1138 Y20.7916
G01 X74.1355 Y20.7953
G01 X74.1544 Y20.8006
G01 X74.1727 Y20.8077
G01 X74.1903 Y20.8165
G01 X74.2048 Y20.8257
G01 X74.2241 Y20.8409
G01 X74.2365 Y20.8528
G01 X74.2492 Y20.8677
G01 X74.2605 Y20.8838
G01 X74.2701 Y20.9009
G01 X74.2780 Y20.9189
G01 X74.2834 Y20.9352
G01 X74.2888 Y20.9591
G01 X74.2907 Y20.9762
G01 X74.2911 Y20.9970
G01 X74.2897 Y21.0154
G01 X74.2863 Y21.0347
G01 X74.2810 Y21.0536
G01 X74.2748 Y21.0697
G01 X74.2637 Y21.0915
G01 X74.2544 Y21.1060
G01 X74.2423 Y21.1215
G01 X74.2287 Y21.1356
G01 X74.2157 Y21.1469
G01 X74.1967 Y21.1603
G01 X74.1807 Y21.1693
G01 X74.0498 Y21.2347
G01 X74.0055 Y21.3233
G01 X74.0055 Y22.9904
G01 X74.0046 Y23.0100
G01 X74.0012 Y23.0318
G01 X73.9969 Y23.0484
G01 X73.9903 Y23.0669
G01 X73.9819 Y23.0847
G01 X73.9731 Y23.0994
G01 X73.9585 Y23.1191
G01 X73.9469 Y23.1318
G01 X73.9324 Y23.1450
G01 X73.9166 Y23.1567
G01 X73.8998 Y23.1668
G01 X73.8820 Y23.1752
G01 X73.8659 Y23.1811
G01 X73.8421 Y23.1870
G01 X73.8251 Y23.1895
G01 X73.8030 Y23.1904
G01 X73.7859 Y23.1895
G01 X73.7664 Y23.1866
G01 X73.7474 Y23.1818
G01 X73.7312 Y23.1761
G01 X73.7111 Y23.1668
G01 X73.6964 Y23.1580
G01 X73.6767 Y23.1434
G01 X73.6640 Y23.1318
G01 X73.6508 Y23.1173
G01 X73.6391 Y23.1015
G01 X73.6290 Y23.0847
G01 X73.6206 Y23.0669
G01 X73.6140 Y23.0484
G01 X73.6092 Y23.0294
G01 X73.6067 Y23.0124
G00 Z2.0000
G00 X74.6543 Y23.0124
G01 F60.00
G01 Z-0.1000
G01 F120.00
G01 X74.6530 Y22.9904
G01 X74.6530 Y20.9904
G01 X74.6540 Y20.9708
G01 X74.6569 Y20.9513
G01 X74.6616 Y20.9323
G01 X74.6678 Y20.9149
G01 X74.6778 Y20.8939
G01 X74.6867 Y20.8792
G01 X74.6969 Y20.8654
G01 X74.7116 Y20.8489
G01 X74.7281 Y20.8342
G01 X74.7419 Y20.8240
G01 X74.7566 Y20.8151
G01 X74.7765 Y20.8055
G01 X74.7974 Y20.7982
G01 X74.8141 Y20.7941
G01 X74.8323 Y20.7914
G01 X74.8555 Y20.7903
G01 X74.8727 Y20.7913
G01 X74.8921 Y20.7941
G01 X74.9112 Y20.7989
G01 X74.9274 Y20.8046
G01 X74.9482 Y20.8144
G01 X74.9659 Y20.8060
G01 X74.9721 Y20.8035
G01 X74.9843 Y20.7993
G01 X74.9919 Y20.7971
G01 X75.0057 Y20.7939
G01 X75.0227 Y20.7914
G01 X75.0423 Y20.7903
G01 X75.4257 Y20.7903
G01 X75.4441 Y20.7913
G01 X75.4635 Y20.7941
G01 X75.4785 Y20.7977
G01 X75.4960 Y20.8035
G01 X75.5140 Y20.8114
G01 X75.7093 Y20.9092
G01 X75.7216 Y20.9163
G01 X75.7367 Y20.9268
G01 X75.7429 Y20.9317
G01 X75.7565 Y20.9441
G01 X75.8555 Y21.0433
G01 X75.8657 Y21.0549
G01 X75.8766 Y21.0697
G01 X75.8861 Y21.0855
G01 X75.8892 Y21.0914
G01 X75.9844 Y21.2818
G01 X75.9903 Y21.2947
G01 X75.9969 Y21.3132
G01 X76.0017 Y21.3323
G01 X76.0046 Y21.3517
G01 X76.0055 Y21.3713
G01 X76.0055 Y21.9440
G01 X76.0046 Y21.9624
G01 X76.0017 Y21.9818
G01 X75.9981 Y21.9968
G01 X75.9923 Y22.0142
G01 X75.9844 Y22.0322
G01 X75.8892 Y22.2227
G01 X75.8795 Y22.2398
G01 X75.8690 Y22.2549
G01 X75.8641 Y22.2611
G01 X75.8517 Y22.2747
G01 X75.7526 Y22.3737
G01 X75.7419 Y22.3831
G01 X75.7272 Y22.3941
G01 X75.7205 Y22.3984
G01 X75.7093 Y22.4049
G01 X75.5129 Y22.5032
G01 X75.4972 Y22.5101
G01 X75.4838 Y22.5148
G01 X75.4762 Y22.5170
G01 X75.4582 Y22.5209
G01 X75.4429 Y22.5229
G01 X75.4245 Y22.5238
G01 X75.0532 Y22.5238
G01 X75.0532 Y22.9904
G01 X75.0521 Y23.0112
G01 X75.0493 Y23.0294
G01 X75.0445 Y23.0484
G01 X75.0379 Y23.0669
G01 X75.0295 Y23.0847
G01 X75.0194 Y23.1015
G01 X75.0077 Y23.1173
G01 X74.9946 Y23.1318
G01 X74.9781 Y23.1465
G01 X74.9642 Y23.1567
G01 X74.9495 Y23.1656
G01 X74.9296 Y23.1752
G01 X74.9088 Y23.1825
G01 X74.8921 Y23.1866
G01 X74.8751 Y23.1892
G01 X74.8531 Y23.1904
G01 X74.8310 Y23.1892
G01 X74.8141 Y23.1866
G01 X74.7974 Y23.1825
G01 X74.7765 Y23.1752
G01 X74.7566 Y23.1656
G01 X74.7419 Y23.1567
G01 X74.7281 Y23.1465
G01 X74.7116 Y23.1318
G01 X74.6969 Y23.1154
G01 X74.6867 Y23.1015
G01 X74.6778 Y23.0868
G01 X74.6682 Y23.0669
G01 X74.6610 Y23.0461
G01 X74.6569 Y23.0294
G01 X74.6543 Y23.0124
G00 Z2.0000
G00 X75.4965 Y22.0640
G01 F60.00
G01 Z-0.1000
G01 F120.00
G01 X75.3773 Y22.1236
G01 X75.0908 Y22.1236
G01 X75.0532 Y22.1048
G01 X75.0532 Y21.2093
G01 X75.0908 Y21.1904
G01 X75.3773 Y21.1904
G01 X75.4965 Y21.2500
G01 X75.5458 Y21.2994
G01 X75.6054 Y21.4185
G01 X75.6054 Y21.8955
G01 X75.5458 Y22.0147
G01 X75.4965 Y22.0640
G00 Z2.0000
G00 X76.3679 Y21.9581
G01 F60.00
G01 Z-0.1000
G01 F120.00
G01 X76.3673 Y21.9427
G01 X76.3673 Y21.3713
G01 X76.3677 Y21.3584
G01 X76.3684 Y21.3505
G01 X76.3711 Y21.3323
G01 X76.3744 Y21.3185
G01 X76.3805 Y21.2998
G01 X76.3884 Y21.2818
G01 X76.4837 Y21.0914
G01 X76.4926 Y21.0753
G01 X76.4963 Y21.0697
G01 X76.5072 Y21.0549
G01 X76.5173 Y21.0433
G01 X76.6164 Y20.9441
G01 X76.6309 Y20.9309
G01 X76.6467 Y20.9192
G01 X76.6523 Y20.9156
G01 X76.6684 Y20.9066
G01 X76.8600 Y20.8109
G01 X76.8757 Y20.8040
G01 X76.8891 Y20.7993
G01 X76.8967 Y20.7971
G01 X76.9093 Y20.7941
G01 X76.9287 Y20.7913
G01 X76.9483 Y20.7903
G01 X77.2340 Y20.7903
G01 X77.2482 Y20.7908
G01 X77.2665 Y20.7929
G01 X77.2743 Y20.7944
G01 X77.2933 Y20.7993
G01 X77.3095 Y20.8051
G01 X77.3224 Y20.8109
G01 X77.5140 Y20.9066
G01 X77.5301 Y20.9156
G01 X77.5357 Y20.9192
G01 X77.5505 Y20.9302
G01 X77.5621 Y20.9403
G01 X77.6612 Y21.0394
G01 X77.6744 Y21.0539
G01 X77.6861 Y21.0697
G01 X77.6956 Y21.0855
G01 X77.6987 Y21.0914
G01 X77.7945 Y21.2830
G01 X77.8014 Y21.2987
G01 X77.8061 Y21.3121
G01 X77.8083 Y21.3197
G01 X77.8124 Y21.3389
G01 X77.8146 Y21.3571
G01 X77.8151 Y21.3713
G01 X77.8151 Y21.9427
G01 X77.8146 Y21.9557
G01 X77.8140 Y21.9636
G01 X77.8114 Y21.9806
G01 X77.8083 Y21.9944
G01 X77.8023 Y22.0131
G01 X77.7993 Y22.0204
G01 X77.7939 Y22.0322
G01 X77.6987 Y22.2227
G01 X77.6891 Y22.2398
G01 X77.6854 Y22.2454
G01 X77.6752 Y22.2592
G01 X77.6612 Y22.2747
G01 X77.5621 Y22.3737
G01 X77.5505 Y22.3839
G01 X77.5357 Y22.3948
G01 X77.5301 Y22.3984
G01 X77.5140 Y22.4074
G01 X77.3224 Y22.5032
G01 X77.3067 Y22.5101
G01 X77.2933 Y22.5148
G01 X77.2857 Y22.5170
G01 X77.2677 Y22.5209
G01 X77.2524 Y22.5229
G01 X77.2340 Y22.5238
G01 X76.9471 Y22.5238
G01 X76.9287 Y22.5228
G01 X76.9093 Y22.5199
G01 X76.8943 Y22.5163
G01 X76.8768 Y22.5106
G01 X76.8588 Y22.5026
G01 X76.6684 Y22.4074
G01 X76.6523 Y22.3984
G01 X76.6467 Y22.3948
G01 X76.6319 Y22.3839
G01 X76.6203 Y22.3737
G01 X76.5165 Y22.2699
G01 X76.5072 Y22.2592
G01 X76.4969 Y22.2454
G01 X76.4926 Y22.2388
G01 X76.4862 Y22.2275
G01 X76.3879 Y22.0311
G01 X76.3805 Y22.0142
G01 X76.3744 Y21.9956
G01 X76.3701 Y21.9764
G01 X76.3679 Y21.9581
G00 Z2.0000
G00 X77.4149 Y21.8955
G01 F60.00
G01 Z-0.1000
G01 F120.00
G01 X77.3553 Y22.0147
G01 X77.3060 Y22.0640
G01 X77.1868 Y22.1236
G01 X76.9956 Y22.1236
G01 X76.8764 Y22.0640
G01 X76.8270 Y22.0147
G01 X76.7674 Y21.8955
G01 X76.7674 Y21.4185
G01 X76.8270 Y21.2994
G01 X76.8764 Y21.2500
G01 X76.9956 Y21.1904
G01 X77.1868 Y21.1904
G01 X77.3060 Y21.2500
G01 X77.3553 Y21.2994
G01 X77.4149 Y21.4185
G01 X77.4149 Y21.8955
G00 Z2.0000
G00 X78.1774 Y21.4820
G01 F60.00
G01 Z-0.1000
G01 F120.00
G01 X78.1768 Y21.4666
G01 X78.1768 Y21.2761
G01 X78.1772 Y21.2631
G01 X78.1779 Y21.2552
G01 X78.1809 Y21.2358
G01 X78.1843 Y21.2221
G01 X78.1896 Y21.2057
G01 X78.1925 Y21.1984
G01 X78.1979 Y21.1866
G01 X78.2932 Y20.9961
G01 X78.3028 Y20.9790
G01 X78.3096 Y20.9690
G01 X78.3202 Y20.9554
G01 X78.3269 Y20.9480
G01 X78.3355 Y20.9395
G01 X78.3485 Y20.9283
G01 X78.3565 Y20.9223
G01 X78.3666 Y20.9156
G01 X78.3816 Y20.9072
G01 X78.5731 Y20.8114
G01 X78.5849 Y20.8060
G01 X78.5923 Y20.8031
G01 X78.6109 Y20.7971
G01 X78.6289 Y20.7931
G01 X78.6484 Y20.7908
G01 X78.6626 Y20.7903
G01 X79.1388 Y20.7903
G01 X79.1518 Y20.7907
G01 X79.1596 Y20.7914
G01 X79.1725 Y20.7931
G01 X79.1916 Y20.7974
G01 X79.1980 Y20.7993
G01 X79.2142 Y20.8051
G01 X79.2342 Y20.8144
G01 X79.2550 Y20.8046
G01 X79.2712 Y20.7989
G01 X79.2878 Y20.7947
G01 X79.3097 Y20.7913
G01 X79.3317 Y20.7903
G01 X79.3489 Y20.7913
G01 X79.3659 Y20.7937
G01 X79.3874 Y20.7989
G01 X79.4058 Y20.8055
G01 X79.4214 Y20.8128
G01 X79.4414 Y20.8247
G01 X79.4562 Y20.8357
G01 X79.4724 Y20.8507
G01 X79.4854 Y20.8654
G01 X79.4956 Y20.8792
G01 X79.5045 Y20.8939
G01 X79.5141 Y20.9138
G01 X79.5207 Y20.9323
G01 X79.5255 Y20.9513
G01 X79.5285 Y20.9720
G01 X79.5293 Y20.9904
G01 X79.5293 Y22.0392
G01 X79.5284 Y22.0576
G01 X79.5255 Y22.0770
G01 X79.5207 Y22.0961
G01 X79.5166 Y22.1083
G01 X79.5136 Y22.1157
G01 X79.5082 Y22.1275
G01 X79.4130 Y22.3179
G01 X79.4040 Y22.3340
G01 X79.3973 Y22.3441
G01 X79.3921 Y22.3511
G01 X79.3844 Y22.3605
G01 X79.3725 Y22.3729
G01 X79.3651 Y22.3796
G01 X79.3567 Y22.3865
G01 X79.3487 Y22.3924
G01 X79.3396 Y22.3984
G01 X79.3246 Y22.4068
G01 X79.1330 Y22.5026
G01 X79.1213 Y22.5081
G01 X79.1139 Y22.5110
G01 X79.0952 Y22.5170
G01 X79.0772 Y22.5209
G01 X79.0644 Y22.5227
G01 X79.0565 Y22.5233
G01 X79.0436 Y22.5238
G01 X78.6626 Y22.5238
G01 X78.6430 Y22.5228
G01 X78.6236 Y22.5199
G01 X78.6109 Y22.5170
G01 X78.6034 Y22.5148
G01 X78.5860 Y22.5085
G01 X78.5731 Y22.5026
G01 X78.3816 Y22.4068
G01 X78.3655 Y22.3978
G01 X78.3514 Y22.3880
G01 X78.3346 Y22.3737
G01 X78.3194 Y22.3577
G01 X78.3089 Y22.3441
G01 X78.2996 Y22.3296
G01 X78.2894 Y22.3100
G01 X78.2816 Y22.2894
G01 X78.2770 Y22.2728
G01 X78.2740 Y22.2559
G01 X78.2721 Y22.2339
G01 X78.2726 Y22.2143
G01 X78.2754 Y22.1924
G01 X78.2792 Y22.1756
G01 X78.2844 Y22.1593
G01 X78.2932 Y22.1390
G01 X78.3028 Y22.1219
G01 X78.3156 Y22.1039
G01 X78.3269 Y22.0909
G01 X78.3392 Y22.0790
G01 X78.3565 Y22.0652
G01 X78.3741 Y22.0540
G01 X78.3906 Y22.0458
G01 X78.4066 Y22.0395
G01 X78.4278 Y22.0334
G01 X78.4471 Y22.0300
G01 X78.4642 Y22.0286
G01 X78.4888 Y22.0291
G01 X78.5058 Y22.0312
G01 X78.5226 Y22.0349
G01 X78.5459 Y22.0425
G01 X78.5616 Y22.0495
G01 X78.7098 Y22.1236
G01 X78.9963 Y22.1236
G01 X79.0849 Y22.0793
G01 X79.1292 Y21.9907
G01 X79.1292 Y21.9712
G01 X79.0916 Y21.9523
G01 X78.6626 Y21.9523
G01 X78.6472 Y21.9517
G01 X78.6289 Y21.9495
G01 X78.6109 Y21.9455
G01 X78.6034 Y21.9434
G01 X78.5872 Y21.9376
G01 X78.5742 Y21.9318
G01 X78.3827 Y21.8360
G01 X78.3666 Y21.8270
G01 X78.3565 Y21.8203
G01 X78.3420 Y21.8090
G01 X78.3346 Y21.8023
G01 X78.3218 Y21.7890
G01 X78.3141 Y21.7797
G01 X78.3035 Y21.7646
G01 X78.2983 Y21.7561
G01 X78.2932 Y21.7465
G01 X78.1979 Y21.5560
G01 X78.1925 Y21.5442
G01 X78.1896 Y21.5369
G01 X78.1836 Y21.5182
G01 X78.1797 Y21.5002
G01 X78.1774 Y21.4820
G00 Z2.0000
G00 X78.5770 Y21.4193
G01 F60.00
G01 Z-0.1000
G01 F120.00
G01 X78.5770 Y21.3233
G01 X78.6213 Y21.2347
G01 X78.7098 Y21.1904
G01 X79.0916 Y21.1904
G01 X79.1292 Y21.2093
G01 X79.1292 Y21.5522
G01 X78.7098 Y21.5522
G01 X78.6213 Y21.5079
G01 X78.5770 Y21.4193
G00 Z2.0000
G00 X80.0828 Y22.3457
G01 F60.00
G01 Z-0.1000
G01 F120.00
G01 X80.0816 Y22.3237
G01 X80.0816 Y20.9904
G01 X80.0828 Y20.9683
G01 X80.0854 Y20.9513
G01 X80.0902 Y20.9323
G01 X80.0968 Y20.9138
G01 X80.1052 Y20.8960
G01 X80.1153 Y20.8792
G01 X80.1270 Y20.8634
G01 X80.1402 Y20.8489
G01 X80.1547 Y20.8357
G01 X80.1705 Y20.8240
G01 X80.1873 Y20.8139
G01 X80.2051 Y20.8055
G01 X80.2236 Y20.7989
G01 X80.2426 Y20.7941
G01 X80.2620 Y20.7913
G01 X80.2817 Y20.7903
G01 X80.3037 Y20.7916
G01 X80.3207 Y20.7941
G01 X80.3374 Y20.7982
G01 X80.3605 Y20.8065
G01 X80.3760 Y20.8139
G01 X80.3928 Y20.8240
G01 X80.4086 Y20.8357
G01 X80.4214 Y20.8472
G01 X80.4378 Y20.8654
G01 X80.4480 Y20.8792
G01 X80.4581 Y20.8960
G01 X80.4665 Y20.9138
G01 X80.4723 Y20.9300
G01 X80.4781 Y20.9525
G01 X80.4808 Y20.9708
G01 X80.4817 Y20.9904
G01 X80.4817 Y21.8955
G01 X80.5413 Y22.0147
G01 X80.5906 Y22.0640
G01 X80.7098 Y22.1236
G01 X80.8543 Y22.1236
G01 X80.8727 Y22.1246
G01 X80.8909 Y22.1272
G01 X80.9112 Y22.1322
G01 X80.9319 Y22.1398
G01 X80.9474 Y22.1472
G01 X80.9622 Y22.1560
G01 X80.9791 Y22.1683
G01 X80.9946 Y22.1822
G01 X81.0093 Y22.1987
G01 X81.0194 Y22.2125
G01 X81.0283 Y22.2272
G01 X81.0379 Y22.2471
G01 X81.0452 Y22.2680
G01 X81.0493 Y22.2847
G01 X81.0519 Y22.3016
G01 X81.0532 Y22.3237
G01 X81.0519 Y22.3457
G01 X81.0493 Y22.3627
G01 X81.0452 Y22.3794
G01 X81.0369 Y22.4025
G01 X81.0295 Y22.4180
G01 X81.0194 Y22.4349
G01 X81.0077 Y22.4506
G01 X80.9963 Y22.4634
G01 X80.9781 Y22.4799
G01 X80.9642 Y22.4901
G01 X80.9474 Y22.5001
G01 X80.9274 Y22.5094
G01 X80.9112 Y22.5152
G01 X80.8933 Y22.5197
G01 X80.8727 Y22.5228
G01 X80.8531 Y22.5238
G01 X80.6614 Y22.5238
G01 X80.6430 Y22.5228
G01 X80.6289 Y22.5209
G01 X80.6224 Y22.5197
G01 X80.6045 Y22.5152
G01 X80.5923 Y22.5110
G01 X80.5849 Y22.5081
G01 X80.5731 Y22.5026
G01 X80.4452 Y22.4387
G01 X80.4363 Y22.4506
G01 X80.4248 Y22.4634
G01 X80.4104 Y22.4768
G01 X80.3928 Y22.4901
G01 X80.3760 Y22.5001
G01 X80.3559 Y22.5094
G01 X80.3397 Y22.5152
G01 X80.3231 Y22.5194
G01 X80.3013 Y22.5228
G01 X80.2817 Y22.5238
G01 X80.2620 Y22.5228
G01 X80.2426 Y22.5199
G01 X80.2236 Y22.5152
G01 X80.2074 Y22.5094
G01 X80.1873 Y22.5001
G01 X80.1726 Y22.4914
G01 X80.1529 Y22.4768
G01 X80.1402 Y22.4652
G01 X80.1270 Y22.4506
G01 X80.1153 Y22.4349
G01 X80.1052 Y22.4180
G01 X80.0968 Y22.4003
G01 X80.0902 Y22.3818
G01 X80.0854 Y22.3627
G01 X80.0828 Y22.3457
G00 Z2.0000
G00 X81.2250 Y21.9581
G01 F60.00
G01 Z-0.1000
G01 F120.00
G01 X81.2244 Y21.9427
G01 X81.2244 Y21.3713
G01 X81.2249 Y21.3584
G01 X81.2255 Y21.3505
G01 X81.2281 Y21.3335
G01 X81.2312 Y21.3197
G01 X81.2334 Y21.3121
G01 X81.2377 Y21.2998
G01 X81.2456 Y21.2818
G01 X81.3408 Y21.0914
G01 X81.3498 Y21.0753
G01 X81.3534 Y21.0697
G01 X81.3643 Y21.0549
G01 X81.3745 Y21.0433
G01 X81.4735 Y20.9441
G01 X81.4871 Y20.9317
G01 X81.4933 Y20.9268
G01 X81.5038 Y20.9192
G01 X81.5207 Y20.9092
G01 X81.7171 Y20.8109
G01 X81.7340 Y20.8035
G01 X81.7526 Y20.7974
G01 X81.7676 Y20.7939
G01 X81.7859 Y20.7913
G01 X81.8055 Y20.7903
G01 X82.1864 Y20.7903
G01 X82.1994 Y20.7907
G01 X82.2072 Y20.7914
G01 X82.2201 Y20.7931
G01 X82.2393 Y20.7974
G01 X82.2457 Y20.7993
G01 X82.2618 Y20.8051
G01 X82.2818 Y20.8144
G01 X82.3026 Y20.8046
G01 X82.3188 Y20.7989
G01 X82.3379 Y20.7941
G01 X82.3597 Y20.7911
G01 X82.3769 Y20.7903
G01 X82.3953 Y20.7911
G01 X82.4183 Y20.7947
G01 X82.4350 Y20.7989
G01 X82.4535 Y20.8055
G01 X82.4712 Y20.8139
G01 X82.4860 Y20.8227
G01 X82.5057 Y20.8373
G01 X82.5184 Y20.8489
G01 X82.5331 Y20.8654
G01 X82.5446 Y20.8813
G01 X82.5533 Y20.8960
G01 X82.5607 Y20.9116
G01 X82.5684 Y20.9323
G01 X82.5731 Y20.9513
G01 X82.5760 Y20.9708
G01 X82.5770 Y20.9904
G01 X82.5770 Y22.9916
G01 X82.5760 Y23.0100
G01 X82.5731 Y23.0294
G01 X82.5684 Y23.0484
G01 X82.5626 Y23.0646
G01 X82.5533 Y23.0847
G01 X82.5446 Y23.0994
G01 X82.5300 Y23.1191
G01 X82.5184 Y23.1318
G01 X82.5057 Y23.1434
G01 X82.4901 Y23.1553
G01 X82.4712 Y23.1668
G01 X82.4535 Y23.1752
G01 X82.4350 Y23.1818
G01 X82.4135 Y23.1870
G01 X82.3965 Y23.1895
G01 X82.3793 Y23.1904
G01 X82.3573 Y23.1895
G01 X82.3355 Y23.1861
G01 X82.3188 Y23.1818
G01 X82.3026 Y23.1761
G01 X82.2826 Y23.1668
G01 X82.2657 Y23.1567
G01 X82.2500 Y23.1450
G01 X82.2337 Y23.1301
G01 X82.2207 Y23.1154
G01 X82.2105 Y23.1015
G01 X82.2017 Y23.0868
G01 X82.1920 Y23.0669
G01 X82.1848 Y23.0461
G01 X82.1802 Y23.0270
G01 X82.1778 Y23.0100
G01 X82.1769 Y22.9928
G01 X82.1768 Y22.5238
G01 X81.8055 Y22.5238
G01 X81.7859 Y22.5228
G01 X81.7664 Y22.5199
G01 X81.7538 Y22.5170
G01 X81.7462 Y22.5148
G01 X81.7300 Y22.5090
G01 X81.7171 Y22.5032
G01 X81.5255 Y22.4074
G01 X81.5094 Y22.3984
G01 X81.5028 Y22.3941
G01 X81.4923 Y22.3865
G01 X81.4871 Y22.3823
G01 X81.4735 Y22.3699
G01 X81.3745 Y22.2708
G01 X81.3617 Y22.2559
G01 X81.3504 Y22.2398
G01 X81.3408 Y22.2227
G01 X81.2456 Y22.0322
G01 X81.2402 Y22.0204
G01 X81.2372 Y22.0131
G01 X81.2312 Y21.9944
G01 X81.2273 Y21.9764
G01 X81.2250 Y21.9581
G00 Z2.0000
G00 X81.8527 Y22.1236
G01 F60.00
G01 Z-0.1000
G01 F120.00
G01 X81.7335 Y22.0640
G01 X81.6842 Y22.0147
G01 X81.6246 Y21.8955
G01 X81.6246 Y21.4185
G01 X81.6842 Y21.2994
G01 X81.7335 Y21.2500
G01 X81.8527 Y21.1904
G01 X82.1392 Y21.1904
G01 X82.1768 Y21.2093
G01 X82.1768 Y22.1048
G01 X82.1392 Y22.1236
G01 X81.8527 Y22.1236
G00 Z2.0000
G00 X95.7148 Y32.6012
G01 F60.00
G01 Z-0.1000
G01 F120.00
G01 X95.7144 Y32.5892
G01 X95.7145 Y31.0879
G01 X95.7154 Y31.0696
G01 X95.7183 Y31.0501
G01 X95.7231 Y31.0311
G01 X95.7288 Y31.0149
G01 X95.7393 Y30.9927
G01 X95.7482 Y30.9780
G01 X95.7591 Y30.9632
G01 X95.7730 Y30.9477
G01 X95.7895 Y30.9330
G01 X95.8034 Y30.9228
G01 X95.8181 Y30.9139
G01 X95.8379 Y30.9043
G01 X95.8564 Y30.8977
G01 X95.8779 Y30.8925
G01 X95.8949 Y30.8901
G01 X95.9121 Y30.8892
G01 X95.9341 Y30.8901
G01 X95.9559 Y30.8935
G01 X95.9726 Y30.8977
G01 X95.9888 Y30.9034
G01 X96.0088 Y30.9127
G01 X96.0257 Y30.9228
G01 X96.0433 Y30.9361
G01 X96.0560 Y30.9477
G01 X96.0676 Y30.9604
G01 X96.0809 Y30.9780
G01 X96.0915 Y30.9959
G01 X96.1002 Y31.0149
G01 X96.1060 Y31.0311
G01 X96.1102 Y31.0477
G01 X96.1136 Y31.0696
G01 X96.1146 Y31.0879
G01 X96.1146 Y31.6873
G01 X96.2346 Y31.4302
G01 X96.2448 Y31.4119
G01 X96.2544 Y31.3977
G01 X96.2640 Y31.3860
G01 X96.2678 Y31.3817
G01 X96.2794 Y31.3702
G01 X96.2945 Y31.3577
G01 X96.3125 Y31.3456
G01 X96.3310 Y31.3359
G01 X96.3481 Y31.3290
G01 X96.3637 Y31.3242
G01 X96.3693 Y31.3229
G01 X96.3886 Y31.3194
G01 X96.4057 Y31.3179
G01 X96.4208 Y31.3178
G01 X96.4266 Y31.3180
G01 X96.4428 Y31.3197
G01 X96.4621 Y31.3234
G01 X96.4829 Y31.3297
G01 X96.5021 Y31.3379
G01 X96.5183 Y31.3467
G01 X96.5319 Y31.3557
G01 X96.5364 Y31.3592
G01 X96.5496 Y31.3702
G01 X96.5604 Y31.3808
G01 X96.5738 Y31.3968
G01 X96.5856 Y31.4140
G01 X96.5949 Y31.4313
G01 X96.7144 Y31.6873
G01 X96.7145 Y31.0879
G01 X96.7154 Y31.0696
G01 X96.7183 Y31.0501
G01 X96.7231 Y31.0311
G01 X96.7301 Y31.0115
G01 X96.7393 Y30.9927
G01 X96.7482 Y30.9780
G01 X96.7583 Y30.9642
G01 X96.7730 Y30.9477
G01 X96.7876 Y30.9345
G01 X96.8034 Y30.9228
G01 X96.8224 Y30.9116
G01 X96.8402 Y30.9034
G01 X96.8564 Y30.8977
G01 X96.8731 Y30.8935
G01 X96.8949 Y30.8901
G01 X96.9145 Y30.8891
G01 X96.9341 Y30.8901
G01 X96.9559 Y30.8935
G01 X96.9726 Y30.8977
G01 X96.9888 Y30.9034
G01 X97.0066 Y30.9116
G01 X97.0257 Y30.9228
G01 X97.0405 Y30.9337
G01 X97.0560 Y30.9477
G01 X97.0692 Y30.9622
G01 X97.0809 Y30.9780
G01 X97.0921 Y30.9970
G01 X97.1002 Y31.0149
G01 X97.1060 Y31.0311
G01 X97.1102 Y31.0477
G01 X97.1136 Y31.0696
G01 X97.1146 Y31.0879
G01 X97.1143 Y32.5988
G01 X97.1135 Y32.6100
G01 X97.1107 Y32.6282
G01 X97.1063 Y32.6461
G01 X97.1021 Y32.6587
G01 X97.0949 Y32.6756
G01 X97.0862 Y32.6919
G01 X97.0802 Y32.7013
G01 X97.0699 Y32.7151
G01 X97.0621 Y32.7243
G01 X97.0560 Y32.7306
G01 X97.0481 Y32.7381
G01 X97.0405 Y32.7446
G01 X97.0267 Y32.7548
G01 X97.0175 Y32.7607
G01 X97.0088 Y32.7656
G01 X97.0002 Y32.7699
G01 X96.9911 Y32.7740
G01 X96.9809 Y32.7779
G01 X96.9621 Y32.7835
G01 X96.9428 Y32.7872
G01 X96.9341 Y32.7883
G01 X96.9221 Y32.7891
G01 X96.9133 Y32.7892
G01 X96.8961 Y32.7884
G01 X96.8767 Y32.7856
G01 X96.8649 Y32.7830
G01 X96.8564 Y32.7806
G01 X96.8379 Y32.7740
G01 X96.8280 Y32.7696
G01 X96.8191 Y32.7650
G01 X96.8097 Y32.7596
G01 X96.7955 Y32.7500
G01 X96.7876 Y32.7438
G01 X96.7794 Y32.7367
G01 X96.7656 Y32.7228
G01 X96.7591 Y32.7151
G01 X96.7482 Y32.7003
G01 X96.7418 Y32.6901
G01 X96.7332 Y32.6738
G01 X96.4145 Y31.9909
G01 X96.0953 Y32.6749
G01 X96.0866 Y32.6911
G01 X96.0758 Y32.7075
G01 X96.0634 Y32.7228
G01 X96.0560 Y32.7306
G01 X96.0487 Y32.7375
G01 X96.0355 Y32.7485
G01 X96.0257 Y32.7555
G01 X96.0172 Y32.7609
G01 X96.0010 Y32.7696
G01 X95.9840 Y32.7768
G01 X95.9726 Y32.7806
G01 X95.9629 Y32.7833
G01 X95.9461 Y32.7867
G01 X95.9329 Y32.7884
G01 X95.9157 Y32.7892
G01 X95.9057 Y32.7891
G01 X95.8937 Y32.7881
G01 X95.8767 Y32.7856
G01 X95.8669 Y32.7835
G01 X95.8492 Y32.7783
G01 X95.8379 Y32.7740
G01 X95.8288 Y32.7699
G01 X95.8125 Y32.7613
G01 X95.8023 Y32.7548
G01 X95.7885 Y32.7446
G01 X95.7800 Y32.7373
G01 X95.7678 Y32.7252
G01 X95.7598 Y32.7161
G01 X95.7537 Y32.7082
G01 X95.7441 Y32.6940
G01 X95.7381 Y32.6835
G01 X95.7301 Y32.6669
G01 X95.7265 Y32.6575
G01 X95.7210 Y32.6400
G01 X95.7183 Y32.6282
G01 X95.7166 Y32.6183
G01 X95.7148 Y32.6012
G00 Z2.0000
G00 X97.3579 Y31.8189
G01 F60.00
G01 Z-0.1000
G01 F120.00
G01 X97.3573 Y31.8035
G01 X97.3573 Y31.3737
G01 X97.3579 Y31.3595
G01 X97.3600 Y31.3424
G01 X97.3614 Y31.3347
G01 X97.3644 Y31.3220
G01 X97.3705 Y31.3034
G01 X97.3784 Y31.2854
G01 X97.4498 Y31.1426
G01 X97.4588 Y31.1265
G01 X97.4631 Y31.1199
G01 X97.4741 Y31.1051
G01 X97.4835 Y31.0945
G01 X97.5588 Y31.0191
G01 X97.5743 Y31.0052
G01 X97.5881 Y30.9949
G01 X97.5936 Y30.9913
G01 X97.6107 Y30.9816
G01 X97.7547 Y30.9097
G01 X97.7704 Y30.9028
G01 X97.7838 Y30.8981
G01 X97.7914 Y30.8959
G01 X97.8040 Y30.8929
G01 X97.8235 Y30.8901
G01 X97.8431 Y30.8891
G01 X98.0574 Y30.8891
G01 X98.0728 Y30.8897
G01 X98.0910 Y30.8920
G01 X98.1090 Y30.8959
G01 X98.1166 Y30.8981
G01 X98.1300 Y30.9028
G01 X98.1457 Y30.9097
G01 X98.2897 Y30.9816
G01 X98.3058 Y30.9906
G01 X98.3114 Y30.9942
G01 X98.3262 Y31.0052
G01 X98.3378 Y31.0153
G01 X98.4131 Y31.0906
G01 X98.4271 Y31.1061
G01 X98.4373 Y31.1199
G01 X98.4410 Y31.1254
G01 X98.4506 Y31.1426
G01 X98.5226 Y31.2865
G01 X98.5295 Y31.3022
G01 X98.5342 Y31.3156
G01 X98.5364 Y31.3232
G01 X98.5405 Y31.3424
G01 X98.5427 Y31.3607
G01 X98.5432 Y31.3749
G01 X98.5432 Y31.8035
G01 X98.5427 Y31.8164
G01 X98.5421 Y31.8243
G01 X98.5401 Y31.8383
G01 X98.5364 Y31.8551
G01 X98.5304 Y31.8738
G01 X98.5274 Y31.8812
G01 X98.5220 Y31.8929
G01 X98.4506 Y32.0358
G01 X98.4403 Y32.0539
G01 X98.4297 Y32.0690
G01 X98.4169 Y32.0839
G01 X98.3417 Y32.1592
G01 X98.3262 Y32.1732
G01 X98.3124 Y32.1834
G01 X98.3068 Y32.1871
G01 X98.2897 Y32.1967
G01 X98.1457 Y32.2687
G01 X98.1328 Y32.2745
G01 X98.1166 Y32.2803
G01 X98.1090 Y32.2825
G01 X98.0910 Y32.2864
G01 X98.0758 Y32.2884
G01 X98.0574 Y32.2892
G01 X97.8419 Y32.2892
G01 X97.8235 Y32.2883
G01 X97.8040 Y32.2854
G01 X97.7891 Y32.2818
G01 X97.7716 Y32.2760
G01 X97.7536 Y32.2681
G01 X97.6107 Y32.1967
G01 X97.6048 Y32.1936
G01 X97.5891 Y32.1841
G01 X97.5743 Y32.1732
G01 X97.5627 Y32.1630
G01 X97.4827 Y32.0830
G01 X97.4734 Y32.0723
G01 X97.4631 Y32.0585
G01 X97.4588 Y32.0519
G01 X97.4523 Y32.0406
G01 X97.3779 Y31.8918
G01 X97.3705 Y31.8750
G01 X97.3644 Y31.8563
G01 X97.3601 Y31.8371
G01 X97.3579 Y31.8189
G00 Z2.0000
G00 X98.0101 Y31.8891
G01 F60.00
G01 Z-0.1000
G01 F120.00
G01 X97.8903 Y31.8891
G01 X97.8187 Y31.8533
G01 X97.7932 Y31.8278
G01 X97.7574 Y31.7562
G01 X97.7574 Y31.4221
G01 X97.7932 Y31.3505
G01 X97.8187 Y31.3250
G01 X97.8903 Y31.2892
G01 X98.0101 Y31.2892
G01 X98.0817 Y31.3250
G01 X98.1072 Y31.3505
G01 X98.1430 Y31.4221
G01 X98.1430 Y31.7562
G01 X98.1072 Y31.8278
G01 X98.0817 Y31.8533
G01 X98.0101 Y31.8891
G00 Z2.0000
G00 X98.5727 Y32.0683
G01 F60.00
G01 Z-0.1000
G01 F120.00
G01 X98.5754 Y32.0502
G01 X98.5802 Y32.0311
G01 X98.5868 Y32.0126
G01 X98.5952 Y31.9949
G01 X98.6053 Y31.9780
G01 X98.6170 Y31.9622
G01 X98.6302 Y31.9477
G01 X98.6447 Y31.9345
G01 X98.6605 Y31.9228
G01 X98.6773 Y31.9127
G01 X98.6951 Y31.9043
G01 X98.7124 Y31.8981
G01 X98.7326 Y31.8929
G01 X98.7508 Y31.8902
G01 X98.7704 Y31.8891
G01 X98.7859 Y31.8891
G01 X98.7859 Y31.3035
G01 X98.7863 Y31.2905
G01 X98.7870 Y31.2826
G01 X98.7897 Y31.2644
G01 X98.7933 Y31.2494
G01 X98.7991 Y31.2320
G01 X98.8065 Y31.2151
G01 X98.8790 Y31.0700
G01 X98.8880 Y31.0540
G01 X98.8993 Y31.0379
G01 X98.9121 Y31.0230
G01 X98.9263 Y31.0095
G01 X98.9417 Y30.9973
G01 X98.9508 Y30.9913
G01 X98.9594 Y30.9862
G01 X99.1107 Y30.9102
G01 X99.1225 Y30.9048
G01 X99.1299 Y30.9019
G01 X99.1421 Y30.8977
G01 X99.1486 Y30.8959
G01 X99.1665 Y30.8920
G01 X99.1848 Y30.8897
G01 X99.2002 Y30.8891
G01 X99.3431 Y30.8891
G01 X99.3651 Y30.8904
G01 X99.3821 Y30.8929
G01 X99.3988 Y30.8971
G01 X99.4196 Y30.9043
G01 X99.4395 Y30.9139
G01 X99.4542 Y30.9228
G01 X99.4691 Y30.9337
G01 X99.4846 Y30.9477
G01 X99.4977 Y30.9622
G01 X99.5094 Y30.9780
G01 X99.5183 Y30.9927
G01 X99.5288 Y31.0149
G01 X99.5345 Y31.0311
G01 X99.5397 Y31.0526
G01 X99.5422 Y31.0696
G01 X99.5432 Y31.0892
G01 X99.5422 Y31.1088
G01 X99.5393 Y31.1282
G01 X99.5345 Y31.1473
G01 X99.5279 Y31.1657
G01 X99.5195 Y31.1835
G01 X99.5094 Y31.2003
G01 X99.4977 Y31.2161
G01 X99.4862 Y31.2289
G01 X99.4681 Y31.2453
G01 X99.4542 Y31.2555
G01 X99.4374 Y31.2656
G01 X99.4196 Y31.2740
G01 X99.4023 Y31.2803
G01 X99.3821 Y31.2854
G01 X99.3602 Y31.2885
G01 X99.3431 Y31.2892
G01 X99.2475 Y31.2892
G01 X99.2065 Y31.3097
G01 X99.1860 Y31.3507
G01 X99.1860 Y31.8891
G01 X99.3431 Y31.8891
G01 X99.3639 Y31.8902
G01 X99.3845 Y31.8935
G01 X99.4012 Y31.8977
G01 X99.4174 Y31.9034
G01 X99.4374 Y31.9127
G01 X99.4542 Y31.9228
G01 X99.4719 Y31.9361
G01 X99.4846 Y31.9477
G01 X99.4977 Y31.9622
G01 X99.5108 Y31.9801
G01 X99.5195 Y31.9949
G01 X99.5279 Y32.0126
G01 X99.5345 Y32.0311
G01 X99.5388 Y32.0477
G01 X99.5422 Y32.0696
G01 X99.5431 Y32.0916
G01 X99.5422 Y32.1088
G01 X99.5393 Y32.1282
G01 X99.5345 Y32.1473
G01 X99.5269 Y32.1680
G01 X99.5195 Y32.1835
G01 X99.5108 Y32.1983
G01 X99.4977 Y32.2161
G01 X99.4846 Y32.2306
G01 X99.4681 Y32.2453
G01 X99.4542 Y32.2555
G01 X99.4395 Y32.2644
G01 X99.4208 Y32.2735
G01 X99.4012 Y32.2806
G01 X99.3845 Y32.2849
G01 X99.3615 Y32.2884
G01 X99.3431 Y32.2892
G01 X99.1860 Y32.2892
G01 X99.1860 Y32.5892
G01 X99.1851 Y32.6088
G01 X99.1824 Y32.6270
G01 X99.1774 Y32.6473
G01 X99.1708 Y32.6657
G01 X99.1624 Y32.6835
G01 X99.1536 Y32.6983
G01 X99.1390 Y32.7180
G01 X99.1274 Y32.7306
G01 X99.1119 Y32.7446
G01 X99.0971 Y32.7555
G01 X99.0803 Y32.7656
G01 X99.0625 Y32.7740
G01 X99.0440 Y32.7806
G01 X99.0250 Y32.7854
G01 X99.0055 Y32.7883
G01 X98.9859 Y32.7892
G01 X98.9663 Y32.7883
G01 X98.9469 Y32.7854
G01 X98.9279 Y32.7806
G01 X98.9094 Y32.7740
G01 X98.8916 Y32.7656
G01 X98.8748 Y32.7555
G01 X98.8590 Y32.7438
G01 X98.8445 Y32.7306
G01 X98.8305 Y32.7151
G01 X98.8196 Y32.7003
G01 X98.8107 Y32.6856
G01 X98.8011 Y32.6657
G01 X98.7945 Y32.6473
G01 X98.7902 Y32.6306
G01 X98.7868 Y32.6088
G01 X98.7859 Y32.5892
G01 X98.7859 Y32.2892
G01 X98.7704 Y32.2892
G01 X98.7533 Y32.2884
G01 X98.7338 Y32.2856
G01 X98.7136 Y32.2806
G01 X98.6962 Y32.2745
G01 X98.6773 Y32.2656
G01 X98.6605 Y32.2555
G01 X98.6447 Y32.2438
G01 X98.6293 Y32.2298
G01 X98.6170 Y32.2161
G01 X98.6040 Y32.1983
G01 X98.5952 Y32.1835
G01 X98.5878 Y32.1680
G01 X98.5810 Y32.1496
G01 X98.5754 Y32.1282
G01 X98.5725 Y32.1088
G01 X98.5716 Y32.0892
G01 X98.5727 Y32.0683
G00 Z2.0000
G00 X100.7867 Y32.6076
G01 F60.00
G01 Z-0.1000
G01 F120.00
G01 X100.7859 Y32.5892
G01 X100.7859 Y31.0879
G01 X100.7871 Y31.0671
G01 X100.7897 Y31.0501
G01 X100.7938 Y31.0335
G01 X100.8011 Y31.0126
G01 X100.8095 Y30.9949
G01 X100.8210 Y30.9760
G01 X100.8313 Y30.9622
G01 X100.8428 Y30.9495
G01 X100.8590 Y30.9345
G01 X100.8769 Y30.9215
G01 X100.8916 Y30.9127
G01 X100.9071 Y30.9053
G01 X100.9279 Y30.8977
G01 X100.9493 Y30.8925
G01 X100.9663 Y30.8901
G01 X100.9847 Y30.8891
G01 X101.3431 Y30.8891
G01 X101.3615 Y30.8900
G01 X101.3693 Y30.8908
G01 X101.3874 Y30.8941
G01 X101.4064 Y30.8994
G01 X101.6206 Y30.9708
G01 X101.6351 Y30.9762
G01 X101.6517 Y30.9841
G01 X101.6675 Y30.9936
G01 X101.6740 Y30.9981
G01 X101.6885 Y31.0095
G01 X101.6988 Y31.0191
G01 X101.8455 Y31.1659
G01 X101.8541 Y31.1756
G01 X101.8590 Y31.1818
G01 X101.8695 Y31.1969
G01 X101.8767 Y31.2091
G01 X101.9506 Y31.3568
G01 X101.9581 Y31.3737
G01 X101.9605 Y31.3802
G01 X101.9658 Y31.3978
G01 X102.0372 Y31.6835
G01 X102.0410 Y31.7028
G01 X102.0423 Y31.7136
G01 X102.0432 Y31.7320
G01 X102.0432 Y31.9463
G01 X102.0422 Y31.9659
G01 X102.0410 Y31.9756
G01 X102.0391 Y31.9865
G01 X101.9658 Y32.2806
G01 X101.9605 Y32.2982
G01 X101.9581 Y32.3047
G01 X101.9506 Y32.3215
G01 X101.8767 Y32.4692
G01 X101.8702 Y32.4804
G01 X101.8659 Y32.4871
G01 X101.8549 Y32.5018
G01 X101.8455 Y32.5125
G01 X101.6980 Y32.6601
G01 X101.6843 Y32.6724
G01 X101.6740 Y32.6803
G01 X101.6675 Y32.6848
G01 X101.6528 Y32.6936
G01 X101.6401 Y32.6999
G01 X101.6328 Y32.7030
G01 X101.6206 Y32.7076
G01 X101.4023 Y32.7803
G01 X101.3874 Y32.7843
G01 X101.3681 Y32.7877
G01 X101.3615 Y32.7884
G01 X101.3431 Y32.7892
G01 X100.9847 Y32.7892
G01 X100.9663 Y32.7883
G01 X100.9493 Y32.7858
G01 X100.9279 Y32.7806
G01 X100.9071 Y32.7730
G01 X100.8916 Y32.7656
G01 X100.8748 Y32.7555
G01 X100.8572 Y32.7422
G01 X100.8445 Y32.7306
G01 X100.8313 Y32.7161
G01 X100.8183 Y32.6983
G01 X100.8095 Y32.6835
G01 X100.8011 Y32.6657
G01 X100.7945 Y32.6473
G01 X100.7902 Y32.6306
G01 X100.7867 Y32.6076
G00 Z2.0000
G00 X101.5829 Y32.1622
G01 F60.00
G01 Z-0.1000
G01 F120.00
G01 X101.5358 Y32.2564
G01 X101.4493 Y32.3429
G01 X101.3106 Y32.3891
G01 X101.1860 Y32.3891
G01 X101.1860 Y31.2892
G01 X101.3106 Y31.2892
G01 X101.4493 Y31.3355
G01 X101.5358 Y31.4220
G01 X101.5829 Y31.5161
G01 X101.6430 Y31.7567
G01 X101.6430 Y31.9217
G01 X101.5829 Y32.1622
G00 Z2.0000
G00 X99.4447 Y57.3573
G01 F60.00
G01 Z-0.1000
G01 F120.00
G01 X99.4444 Y57.3463
G01 X99.4444 Y57.1320
G01 X99.4453 Y57.1136
G01 X99.4466 Y57.1028
G01 X99.4504 Y57.0835
G01 X99.5218 Y56.7978
G01 X99.5268 Y56.7813
G01 X99.5291 Y56.7748
G01 X99.5370 Y56.7568
G01 X99.6090 Y56.6129
G01 X99.6180 Y56.5969
G01 X99.6293 Y56.5808
G01 X99.6413 Y56.5668
G01 X99.6459 Y56.5620
G01 X99.7888 Y56.4191
G01 X99.8033 Y56.4059
G01 X99.8136 Y56.3981
G01 X99.8201 Y56.3936
G01 X99.8322 Y56.3862
G01 X99.8475 Y56.3784
G01 X99.8658 Y56.3712
G01 X100.0812 Y56.2994
G01 X100.0990 Y56.2944
G01 X100.1055 Y56.2929
G01 X100.1249 Y56.2901
G01 X100.1445 Y56.2891
G01 X100.2874 Y56.2891
G01 X100.3058 Y56.2900
G01 X100.3136 Y56.2908
G01 X100.3317 Y56.2941
G01 X100.3506 Y56.2994
G01 X100.5649 Y56.3708
G01 X100.5793 Y56.3762
G01 X100.5960 Y56.3842
G01 X100.6118 Y56.3936
G01 X100.6183 Y56.3981
G01 X100.6318 Y56.4087
G01 X100.6423 Y56.4183
G01 X100.7154 Y56.4914
G01 X100.7277 Y56.5051
G01 X100.7401 Y56.5219
G01 X100.7506 Y56.5399
G01 X100.7579 Y56.5555
G01 X100.7638 Y56.5716
G01 X100.7693 Y56.5930
G01 X100.7722 Y56.6124
G01 X100.7732 Y56.6320
G01 X100.7719 Y56.6541
G01 X100.7688 Y56.6735
G01 X100.7645 Y56.6901
G01 X100.7588 Y56.7063
G01 X100.7495 Y56.7263
G01 X100.7394 Y56.7432
G01 X100.7277 Y56.7590
G01 X100.7128 Y56.7752
G01 X100.6981 Y56.7882
G01 X100.6842 Y56.7984
G01 X100.6695 Y56.8073
G01 X100.6496 Y56.8169
G01 X100.6312 Y56.8235
G01 X100.6097 Y56.8287
G01 X100.5927 Y56.8311
G01 X100.5731 Y56.8321
G01 X100.5535 Y56.8311
G01 X100.5365 Y56.8287
G01 X100.5127 Y56.8227
G01 X100.4965 Y56.8169
G01 X100.4810 Y56.8096
G01 X100.4599 Y56.7970
G01 X100.4462 Y56.7867
G01 X100.4334 Y56.7752
G01 X100.3936 Y56.7355
G01 X100.2549 Y56.6892
G01 X100.1770 Y56.6892
G01 X100.0383 Y56.7355
G01 X99.9518 Y56.8220
G01 X99.9047 Y56.9161
G01 X99.8446 Y57.1567
G01 X99.8446 Y57.3217
G01 X99.9047 Y57.5622
G01 X99.9518 Y57.6564
G01 X100.0383 Y57.7429
G01 X100.1770 Y57.7891
G01 X100.2549 Y57.7891
G01 X100.3936 Y57.7429
G01 X100.4325 Y57.7040
G01 X100.4471 Y57.6909
G01 X100.4640 Y57.6786
G01 X100.4788 Y57.6699
G01 X100.4954 Y57.6620
G01 X100.5150 Y57.6549
G01 X100.5340 Y57.6501
G01 X100.5535 Y57.6472
G01 X100.5719 Y57.6463
G01 X100.5927 Y57.6472
G01 X100.6121 Y57.6501
G01 X100.6312 Y57.6549
G01 X100.6519 Y57.6625
G01 X100.6674 Y57.6699
G01 X100.6822 Y57.6786
G01 X100.6981 Y57.6901
G01 X100.7146 Y57.7048
G01 X100.7277 Y57.7194
G01 X100.7408 Y57.7372
G01 X100.7495 Y57.7520
G01 X100.7569 Y57.7675
G01 X100.7645 Y57.7882
G01 X100.7693 Y57.8073
G01 X100.7724 Y57.8292
G01 X100.7732 Y57.8463
G01 X100.7724 Y57.8635
G01 X100.7693 Y57.8853
G01 X100.7642 Y57.9056
G01 X100.7579 Y57.9229
G01 X100.7495 Y57.9406
G01 X100.7394 Y57.9575
G01 X100.7270 Y57.9742
G01 X100.7146 Y57.9878
G01 X100.6423 Y58.0601
G01 X100.6286 Y58.0724
G01 X100.6183 Y58.0803
G01 X100.6118 Y58.0848
G01 X100.5970 Y58.0936
G01 X100.5843 Y58.0999
G01 X100.5661 Y58.1071
G01 X100.3506 Y58.1790
G01 X100.3317 Y58.1843
G01 X100.3124 Y58.1877
G01 X100.2928 Y58.1892
G01 X100.1445 Y58.1892
G01 X100.1261 Y58.1884
G01 X100.1183 Y58.1875
G01 X100.1001 Y58.1843
G01 X100.0812 Y58.1790
G01 X99.8657 Y58.1071
G01 X99.8498 Y58.1009
G01 X99.8370 Y58.0948
G01 X99.8201 Y58.0848
G01 X99.8136 Y58.0803
G01 X99.8033 Y58.0724
G01 X99.7896 Y58.0601
G01 X99.6421 Y57.9125
G01 X99.6327 Y57.9018
G01 X99.6217 Y57.8871
G01 X99.6174 Y57.8804
G01 X99.6090 Y57.8655
G01 X99.5370 Y57.7215
G01 X99.5295 Y57.7047
G01 X99.5271 Y57.6982
G01 X99.5218 Y57.6806
G01 X99.4504 Y57.3948
G01 X99.4466 Y57.3756
G01 X99.4447 Y57.3573
G00 Z2.0000
G00 X97.3025 Y57.4696
G01 F60.00
G01 Z-0.1000
G01 F120.00
G01 X97.3054 Y57.4501
G01 X97.3102 Y57.4311
G01 X97.3168 Y57.4126
G01 X97.3252 Y57.3949
G01 X97.3353 Y57.3780
G01 X97.3470 Y57.3622
G01 X97.3602 Y57.3477
G01 X97.3738 Y57.3353
G01 X97.3905 Y57.3228
G01 X97.4073 Y57.3127
G01 X97.4251 Y57.3043
G01 X97.4424 Y57.2981
G01 X97.4626 Y57.2929
G01 X97.4808 Y57.2902
G01 X97.5004 Y57.2891
G01 X97.5159 Y57.2891
G01 X97.5159 Y56.7035
G01 X97.5163 Y56.6905
G01 X97.5170 Y56.6826
G01 X97.5197 Y56.6644
G01 X97.5233 Y56.6494
G01 X97.5291 Y56.6320
G01 X97.5365 Y56.6151
G01 X97.6090 Y56.4700
G01 X97.6180 Y56.4540
G01 X97.6293 Y56.4379
G01 X97.6421 Y56.4230
G01 X97.6563 Y56.4095
G01 X97.6717 Y56.3973
G01 X97.6808 Y56.3913
G01 X97.6894 Y56.3862
G01 X97.8407 Y56.3102
G01 X97.8525 Y56.3048
G01 X97.8599 Y56.3019
G01 X97.8721 Y56.2977
G01 X97.8786 Y56.2959
G01 X97.8965 Y56.2920
G01 X97.9148 Y56.2897
G01 X97.9302 Y56.2891
G01 X98.0731 Y56.2891
G01 X98.0951 Y56.2904
G01 X98.1121 Y56.2929
G01 X98.1288 Y56.2971
G01 X98.1496 Y56.3043
G01 X98.1695 Y56.3139
G01 X98.1842 Y56.3228
G01 X98.1991 Y56.3337
G01 X98.2146 Y56.3477
G01 X98.2277 Y56.3622
G01 X98.2394 Y56.3780
G01 X98.2483 Y56.3927
G01 X98.2588 Y56.4149
G01 X98.2645 Y56.4311
G01 X98.2697 Y56.4526
G01 X98.2722 Y56.4696
G01 X98.2732 Y56.4892
G01 X98.2722 Y56.5088
G01 X98.2693 Y56.5282
G01 X98.2645 Y56.5473
G01 X98.2579 Y56.5657
G01 X98.2495 Y56.5835
G01 X98.2394 Y56.6003
G01 X98.2277 Y56.6161
G01 X98.2162 Y56.6289
G01 X98.1981 Y56.6453
G01 X98.1842 Y56.6555
G01 X98.1674 Y56.6656
G01 X98.1496 Y56.6740
G01 X98.1323 Y56.6803
G01 X98.1121 Y56.6854
G01 X98.0902 Y56.6885
G01 X98.0731 Y56.6892
G01 X97.9775 Y56.6892
G01 X97.9365 Y56.7097
G01 X97.9160 Y56.7507
G01 X97.9160 Y57.2891
G01 X98.0731 Y57.2891
G01 X98.0939 Y57.2902
G01 X98.1145 Y57.2935
G01 X98.1312 Y57.2977
G01 X98.1474 Y57.3034
G01 X98.1674 Y57.3127
G01 X98.1842 Y57.3228
G01 X98.2019 Y57.3361
G01 X98.2146 Y57.3477
G01 X98.2277 Y57.3622
G01 X98.2408 Y57.3801
G01 X98.2495 Y57.3949
G01 X98.2579 Y57.4126
G01 X98.2645 Y57.4311
G01 X98.2688 Y57.4477
G01 X98.2722 Y57.4696
G01 X98.2731 Y57.4916
G01 X98.2722 Y57.5088
G01 X98.2693 Y57.5282
G01 X98.2645 Y57.5473
G01 X98.2569 Y57.5680
G01 X98.2495 Y57.5835
G01 X98.2408 Y57.5983
G01 X98.2277 Y57.6161
G01 X98.2146 Y57.6306
G01 X98.1981 Y57.6453
G01 X98.1842 Y57.6555
G01 X98.1695 Y57.6644
G01 X98.1508 Y57.6735
G01 X98.1312 Y57.6806
G01 X98.1145 Y57.6849
G01 X98.0915 Y57.6884
G01 X98.0731 Y57.6892
G01 X97.9160 Y57.6892
G01 X97.9160 Y57.9892
G01 X97.9151 Y58.0088
G01 X97.9124 Y58.0270
G01 X97.9074 Y58.0473
G01 X97.9008 Y58.0657
G01 X97.8924 Y58.0835
G01 X97.8836 Y58.0983
G01 X97.8690 Y58.1180
G01 X97.8574 Y58.1306
G01 X97.8419 Y58.1446
G01 X97.8271 Y58.1555
G01 X97.8103 Y58.1656
G01 X97.7925 Y58.1740
G01 X97.7740 Y58.1806
G01 X97.7550 Y58.1854
G01 X97.7355 Y58.1883
G01 X97.7159 Y58.1892
G01 X97.6963 Y58.1883
G01 X97.6769 Y58.1854
G01 X97.6579 Y58.1806
G01 X97.6394 Y58.1740
G01 X97.6216 Y58.1656
G01 X97.6048 Y58.1555
G01 X97.5890 Y58.1438
G01 X97.5745 Y58.1306
G01 X97.5605 Y58.1151
G01 X97.5496 Y58.1003
G01 X97.5407 Y58.0856
G01 X97.5311 Y58.0657
G01 X97.5245 Y58.0473
G01 X97.5202 Y58.0306
G01 X97.5168 Y58.0088
G01 X97.5159 Y57.9892
G01 X97.5159 Y57.6892
G01 X97.5004 Y57.6892
G01 X97.4833 Y57.6884
G01 X97.4638 Y57.6856
G01 X97.4436 Y57.6806
G01 X97.4262 Y57.6745
G01 X97.4073 Y57.6656
G01 X97.3905 Y57.6555
G01 X97.3747 Y57.6438
G01 X97.3593 Y57.6298
G01 X97.3470 Y57.6161
G01 X97.3340 Y57.5983
G01 X97.3252 Y57.5835
G01 X97.3178 Y57.5680
G01 X97.3110 Y57.5496
G01 X97.3054 Y57.5282
G01 X97.3025 Y57.5088
G01 X97.3016 Y57.4892
G01 X97.3025 Y57.4696
G00 Z2.0000
G00 X96.7401 Y57.2891
G01 F60.00
G01 Z-0.1000
G01 F120.00
G01 X96.6203 Y57.2891
G01 X96.5487 Y57.2533
G01 X96.5232 Y57.2278
G01 X96.4874 Y57.1562
G01 X96.4874 Y56.8221
G01 X96.5232 Y56.7505
G01 X96.5487 Y56.7250
G01 X96.6203 Y56.6892
G01 X96.7401 Y56.6892
G01 X96.8117 Y56.7250
G01 X96.8372 Y56.7505
G01 X96.8730 Y56.8221
G01 X96.8730 Y57.1562
G01 X96.8372 Y57.2278
G01 X96.8117 Y57.2533
G01 X96.7401 Y57.2891
G00 Z2.0000
G00 X96.0879 Y57.2189
G01 F60.00
G01 Z-0.1000
G01 F120.00
G01 X96.0873 Y57.2035
G01 X96.0873 Y56.7737
G01 X96.0879 Y56.7595
G01 X96.0900 Y56.7424
G01 X96.0914 Y56.7347
G01 X96.0944 Y56.7220
G01 X96.1005 Y56.7034
G01 X96.1084 Y56.6854
G01 X96.1798 Y56.5426
G01 X96.1888 Y56.5265
G01 X96.1931 Y56.5199
G01 X96.2041 Y56.5051
G01 X96.2135 Y56.4945
G01 X96.2888 Y56.4191
G01 X96.3043 Y56.4052
G01 X96.3181 Y56.3949
G01 X96.3236 Y56.3913
G01 X96.3407 Y56.3816
G01 X96.4847 Y56.3097
G01 X96.5004 Y56.3028
G01 X96.5138 Y56.2981
G01 X96.5214 Y56.2959
G01 X96.5340 Y56.2929
G01 X96.5535 Y56.2901
G01 X96.5731 Y56.2891
G01 X96.7874 Y56.2891
G01 X96.8028 Y56.2897
G01 X96.8210 Y56.2920
G01 X96.8390 Y56.2959
G01 X96.8466 Y56.2981
G01 X96.8600 Y56.3028
G01 X96.8757 Y56.3097
G01 X97.0197 Y56.3816
G01 X97.0358 Y56.3906
G01 X97.0414 Y56.3942
G01 X97.0562 Y56.4052
G01 X97.0678 Y56.4153
G01 X97.1431 Y56.4906
G01 X97.1571 Y56.5061
G01 X97.1673 Y56.5199
G01 X97.1710 Y56.5254
G01 X97.1806 Y56.5426
G01 X97.2526 Y56.6865
G01 X97.2595 Y56.7022
