(G-CODE GENERATED BY FLATCAM v8.994 - www.flatcam.org - Version Date: 2020/11/7)

(Name: nanoRIghtAux-User_Drawings.gbr_follow_cnc)
(Type: G-code from Geometry)
(Units: MM)

(Created on Tuesday, 20 June 2023 at 15:05)

(This preprocessor is the default preprocessor used by FlatCAM.)
(It is made to work with MACH3 compatible motion controllers.)

(TOOL DIAMETER: 0.1 mm)
(Feedrate_XY: 120.0 mm/min)
(Feedrate_Z: 60.0 mm/min)
(Feedrate rapids 1500.0 mm/min)

(Z_Cut: -0.3 mm)
(Z_Move: 4.000000000000002 mm)
(Z Start: None mm)
(Z End: 15.0 mm)
(X,Y End: None mm)
(Steps per circle: 64)
(Preprocessor Geometry: default)

(X range:   18.0839 ...  101.8431  mm)
(Y range:   20.3237 ...   78.3859  mm)

(Spindle Speed: 0.0 RPM)
G21
G90
G94

G01 F120.00

M5
G00 Z15.0000
G00 X0.0000 Y0.0000
T1
M6    
(MSG, Change to Tool Dia = 0.1000)
M0
G00 Z15.0000

M03
G01 F120.00
G00 X29.8031 Y21.0720
G01 F60.00
G01 Z-0.3000
G01 F120.00
G01 X29.8745 Y21.0006
G00 Z1.5000
G00 X29.8745 Y21.0006
G01 F60.00
G01 Z-0.3000
G01 F120.00
G01 X30.0174 Y20.9292
G00 Z1.5000
G00 X30.0174 Y20.9292
G01 F60.00
G01 Z-0.3000
G01 F120.00
G01 X30.3745 Y20.9292
G00 Z1.5000
G00 X30.3745 Y20.9292
G01 F60.00
G01 Z-0.3000
G01 F120.00
G01 X30.5174 Y21.0006
G00 Z1.5000
G00 X30.5174 Y21.0006
G01 F60.00
G01 Z-0.3000
G01 F120.00
G01 X30.5888 Y21.0720
G00 Z1.5000
G00 X30.5888 Y21.0720
G01 F60.00
G01 Z-0.3000
G01 F120.00
G01 X30.6602 Y21.2149
G00 Z1.5000
G00 X30.6602 Y21.2149
G01 F60.00
G01 Z-0.3000
G01 F120.00
G01 X30.6602 Y21.5720
G00 Z1.5000
G00 X30.6602 Y21.5720
G01 F60.00
G01 Z-0.3000
G01 F120.00
G01 X30.5888 Y21.7149
G00 Z1.5000
G00 X30.5888 Y21.7149
G01 F60.00
G01 Z-0.3000
G01 F120.00
G01 X30.5174 Y21.7863
G00 Z1.5000
G00 X30.5174 Y21.7863
G01 F60.00
G01 Z-0.3000
G01 F120.00
G01 X30.3745 Y21.8577
G00 Z1.5000
G00 X30.3745 Y21.8577
G01 F60.00
G01 Z-0.3000
G01 F120.00
G01 X30.0174 Y21.8577
G00 Z1.5000
G00 X30.0174 Y21.8577
G01 F60.00
G01 Z-0.3000
G01 F120.00
G01 X29.8745 Y21.7863
G00 Z1.5000
G00 X29.8745 Y21.7863
G01 F60.00
G01 Z-0.3000
G01 F120.00
G01 X29.8031 Y21.7149
G00 Z1.5000
G00 X29.8031 Y21.7149
G01 F60.00
G01 Z-0.3000
G01 F120.00
G01 X29.8745 Y22.4292
G00 Z1.5000
G00 X29.8745 Y22.4292
G01 F60.00
G01 Z-0.3000
G01 F120.00
G01 X30.5888 Y22.4292
G00 Z1.5000
G00 X31.0888 Y22.4292
G01 F60.00
G01 Z-0.3000
G01 F120.00
G01 X31.5888 Y20.9292
G00 Z1.5000
G00 X31.5888 Y20.9292
G01 F60.00
G01 Z-0.3000
G01 F120.00
G01 X32.0888 Y22.4292
G00 Z1.5000
G00 X33.7317 Y22.4292
G01 F60.00
G01 Z-0.3000
G01 F120.00
G01 X33.7317 Y20.9292
G00 Z1.5000
G00 X34.4459 Y21.9292
G01 F60.00
G01 Z-0.3000
G01 F120.00
G01 X34.4459 Y20.9292
G00 Z1.5000
G00 X35.0888 Y20.9292
G01 F60.00
G01 Z-0.3000
G01 F120.00
G01 X35.0888 Y21.7149
G00 Z1.5000
G00 X35.8031 Y21.0006
G01 F60.00
G01 Z-0.3000
G01 F120.00
G01 X35.9459 Y20.9292
G00 Z1.5000
G00 X35.9459 Y20.9292
G01 F60.00
G01 Z-0.3000
G01 F120.00
G01 X36.2317 Y20.9292
G00 Z1.5000
G00 X36.2317 Y20.9292
G01 F60.00
G01 Z-0.3000
G01 F120.00
G01 X36.3745 Y21.0006
G00 Z1.5000
G00 X36.3745 Y21.0006
G01 F60.00
G01 Z-0.3000
G01 F120.00
G01 X36.4459 Y21.0720
G00 Z1.5000
G00 X36.4459 Y21.0720
G01 F60.00
G01 Z-0.3000
G01 F120.00
G01 X36.5174 Y21.2149
G00 Z1.5000
G00 X36.5174 Y21.2149
G01 F60.00
G01 Z-0.3000
G01 F120.00
G01 X36.5174 Y21.6435
G00 Z1.5000
G00 X36.5174 Y21.6435
G01 F60.00
G01 Z-0.3000
G01 F120.00
G01 X36.4459 Y21.7863
G00 Z1.5000
G00 X36.4459 Y21.7863
G01 F60.00
G01 Z-0.3000
G01 F120.00
G01 X36.3745 Y21.8577
G00 Z1.5000
G00 X36.3745 Y21.8577
G01 F60.00
G01 Z-0.3000
G01 F120.00
G01 X36.2317 Y21.9292
G00 Z1.5000
G00 X36.2317 Y21.9292
G01 F60.00
G01 Z-0.3000
G01 F120.00
G01 X35.9459 Y21.9292
G00 Z1.5000
G00 X35.9459 Y21.9292
G01 F60.00
G01 Z-0.3000
G01 F120.00
G01 X35.8031 Y21.8577
G00 Z1.5000
G00 X35.8031 Y21.9292
G01 F60.00
G01 Z-0.3000
G01 F120.00
G01 X35.8031 Y20.4292
G00 Z1.5000
G00 X35.0888 Y21.7149
G01 F60.00
G01 Z-0.3000
G01 F120.00
G01 X35.0174 Y21.8577
G00 Z1.5000
G00 X35.0174 Y21.8577
G01 F60.00
G01 Z-0.3000
G01 F120.00
G01 X34.8745 Y21.9292
G00 Z1.5000
G00 X34.8745 Y21.9292
G01 F60.00
G01 Z-0.3000
G01 F120.00
G01 X34.6602 Y21.9292
G00 Z1.5000
G00 X34.6602 Y21.9292
G01 F60.00
G01 Z-0.3000
G01 F120.00
G01 X34.5174 Y21.8577
G00 Z1.5000
G00 X34.5174 Y21.8577
G01 F60.00
G01 Z-0.3000
G01 F120.00
G01 X34.4459 Y21.7863
G00 Z1.5000
G00 X37.1602 Y21.9292
G01 F60.00
G01 Z-0.3000
G01 F120.00
G01 X37.1602 Y21.1435
G00 Z1.5000
G00 X37.1602 Y21.1435
G01 F60.00
G01 Z-0.3000
G01 F120.00
G01 X37.2317 Y21.0006
G00 Z1.5000
G00 X37.2317 Y21.0006
G01 F60.00
G01 Z-0.3000
G01 F120.00
G01 X37.3745 Y20.9292
G00 Z1.5000
G00 X37.3745 Y20.9292
G01 F60.00
G01 Z-0.3000
G01 F120.00
G01 X37.5888 Y20.9292
G00 Z1.5000
G00 X37.5888 Y20.9292
G01 F60.00
G01 Z-0.3000
G01 F120.00
G01 X37.7317 Y21.0006
G00 Z1.5000
G00 X37.7317 Y21.0006
G01 F60.00
G01 Z-0.3000
G01 F120.00
G01 X37.8031 Y21.0720
G00 Z1.5000
G00 X37.8031 Y20.9292
G01 F60.00
G01 Z-0.3000
G01 F120.00
G01 X37.8031 Y21.9292
G00 Z1.5000
G00 X38.5174 Y21.1435
G01 F60.00
G01 Z-0.3000
G01 F120.00
G01 X38.5174 Y22.4292
G00 Z1.5000
G00 X38.5174 Y21.1435
G01 F60.00
G01 Z-0.3000
G01 F120.00
G01 X38.5888 Y21.0006
G00 Z1.5000
G00 X38.5888 Y21.0006
G01 F60.00
G01 Z-0.3000
G01 F120.00
G01 X38.7317 Y20.9292
G00 Z1.5000
G00 X38.7317 Y20.9292
G01 F60.00
G01 Z-0.3000
G01 F120.00
G01 X38.8745 Y20.9292
G00 Z1.5000
G00 X38.8745 Y21.9292
G01 F60.00
G01 Z-0.3000
G01 F120.00
G01 X38.3031 Y21.9292
G00 Z1.5000
G00 X49.0436 Y21.9427
G01 F60.00
G01 Z-0.3000
G01 F120.00
G01 X49.8055 Y21.9427
G00 Z1.5000
G00 X49.5197 Y21.9427
G01 F60.00
G01 Z-0.3000
G01 F120.00
G01 X50.1864 Y20.9904
G00 Z1.5000
G00 X49.8055 Y21.9427
G01 F60.00
G01 Z-0.3000
G01 F120.00
G01 X49.9959 Y22.0380
G00 Z1.5000
G00 X49.9959 Y22.0380
G01 F60.00
G01 Z-0.3000
G01 F120.00
G01 X50.0912 Y22.1332
G00 Z1.5000
G00 X50.0912 Y22.1332
G01 F60.00
G01 Z-0.3000
G01 F120.00
G01 X50.1864 Y22.3237
G00 Z1.5000
G00 X50.1864 Y22.3237
G01 F60.00
G01 Z-0.3000
G01 F120.00
G01 X50.1864 Y22.6094
G00 Z1.5000
G00 X50.1864 Y22.6094
G01 F60.00
G01 Z-0.3000
G01 F120.00
G01 X50.0912 Y22.7999
G00 Z1.5000
G00 X50.0912 Y22.7999
G01 F60.00
G01 Z-0.3000
G01 F120.00
G01 X49.9959 Y22.8951
G00 Z1.5000
G00 X49.9959 Y22.8951
G01 F60.00
G01 Z-0.3000
G01 F120.00
G01 X49.8055 Y22.9904
G00 Z1.5000
G00 X49.8055 Y22.9904
G01 F60.00
G01 Z-0.3000
G01 F120.00
G01 X49.0436 Y22.9904
G00 Z1.5000
G00 X49.0436 Y22.9904
G01 F60.00
G01 Z-0.3000
G01 F120.00
G01 X49.0436 Y20.9904
G00 Z1.5000
G00 X50.9483 Y22.8951
G01 F60.00
G01 Z-0.3000
G01 F120.00
G01 X51.0436 Y22.9904
G00 Z1.5000
G00 X50.9483 Y22.8951
G01 F60.00
G01 Z-0.3000
G01 F120.00
G01 X51.0436 Y22.7999
G00 Z1.5000
G00 X51.0436 Y22.7999
G01 F60.00
G01 Z-0.3000
G01 F120.00
G01 X51.1388 Y22.8951
G00 Z1.5000
G00 X51.1388 Y22.8951
G01 F60.00
G01 Z-0.3000
G01 F120.00
G01 X51.0436 Y22.9904
G00 Z1.5000
G00 X51.0436 Y22.9904
G01 F60.00
G01 Z-0.3000
G01 F120.00
G01 X51.0436 Y22.7999
G00 Z1.5000
G00 X51.0436 Y22.3237
G01 F60.00
G01 Z-0.3000
G01 F120.00
G01 X51.0436 Y20.9904
G00 Z1.5000
G00 X51.9007 Y21.9427
G01 F60.00
G01 Z-0.3000
G01 F120.00
G01 X51.9007 Y21.3713
G00 Z1.5000
G00 X51.9007 Y21.9427
G01 F60.00
G01 Z-0.3000
G01 F120.00
G01 X51.9959 Y22.1332
G00 Z1.5000
G00 X51.9959 Y22.1332
G01 F60.00
G01 Z-0.3000
G01 F120.00
G01 X52.0912 Y22.2285
G00 Z1.5000
G00 X52.0912 Y22.2285
G01 F60.00
G01 Z-0.3000
G01 F120.00
G01 X52.2817 Y22.3237
G00 Z1.5000
G00 X52.2817 Y22.3237
G01 F60.00
G01 Z-0.3000
G01 F120.00
G01 X52.6626 Y22.3237
G00 Z1.5000
G00 X52.6626 Y22.3237
G01 F60.00
G01 Z-0.3000
G01 F120.00
G01 X52.8531 Y22.2285
G00 Z1.5000
G00 X52.8531 Y22.3237
G01 F60.00
G01 Z-0.3000
G01 F120.00
G01 X52.8531 Y20.7046
G00 Z1.5000
G00 X52.8531 Y20.7046
G01 F60.00
G01 Z-0.3000
G01 F120.00
G01 X52.7578 Y20.5142
G00 Z1.5000
G00 X52.7578 Y20.5142
G01 F60.00
G01 Z-0.3000
G01 F120.00
G01 X52.6626 Y20.4189
G00 Z1.5000
G00 X52.6626 Y20.4189
G01 F60.00
G01 Z-0.3000
G01 F120.00
G01 X52.4721 Y20.3237
G00 Z1.5000
G00 X52.4721 Y20.3237
G01 F60.00
G01 Z-0.3000
G01 F120.00
G01 X52.1864 Y20.3237
G00 Z1.5000
G00 X52.1864 Y20.3237
G01 F60.00
G01 Z-0.3000
G01 F120.00
G01 X51.9959 Y20.4189
G00 Z1.5000
G00 X52.2817 Y20.9904
G01 F60.00
G01 Z-0.3000
G01 F120.00
G01 X52.6626 Y20.9904
G00 Z1.5000
G00 X52.2817 Y20.9904
G01 F60.00
G01 Z-0.3000
G01 F120.00
G01 X52.0912 Y21.0856
G00 Z1.5000
G00 X52.0912 Y21.0856
G01 F60.00
G01 Z-0.3000
G01 F120.00
G01 X51.9959 Y21.1808
G00 Z1.5000
G00 X51.9959 Y21.1808
G01 F60.00
G01 Z-0.3000
G01 F120.00
G01 X51.9007 Y21.3713
G00 Z1.5000
G00 X52.6626 Y20.9904
G01 F60.00
G01 Z-0.3000
G01 F120.00
G01 X52.8531 Y21.0856
G00 Z1.5000
G00 X53.8055 Y20.9904
G01 F60.00
G01 Z-0.3000
G01 F120.00
G01 X53.8055 Y22.9904
G00 Z1.5000
G00 X54.0912 Y22.3237
G01 F60.00
G01 Z-0.3000
G01 F120.00
G01 X54.3769 Y22.3237
G00 Z1.5000
G00 X54.0912 Y22.3237
G01 F60.00
G01 Z-0.3000
G01 F120.00
G01 X53.9007 Y22.2285
G00 Z1.5000
G00 X53.9007 Y22.2285
G01 F60.00
G01 Z-0.3000
G01 F120.00
G01 X53.8055 Y22.1332
G00 Z1.5000
G00 X54.3769 Y22.3237
G01 F60.00
G01 Z-0.3000
G01 F120.00
G01 X54.5674 Y22.2285
G00 Z1.5000
G00 X54.5674 Y22.2285
G01 F60.00
G01 Z-0.3000
G01 F120.00
G01 X54.6626 Y22.0380
G00 Z1.5000
G00 X54.6626 Y22.0380
G01 F60.00
G01 Z-0.3000
G01 F120.00
G01 X54.6626 Y20.9904
G00 Z1.5000
G00 X55.3293 Y22.3237
G01 F60.00
G01 Z-0.3000
G01 F120.00
G01 X56.0912 Y22.3237
G00 Z1.5000
G00 X55.6150 Y22.9904
G01 F60.00
G01 Z-0.3000
G01 F120.00
G01 X55.6150 Y21.2761
G00 Z1.5000
G00 X55.6150 Y21.2761
G01 F60.00
G01 Z-0.3000
G01 F120.00
G01 X55.7102 Y21.0856
G00 Z1.5000
G00 X55.7102 Y21.0856
G01 F60.00
G01 Z-0.3000
G01 F120.00
G01 X55.9007 Y20.9904
G00 Z1.5000
G00 X55.9007 Y20.9904
G01 F60.00
G01 Z-0.3000
G01 F120.00
G01 X56.0912 Y20.9904
G00 Z1.5000
G00 X56.4721 Y20.9904
G01 F60.00
G01 Z-0.3000
G01 F120.00
G01 X57.1388 Y22.9904
G00 Z1.5000
G00 X57.1388 Y22.9904
G01 F60.00
G01 Z-0.3000
G01 F120.00
G01 X57.8055 Y20.9904
G00 Z1.5000
G00 X57.6150 Y21.5618
G01 F60.00
G01 Z-0.3000
G01 F120.00
G01 X56.6626 Y21.5618
G00 Z1.5000
G00 X58.4721 Y21.3713
G01 F60.00
G01 Z-0.3000
G01 F120.00
G01 X58.4721 Y22.9904
G00 Z1.5000
G00 X58.4721 Y21.3713
G01 F60.00
G01 Z-0.3000
G01 F120.00
G01 X58.5674 Y21.1808
G00 Z1.5000
G00 X58.5674 Y21.1808
G01 F60.00
G01 Z-0.3000
G01 F120.00
G01 X58.6626 Y21.0856
G00 Z1.5000
G00 X58.6626 Y21.0856
G01 F60.00
G01 Z-0.3000
G01 F120.00
G01 X58.8531 Y20.9904
G00 Z1.5000
G00 X58.8531 Y20.9904
G01 F60.00
G01 Z-0.3000
G01 F120.00
G01 X59.2340 Y20.9904
G00 Z1.5000
G00 X59.2340 Y20.9904
G01 F60.00
G01 Z-0.3000
G01 F120.00
G01 X59.4245 Y21.0856
G00 Z1.5000
G00 X59.4245 Y21.0856
G01 F60.00
G01 Z-0.3000
G01 F120.00
G01 X59.5197 Y21.1808
G00 Z1.5000
G00 X59.5197 Y21.1808
G01 F60.00
G01 Z-0.3000
G01 F120.00
G01 X59.6150 Y21.3713
G00 Z1.5000
G00 X59.6150 Y21.3713
G01 F60.00
G01 Z-0.3000
G01 F120.00
G01 X59.6150 Y22.9904
G00 Z1.5000
G00 X60.3769 Y22.9904
G01 F60.00
G01 Z-0.3000
G01 F120.00
G01 X61.7102 Y20.9904
G00 Z1.5000
G00 X60.3769 Y20.9904
G01 F60.00
G01 Z-0.3000
G01 F120.00
G01 X61.7102 Y22.9904
G00 Z1.5000
G00 X63.9007 Y21.8475
G01 F60.00
G01 Z-0.3000
G01 F120.00
G01 X63.9959 Y21.4666
G00 Z1.5000
G00 X63.9007 Y21.8475
G01 F60.00
G01 Z-0.3000
G01 F120.00
G01 X63.9007 Y22.1332
G00 Z1.5000
G00 X63.9007 Y22.1332
G01 F60.00
G01 Z-0.3000
G01 F120.00
G01 X63.9959 Y22.5142
G00 Z1.5000
G00 X63.9959 Y22.5142
G01 F60.00
G01 Z-0.3000
G01 F120.00
G01 X64.0912 Y22.7046
G00 Z1.5000
G00 X64.0912 Y22.7046
G01 F60.00
G01 Z-0.3000
G01 F120.00
G01 X64.2817 Y22.8951
G00 Z1.5000
G00 X64.2817 Y22.8951
G01 F60.00
G01 Z-0.3000
G01 F120.00
G01 X64.5674 Y22.9904
G00 Z1.5000
G00 X64.5674 Y22.9904
G01 F60.00
G01 Z-0.3000
G01 F120.00
G01 X64.7578 Y22.9904
G00 Z1.5000
G00 X64.7578 Y22.9904
G01 F60.00
G01 Z-0.3000
G01 F120.00
G01 X65.0436 Y22.8951
G00 Z1.5000
G00 X65.0436 Y22.8951
G01 F60.00
G01 Z-0.3000
G01 F120.00
G01 X65.1388 Y22.7999
G00 Z1.5000
G00 X65.9959 Y22.1332
G01 F60.00
G01 Z-0.3000
G01 F120.00
G01 X65.9007 Y21.9427
G00 Z1.5000
G00 X65.9959 Y22.1332
G01 F60.00
G01 Z-0.3000
G01 F120.00
G01 X66.0912 Y22.2285
G00 Z1.5000
G00 X66.0912 Y22.2285
G01 F60.00
G01 Z-0.3000
G01 F120.00
G01 X66.2817 Y22.3237
G00 Z1.5000
G00 X66.2817 Y22.3237
G01 F60.00
G01 Z-0.3000
G01 F120.00
G01 X66.5674 Y22.3237
G00 Z1.5000
G00 X66.5674 Y22.3237
G01 F60.00
G01 Z-0.3000
G01 F120.00
G01 X66.7578 Y22.2285
G00 Z1.5000
G00 X66.7578 Y22.2285
G01 F60.00
G01 Z-0.3000
G01 F120.00
G01 X66.8531 Y22.1332
G00 Z1.5000
G00 X66.8531 Y22.1332
G01 F60.00
G01 Z-0.3000
G01 F120.00
G01 X66.9483 Y21.9427
G00 Z1.5000
G00 X66.9483 Y21.9427
G01 F60.00
G01 Z-0.3000
G01 F120.00
G01 X66.9483 Y21.3713
G00 Z1.5000
G00 X66.9483 Y21.3713
G01 F60.00
G01 Z-0.3000
G01 F120.00
G01 X66.8531 Y21.1808
G00 Z1.5000
G00 X66.8531 Y21.1808
G01 F60.00
G01 Z-0.3000
G01 F120.00
G01 X66.7578 Y21.0856
G00 Z1.5000
G00 X66.7578 Y21.0856
G01 F60.00
G01 Z-0.3000
G01 F120.00
G01 X66.5674 Y20.9904
G00 Z1.5000
G00 X66.5674 Y20.9904
G01 F60.00
G01 Z-0.3000
G01 F120.00
G01 X66.2817 Y20.9904
G00 Z1.5000
G00 X66.2817 Y20.9904
G01 F60.00
G01 Z-0.3000
G01 F120.00
G01 X66.0912 Y21.0856
G00 Z1.5000
G00 X66.0912 Y21.0856
G01 F60.00
G01 Z-0.3000
G01 F120.00
G01 X65.9959 Y21.1808
G00 Z1.5000
G00 X65.9959 Y21.1808
G01 F60.00
G01 Z-0.3000
G01 F120.00
G01 X65.9007 Y21.3713
G00 Z1.5000
G00 X65.9007 Y21.3713
G01 F60.00
G01 Z-0.3000
G01 F120.00
G01 X65.9007 Y21.9427
G00 Z1.5000
G00 X65.1388 Y21.1808
G01 F60.00
G01 Z-0.3000
G01 F120.00
G01 X65.0436 Y21.0856
G00 Z1.5000
G00 X65.0436 Y21.0856
G01 F60.00
G01 Z-0.3000
G01 F120.00
G01 X64.7578 Y20.9904
G00 Z1.5000
G00 X64.7578 Y20.9904
G01 F60.00
G01 Z-0.3000
G01 F120.00
G01 X64.5674 Y20.9904
G00 Z1.5000
G00 X64.5674 Y20.9904
G01 F60.00
G01 Z-0.3000
G01 F120.00
G01 X64.2817 Y21.0856
G00 Z1.5000
G00 X64.2817 Y21.0856
G01 F60.00
G01 Z-0.3000
G01 F120.00
G01 X64.0912 Y21.2761
G00 Z1.5000
G00 X64.0912 Y21.2761
G01 F60.00
G01 Z-0.3000
G01 F120.00
G01 X63.9959 Y21.4666
G00 Z1.5000
G00 X67.8055 Y20.9904
G01 F60.00
G01 Z-0.3000
G01 F120.00
G01 X67.8055 Y22.3237
G00 Z1.5000
G00 X68.6626 Y20.9904
G01 F60.00
G01 Z-0.3000
G01 F120.00
G01 X68.6626 Y22.0380
G00 Z1.5000
G00 X69.6150 Y21.2761
G01 F60.00
G01 Z-0.3000
G01 F120.00
G01 X69.6150 Y22.9904
G00 Z1.5000
G00 X69.6150 Y21.2761
G01 F60.00
G01 Z-0.3000
G01 F120.00
G01 X69.7102 Y21.0856
G00 Z1.5000
G00 X69.7102 Y21.0856
G01 F60.00
G01 Z-0.3000
G01 F120.00
G01 X69.9007 Y20.9904
G00 Z1.5000
G00 X69.9007 Y20.9904
G01 F60.00
G01 Z-0.3000
G01 F120.00
G01 X70.0912 Y20.9904
G00 Z1.5000
G00 X70.7578 Y20.9904
G01 F60.00
G01 Z-0.3000
G01 F120.00
G01 X70.7578 Y22.3237
G00 Z1.5000
G00 X70.9483 Y22.2285
G01 F60.00
G01 Z-0.3000
G01 F120.00
G01 X70.8531 Y22.1332
G00 Z1.5000
G00 X70.9483 Y22.2285
G01 F60.00
G01 Z-0.3000
G01 F120.00
G01 X71.1388 Y22.3237
G00 Z1.5000
G00 X71.1388 Y22.3237
G01 F60.00
G01 Z-0.3000
G01 F120.00
G01 X71.3293 Y22.3237
G00 Z1.5000
G00 X70.8531 Y22.1332
G01 F60.00
G01 Z-0.3000
G01 F120.00
G01 X70.7578 Y21.9427
G00 Z1.5000
G00 X70.0912 Y22.3237
G01 F60.00
G01 Z-0.3000
G01 F120.00
G01 X69.3293 Y22.3237
G00 Z1.5000
G00 X68.6626 Y22.0380
G01 F60.00
G01 Z-0.3000
G01 F120.00
G01 X68.5674 Y22.2285
G00 Z1.5000
G00 X68.5674 Y22.2285
G01 F60.00
G01 Z-0.3000
G01 F120.00
G01 X68.3769 Y22.3237
G00 Z1.5000
G00 X68.3769 Y22.3237
G01 F60.00
G01 Z-0.3000
G01 F120.00
G01 X68.0912 Y22.3237
G00 Z1.5000
G00 X68.0912 Y22.3237
G01 F60.00
G01 Z-0.3000
G01 F120.00
G01 X67.9007 Y22.2285
G00 Z1.5000
G00 X67.9007 Y22.2285
G01 F60.00
G01 Z-0.3000
G01 F120.00
G01 X67.8055 Y22.1332
G00 Z1.5000
G00 X71.9007 Y21.9427
G01 F60.00
G01 Z-0.3000
G01 F120.00
G01 X71.9007 Y21.3713
G00 Z1.5000
G00 X71.9007 Y21.9427
G01 F60.00
G01 Z-0.3000
G01 F120.00
G01 X71.9959 Y22.1332
G00 Z1.5000
G00 X71.9959 Y22.1332
G01 F60.00
G01 Z-0.3000
G01 F120.00
G01 X72.0912 Y22.2285
G00 Z1.5000
G00 X72.0912 Y22.2285
G01 F60.00
G01 Z-0.3000
G01 F120.00
G01 X72.2817 Y22.3237
G00 Z1.5000
G00 X72.2817 Y22.3237
G01 F60.00
G01 Z-0.3000
G01 F120.00
G01 X72.5674 Y22.3237
G00 Z1.5000
G00 X72.5674 Y22.3237
G01 F60.00
G01 Z-0.3000
G01 F120.00
G01 X72.7578 Y22.2285
G00 Z1.5000
G00 X72.7578 Y22.2285
G01 F60.00
G01 Z-0.3000
G01 F120.00
G01 X72.8531 Y22.1332
G00 Z1.5000
G00 X72.8531 Y22.1332
G01 F60.00
G01 Z-0.3000
G01 F120.00
G01 X72.9483 Y21.9427
G00 Z1.5000
G00 X72.9483 Y21.9427
G01 F60.00
G01 Z-0.3000
G01 F120.00
G01 X72.9483 Y21.3713
G00 Z1.5000
G00 X72.9483 Y21.3713
G01 F60.00
G01 Z-0.3000
G01 F120.00
G01 X72.8531 Y21.1808
G00 Z1.5000
G00 X72.8531 Y21.1808
G01 F60.00
G01 Z-0.3000
G01 F120.00
G01 X72.7578 Y21.0856
G00 Z1.5000
G00 X72.7578 Y21.0856
G01 F60.00
G01 Z-0.3000
G01 F120.00
G01 X72.5674 Y20.9904
G00 Z1.5000
G00 X72.5674 Y20.9904
G01 F60.00
G01 Z-0.3000
G01 F120.00
G01 X72.2817 Y20.9904
G00 Z1.5000
G00 X72.2817 Y20.9904
G01 F60.00
G01 Z-0.3000
G01 F120.00
G01 X72.0912 Y21.0856
G00 Z1.5000
G00 X72.0912 Y21.0856
G01 F60.00
G01 Z-0.3000
G01 F120.00
G01 X71.9959 Y21.1808
G00 Z1.5000
G00 X71.9959 Y21.1808
G01 F60.00
G01 Z-0.3000
G01 F120.00
G01 X71.9007 Y21.3713
G00 Z1.5000
G00 X73.8055 Y21.2761
G01 F60.00
G01 Z-0.3000
G01 F120.00
G01 X73.8055 Y22.9904
G00 Z1.5000
G00 X74.8531 Y22.9904
G01 F60.00
G01 Z-0.3000
G01 F120.00
G01 X74.8531 Y20.9904
G00 Z1.5000
G00 X75.0436 Y22.3237
G01 F60.00
G01 Z-0.3000
G01 F120.00
G01 X74.8531 Y22.2285
G00 Z1.5000
G00 X75.0436 Y22.3237
G01 F60.00
G01 Z-0.3000
G01 F120.00
G01 X75.4245 Y22.3237
G00 Z1.5000
G00 X75.4245 Y22.3237
G01 F60.00
G01 Z-0.3000
G01 F120.00
G01 X75.6150 Y22.2285
G00 Z1.5000
G00 X75.6150 Y22.2285
G01 F60.00
G01 Z-0.3000
G01 F120.00
G01 X75.7102 Y22.1332
G00 Z1.5000
G00 X75.7102 Y22.1332
G01 F60.00
G01 Z-0.3000
G01 F120.00
G01 X75.8055 Y21.9427
G00 Z1.5000
G00 X75.8055 Y21.9427
G01 F60.00
G01 Z-0.3000
G01 F120.00
G01 X75.8055 Y21.3713
G00 Z1.5000
G00 X75.8055 Y21.3713
G01 F60.00
G01 Z-0.3000
G01 F120.00
G01 X75.7102 Y21.1808
G00 Z1.5000
G00 X75.7102 Y21.1808
G01 F60.00
G01 Z-0.3000
G01 F120.00
G01 X75.6150 Y21.0856
G00 Z1.5000
G00 X75.6150 Y21.0856
G01 F60.00
G01 Z-0.3000
G01 F120.00
G01 X75.4245 Y20.9904
G00 Z1.5000
G00 X75.4245 Y20.9904
G01 F60.00
G01 Z-0.3000
G01 F120.00
G01 X75.0436 Y20.9904
G00 Z1.5000
G00 X75.0436 Y20.9904
G01 F60.00
G01 Z-0.3000
G01 F120.00
G01 X74.8531 Y21.0856
G00 Z1.5000
G00 X74.0912 Y20.9904
G01 F60.00
G01 Z-0.3000
G01 F120.00
G01 X73.9007 Y21.0856
G00 Z1.5000
G00 X73.9007 Y21.0856
G01 F60.00
G01 Z-0.3000
G01 F120.00
G01 X73.8055 Y21.2761
G00 Z1.5000
G00 X76.5674 Y21.3713
G01 F60.00
G01 Z-0.3000
G01 F120.00
G01 X76.6626 Y21.1808
G00 Z1.5000
G00 X76.5674 Y21.3713
G01 F60.00
G01 Z-0.3000
G01 F120.00
G01 X76.5674 Y21.9427
G00 Z1.5000
G00 X76.5674 Y21.9427
G01 F60.00
G01 Z-0.3000
G01 F120.00
G01 X76.6626 Y22.1332
G00 Z1.5000
G00 X76.6626 Y22.1332
G01 F60.00
G01 Z-0.3000
G01 F120.00
G01 X76.7578 Y22.2285
G00 Z1.5000
G00 X76.7578 Y22.2285
G01 F60.00
G01 Z-0.3000
G01 F120.00
G01 X76.9483 Y22.3237
G00 Z1.5000
G00 X76.9483 Y22.3237
G01 F60.00
G01 Z-0.3000
G01 F120.00
G01 X77.2340 Y22.3237
G00 Z1.5000
G00 X77.2340 Y22.3237
G01 F60.00
G01 Z-0.3000
G01 F120.00
G01 X77.4245 Y22.2285
G00 Z1.5000
G00 X77.4245 Y22.2285
G01 F60.00
G01 Z-0.3000
G01 F120.00
G01 X77.5197 Y22.1332
G00 Z1.5000
G00 X77.5197 Y22.1332
G01 F60.00
G01 Z-0.3000
G01 F120.00
G01 X77.6150 Y21.9427
G00 Z1.5000
G00 X77.6150 Y21.9427
G01 F60.00
G01 Z-0.3000
G01 F120.00
G01 X77.6150 Y21.3713
G00 Z1.5000
G00 X77.6150 Y21.3713
G01 F60.00
G01 Z-0.3000
G01 F120.00
G01 X77.5197 Y21.1808
G00 Z1.5000
G00 X77.5197 Y21.1808
G01 F60.00
G01 Z-0.3000
G01 F120.00
G01 X77.4245 Y21.0856
G00 Z1.5000
G00 X77.4245 Y21.0856
G01 F60.00
G01 Z-0.3000
G01 F120.00
G01 X77.2340 Y20.9904
G00 Z1.5000
G00 X77.2340 Y20.9904
G01 F60.00
G01 Z-0.3000
G01 F120.00
G01 X76.9483 Y20.9904
G00 Z1.5000
G00 X76.9483 Y20.9904
G01 F60.00
G01 Z-0.3000
G01 F120.00
G01 X76.7578 Y21.0856
G00 Z1.5000
G00 X76.7578 Y21.0856
G01 F60.00
G01 Z-0.3000
G01 F120.00
G01 X76.6626 Y21.1808
G00 Z1.5000
G00 X78.3769 Y21.2761
G01 F60.00
G01 Z-0.3000
G01 F120.00
G01 X78.3769 Y21.4666
G00 Z1.5000
G00 X78.3769 Y21.4666
G01 F60.00
G01 Z-0.3000
G01 F120.00
G01 X78.4721 Y21.6570
G00 Z1.5000
G00 X78.4721 Y21.6570
G01 F60.00
G01 Z-0.3000
G01 F120.00
G01 X78.6626 Y21.7523
G00 Z1.5000
G00 X78.6626 Y21.7523
G01 F60.00
G01 Z-0.3000
G01 F120.00
G01 X79.1388 Y21.7523
G00 Z1.5000
G00 X79.1388 Y21.7523
G01 F60.00
G01 Z-0.3000
G01 F120.00
G01 X79.3293 Y21.8475
G00 Z1.5000
G00 X79.3293 Y22.0380
G01 F60.00
G01 Z-0.3000
G01 F120.00
G01 X79.3293 Y20.9904
G00 Z1.5000
G00 X79.3293 Y22.0380
G01 F60.00
G01 Z-0.3000
G01 F120.00
G01 X79.2340 Y22.2285
G00 Z1.5000
G00 X79.2340 Y22.2285
G01 F60.00
G01 Z-0.3000
G01 F120.00
G01 X79.0436 Y22.3237
G00 Z1.5000
G00 X79.0436 Y22.3237
G01 F60.00
G01 Z-0.3000
G01 F120.00
G01 X78.6626 Y22.3237
G00 Z1.5000
G00 X78.6626 Y22.3237
G01 F60.00
G01 Z-0.3000
G01 F120.00
G01 X78.4721 Y22.2285
G00 Z1.5000
G00 X78.3769 Y21.2761
G01 F60.00
G01 Z-0.3000
G01 F120.00
G01 X78.4721 Y21.0856
G00 Z1.5000
G00 X78.4721 Y21.0856
G01 F60.00
G01 Z-0.3000
G01 F120.00
G01 X78.6626 Y20.9904
G00 Z1.5000
G00 X78.6626 Y20.9904
G01 F60.00
G01 Z-0.3000
G01 F120.00
G01 X79.1388 Y20.9904
G00 Z1.5000
G00 X79.1388 Y20.9904
G01 F60.00
G01 Z-0.3000
G01 F120.00
G01 X79.3293 Y21.0856
G00 Z1.5000
G00 X80.2817 Y20.9904
G01 F60.00
G01 Z-0.3000
G01 F120.00
G01 X80.2817 Y22.3237
G00 Z1.5000
G00 X80.4721 Y22.2285
G01 F60.00
G01 Z-0.3000
G01 F120.00
G01 X80.3769 Y22.1332
G00 Z1.5000
G00 X80.4721 Y22.2285
G01 F60.00
G01 Z-0.3000
G01 F120.00
G01 X80.6626 Y22.3237
G00 Z1.5000
G00 X80.6626 Y22.3237
G01 F60.00
G01 Z-0.3000
G01 F120.00
G01 X80.8531 Y22.3237
G00 Z1.5000
G00 X80.3769 Y22.1332
G01 F60.00
G01 Z-0.3000
G01 F120.00
G01 X80.2817 Y21.9427
G00 Z1.5000
G00 X81.4245 Y21.9427
G01 F60.00
G01 Z-0.3000
G01 F120.00
G01 X81.4245 Y21.3713
G00 Z1.5000
G00 X81.4245 Y21.9427
G01 F60.00
G01 Z-0.3000
G01 F120.00
G01 X81.5197 Y22.1332
G00 Z1.5000
G00 X81.5197 Y22.1332
G01 F60.00
G01 Z-0.3000
G01 F120.00
G01 X81.6150 Y22.2285
G00 Z1.5000
G00 X81.6150 Y22.2285
G01 F60.00
G01 Z-0.3000
G01 F120.00
G01 X81.8055 Y22.3237
G00 Z1.5000
G00 X81.8055 Y22.3237
G01 F60.00
G01 Z-0.3000
G01 F120.00
G01 X82.1864 Y22.3237
G00 Z1.5000
G00 X82.1864 Y22.3237
G01 F60.00
G01 Z-0.3000
G01 F120.00
G01 X82.3769 Y22.2285
G00 Z1.5000
G00 X82.3769 Y22.9904
G01 F60.00
G01 Z-0.3000
G01 F120.00
G01 X82.3769 Y20.9904
G00 Z1.5000
G00 X81.4245 Y21.3713
G01 F60.00
G01 Z-0.3000
G01 F120.00
G01 X81.5197 Y21.1808
G00 Z1.5000
G00 X81.5197 Y21.1808
G01 F60.00
G01 Z-0.3000
G01 F120.00
G01 X81.6150 Y21.0856
G00 Z1.5000
G00 X81.6150 Y21.0856
G01 F60.00
G01 Z-0.3000
G01 F120.00
G01 X81.8055 Y20.9904
G00 Z1.5000
G00 X81.8055 Y20.9904
G01 F60.00
G01 Z-0.3000
G01 F120.00
G01 X82.1864 Y20.9904
G00 Z1.5000
G00 X82.1864 Y20.9904
G01 F60.00
G01 Z-0.3000
G01 F120.00
G01 X82.3769 Y21.0856
G00 Z1.5000
G00 X95.9145 Y31.0892
G01 F60.00
G01 Z-0.3000
G01 F120.00
G01 X95.9145 Y32.5892
G00 Z1.5000
G00 X95.9145 Y32.5892
G01 F60.00
G01 Z-0.3000
G01 F120.00
G01 X96.4145 Y31.5177
G00 Z1.5000
G00 X96.4145 Y31.5177
G01 F60.00
G01 Z-0.3000
G01 F120.00
G01 X96.9145 Y32.5892
G00 Z1.5000
G00 X96.9145 Y32.5892
G01 F60.00
G01 Z-0.3000
G01 F120.00
G01 X96.9145 Y31.0892
G00 Z1.5000
G00 X97.5574 Y31.3749
G01 F60.00
G01 Z-0.3000
G01 F120.00
G01 X97.6288 Y31.2320
G00 Z1.5000
G00 X97.5574 Y31.3749
G01 F60.00
G01 Z-0.3000
G01 F120.00
G01 X97.5574 Y31.8035
G00 Z1.5000
G00 X97.5574 Y31.8035
G01 F60.00
G01 Z-0.3000
G01 F120.00
G01 X97.6288 Y31.9463
G00 Z1.5000
G00 X97.6288 Y31.9463
G01 F60.00
G01 Z-0.3000
G01 F120.00
G01 X97.7002 Y32.0177
G00 Z1.5000
G00 X97.7002 Y32.0177
G01 F60.00
G01 Z-0.3000
G01 F120.00
G01 X97.8431 Y32.0892
G00 Z1.5000
G00 X97.8431 Y32.0892
G01 F60.00
G01 Z-0.3000
G01 F120.00
G01 X98.0574 Y32.0892
G00 Z1.5000
G00 X98.0574 Y32.0892
G01 F60.00
G01 Z-0.3000
G01 F120.00
G01 X98.2002 Y32.0177
G00 Z1.5000
G00 X98.2002 Y32.0177
G01 F60.00
G01 Z-0.3000
G01 F120.00
G01 X98.2717 Y31.9463
G00 Z1.5000
G00 X98.2717 Y31.9463
G01 F60.00
G01 Z-0.3000
G01 F120.00
G01 X98.3431 Y31.8035
G00 Z1.5000
G00 X98.3431 Y31.8035
G01 F60.00
G01 Z-0.3000
G01 F120.00
G01 X98.3431 Y31.3749
G00 Z1.5000
G00 X98.3431 Y31.3749
G01 F60.00
G01 Z-0.3000
G01 F120.00
G01 X98.2717 Y31.2320
G00 Z1.5000
G00 X98.2717 Y31.2320
G01 F60.00
G01 Z-0.3000
G01 F120.00
G01 X98.2002 Y31.1606
G00 Z1.5000
G00 X98.2002 Y31.1606
G01 F60.00
G01 Z-0.3000
G01 F120.00
G01 X98.0574 Y31.0892
G00 Z1.5000
G00 X98.0574 Y31.0892
G01 F60.00
G01 Z-0.3000
G01 F120.00
G01 X97.8431 Y31.0892
G00 Z1.5000
G00 X97.8431 Y31.0892
G01 F60.00
G01 Z-0.3000
G01 F120.00
G01 X97.7002 Y31.1606
G00 Z1.5000
G00 X97.7002 Y31.1606
G01 F60.00
G01 Z-0.3000
G01 F120.00
G01 X97.6288 Y31.2320
G00 Z1.5000
G00 X98.9859 Y31.3035
G01 F60.00
G01 Z-0.3000
G01 F120.00
G01 X98.9859 Y32.5892
G00 Z1.5000
G00 X98.9859 Y31.3035
G01 F60.00
G01 Z-0.3000
G01 F120.00
G01 X99.0574 Y31.1606
G00 Z1.5000
G00 X99.0574 Y31.1606
G01 F60.00
G01 Z-0.3000
G01 F120.00
G01 X99.2002 Y31.0892
G00 Z1.5000
G00 X99.2002 Y31.0892
G01 F60.00
G01 Z-0.3000
G01 F120.00
G01 X99.3431 Y31.0892
G00 Z1.5000
G00 X99.3431 Y32.0892
G01 F60.00
G01 Z-0.3000
G01 F120.00
G01 X98.7717 Y32.0892
G00 Z1.5000
G00 X100.9859 Y32.5892
G01 F60.00
G01 Z-0.3000
G01 F120.00
G01 X101.3431 Y32.5892
G00 Z1.5000
G00 X101.3431 Y32.5892
G01 F60.00
G01 Z-0.3000
G01 F120.00
G01 X101.5574 Y32.5177
G00 Z1.5000
G00 X101.5574 Y32.5177
G01 F60.00
G01 Z-0.3000
G01 F120.00
G01 X101.7002 Y32.3749
G00 Z1.5000
G00 X101.7002 Y32.3749
G01 F60.00
G01 Z-0.3000
G01 F120.00
G01 X101.7717 Y32.2320
G00 Z1.5000
G00 X101.7717 Y32.2320
G01 F60.00
G01 Z-0.3000
G01 F120.00
G01 X101.8431 Y31.9463
G00 Z1.5000
G00 X101.8431 Y31.9463
G01 F60.00
G01 Z-0.3000
G01 F120.00
G01 X101.8431 Y31.7320
G00 Z1.5000
G00 X101.8431 Y31.7320
G01 F60.00
G01 Z-0.3000
G01 F120.00
G01 X101.7717 Y31.4463
G00 Z1.5000
G00 X101.7717 Y31.4463
G01 F60.00
G01 Z-0.3000
G01 F120.00
G01 X101.7002 Y31.3035
G00 Z1.5000
G00 X101.7002 Y31.3035
G01 F60.00
G01 Z-0.3000
G01 F120.00
G01 X101.5574 Y31.1606
G00 Z1.5000
G00 X101.5574 Y31.1606
G01 F60.00
G01 Z-0.3000
G01 F120.00
G01 X101.3431 Y31.0892
G00 Z1.5000
G00 X101.3431 Y31.0892
G01 F60.00
G01 Z-0.3000
G01 F120.00
G01 X100.9859 Y31.0892
G00 Z1.5000
G00 X100.9859 Y31.0892
G01 F60.00
G01 Z-0.3000
G01 F120.00
G01 X100.9859 Y32.5892
G00 Z1.5000
G00 X100.2874 Y56.4892
G01 F60.00
G01 Z-0.3000
G01 F120.00
G01 X100.5017 Y56.5606
G00 Z1.5000
G00 X100.2874 Y56.4892
G01 F60.00
G01 Z-0.3000
G01 F120.00
G01 X100.1445 Y56.4892
G00 Z1.5000
G00 X100.1445 Y56.4892
G01 F60.00
G01 Z-0.3000
G01 F120.00
G01 X99.9302 Y56.5606
G00 Z1.5000
G00 X99.9302 Y56.5606
G01 F60.00
G01 Z-0.3000
G01 F120.00
G01 X99.7874 Y56.7035
G00 Z1.5000
G00 X99.7874 Y56.7035
G01 F60.00
G01 Z-0.3000
G01 F120.00
G01 X99.7159 Y56.8463
G00 Z1.5000
G00 X99.7159 Y56.8463
G01 F60.00
G01 Z-0.3000
G01 F120.00
G01 X99.6445 Y57.1320
G00 Z1.5000
G00 X99.6445 Y57.1320
G01 F60.00
G01 Z-0.3000
G01 F120.00
G01 X99.6445 Y57.3463
G00 Z1.5000
G00 X99.6445 Y57.3463
G01 F60.00
G01 Z-0.3000
G01 F120.00
G01 X99.7159 Y57.6320
G00 Z1.5000
G00 X99.7159 Y57.6320
G01 F60.00
G01 Z-0.3000
G01 F120.00
G01 X99.7874 Y57.7749
G00 Z1.5000
G00 X99.7874 Y57.7749
G01 F60.00
G01 Z-0.3000
G01 F120.00
G01 X99.9302 Y57.9177
G00 Z1.5000
G00 X99.9302 Y57.9177
G01 F60.00
G01 Z-0.3000
G01 F120.00
G01 X100.1445 Y57.9892
G00 Z1.5000
G00 X100.1445 Y57.9892
G01 F60.00
G01 Z-0.3000
G01 F120.00
G01 X100.2874 Y57.9892
G00 Z1.5000
G00 X100.2874 Y57.9892
G01 F60.00
G01 Z-0.3000
G01 F120.00
G01 X100.5017 Y57.9177
G00 Z1.5000
G00 X100.5017 Y57.9177
G01 F60.00
G01 Z-0.3000
G01 F120.00
G01 X100.5731 Y57.8463
G00 Z1.5000
G00 X100.5731 Y56.6320
G01 F60.00
G01 Z-0.3000
G01 F120.00
G01 X100.5017 Y56.5606
G00 Z1.5000
G00 X98.0731 Y56.4892
G01 F60.00
G01 Z-0.3000
G01 F120.00
G01 X97.9302 Y56.4892
G00 Z1.5000
G00 X97.9302 Y56.4892
G01 F60.00
G01 Z-0.3000
G01 F120.00
G01 X97.7874 Y56.5606
G00 Z1.5000
G00 X97.7874 Y56.5606
G01 F60.00
G01 Z-0.3000
G01 F120.00
G01 X97.7159 Y56.7035
G00 Z1.5000
G00 X97.7159 Y56.7035
G01 F60.00
G01 Z-0.3000
G01 F120.00
G01 X97.7159 Y57.9892
G00 Z1.5000
G00 X97.0731 Y56.7749
G01 F60.00
G01 Z-0.3000
G01 F120.00
G01 X97.0731 Y57.2035
G00 Z1.5000
G00 X97.0731 Y56.7749
G01 F60.00
G01 Z-0.3000
G01 F120.00
G01 X97.0017 Y56.6320
G00 Z1.5000
G00 X97.0017 Y56.6320
G01 F60.00
G01 Z-0.3000
G01 F120.00
G01 X96.9302 Y56.5606
G00 Z1.5000
G00 X96.9302 Y56.5606
G01 F60.00
G01 Z-0.3000
G01 F120.00
G01 X96.7874 Y56.4892
G00 Z1.5000
G00 X96.7874 Y56.4892
G01 F60.00
G01 Z-0.3000
G01 F120.00
G01 X96.5731 Y56.4892
G00 Z1.5000
G00 X96.5731 Y56.4892
G01 F60.00
G01 Z-0.3000
G01 F120.00
G01 X96.4302 Y56.5606
G00 Z1.5000
G00 X96.4302 Y56.5606
G01 F60.00
G01 Z-0.3000
G01 F120.00
G01 X96.3588 Y56.6320
G00 Z1.5000
G00 X96.3588 Y56.6320
G01 F60.00
G01 Z-0.3000
G01 F120.00
G01 X96.2874 Y56.7749
G00 Z1.5000
G00 X96.2874 Y56.7749
G01 F60.00
G01 Z-0.3000
G01 F120.00
G01 X96.2874 Y57.2035
G00 Z1.5000
G00 X96.2874 Y57.2035
G01 F60.00
G01 Z-0.3000
G01 F120.00
G01 X96.3588 Y57.3463
G00 Z1.5000
G00 X96.3588 Y57.3463
G01 F60.00
G01 Z-0.3000
G01 F120.00
G01 X96.4302 Y57.4177
G00 Z1.5000
G00 X96.4302 Y57.4177
G01 F60.00
G01 Z-0.3000
G01 F120.00
G01 X96.5731 Y57.4892
G00 Z1.5000
G00 X96.5731 Y57.4892
G01 F60.00
G01 Z-0.3000
G01 F120.00
G01 X96.7874 Y57.4892
G00 Z1.5000
G00 X96.7874 Y57.4892
G01 F60.00
G01 Z-0.3000
G01 F120.00
G01 X96.9302 Y57.4177
G00 Z1.5000
G00 X96.9302 Y57.4177
G01 F60.00
G01 Z-0.3000
G01 F120.00
G01 X97.0017 Y57.3463
G00 Z1.5000
G00 X97.0017 Y57.3463
G01 F60.00
G01 Z-0.3000
G01 F120.00
G01 X97.0731 Y57.2035
G00 Z1.5000
G00 X97.5017 Y57.4892
G01 F60.00
G01 Z-0.3000
G01 F120.00
G01 X98.0731 Y57.4892
G00 Z1.5000
G00 X95.6445 Y57.9892
G01 F60.00
G01 Z-0.3000
G01 F120.00
G01 X95.6445 Y56.4892
G00 Z1.5000
G00 X95.1445 Y56.9177
G01 F60.00
G01 Z-0.3000
G01 F120.00
G01 X95.6445 Y57.9892
G00 Z1.5000
G00 X94.6445 Y57.9892
G01 F60.00
G01 Z-0.3000
G01 F120.00
G01 X94.6445 Y56.4892
G00 Z1.5000
G00 X94.6445 Y57.9892
G01 F60.00
G01 Z-0.3000
G01 F120.00
G01 X95.1445 Y56.9177
G00 Z1.5000
G00 X85.0008 Y61.9245
G01 F60.00
G01 Z-0.3000
G01 F120.00
G01 X85.0008 Y62.4959
G00 Z1.5000
G00 X85.0008 Y61.9245
G01 F60.00
G01 Z-0.3000
G01 F120.00
G01 X83.5008 Y61.9245
G00 Z1.5000
G00 X83.5008 Y61.9245
G01 F60.00
G01 Z-0.3000
G01 F120.00
G01 X83.5008 Y62.4245
G00 Z1.5000
G00 X83.5008 Y62.4245
G01 F60.00
G01 Z-0.3000
G01 F120.00
G01 X83.5723 Y62.5674
G00 Z1.5000
G00 X83.5723 Y62.5674
G01 F60.00
G01 Z-0.3000
G01 F120.00
G01 X83.6437 Y62.6388
G00 Z1.5000
G00 X83.6437 Y62.6388
G01 F60.00
G01 Z-0.3000
G01 F120.00
G01 X83.7865 Y62.7102
G00 Z1.5000
G00 X83.7865 Y62.7102
G01 F60.00
G01 Z-0.3000
G01 F120.00
G01 X83.9294 Y62.7102
G00 Z1.5000
G00 X83.9294 Y62.7102
G01 F60.00
G01 Z-0.3000
G01 F120.00
G01 X84.0723 Y62.6388
G00 Z1.5000
G00 X84.0723 Y62.6388
G01 F60.00
G01 Z-0.3000
G01 F120.00
G01 X84.1437 Y62.5674
G00 Z1.5000
G00 X84.1437 Y62.5674
G01 F60.00
G01 Z-0.3000
G01 F120.00
G01 X84.2151 Y62.4245
G00 Z1.5000
G00 X84.2151 Y62.4245
G01 F60.00
G01 Z-0.3000
G01 F120.00
G01 X84.2151 Y61.9245
G00 Z1.5000
G00 X84.2151 Y62.4245
G01 F60.00
G01 Z-0.3000
G01 F120.00
G01 X84.2865 Y62.6388
G00 Z1.5000
G00 X84.2865 Y62.6388
G01 F60.00
G01 Z-0.3000
G01 F120.00
G01 X84.3580 Y62.7102
G00 Z1.5000
G00 X84.3580 Y62.7102
G01 F60.00
G01 Z-0.3000
G01 F120.00
G01 X84.5008 Y62.7817
G00 Z1.5000
G00 X84.5008 Y62.7817
G01 F60.00
G01 Z-0.3000
G01 F120.00
G01 X84.7151 Y62.7817
G00 Z1.5000
G00 X84.7151 Y62.7817
G01 F60.00
G01 Z-0.3000
G01 F120.00
G01 X84.8580 Y62.7102
G00 Z1.5000
G00 X84.8580 Y62.7102
G01 F60.00
G01 Z-0.3000
G01 F120.00
G01 X84.9294 Y62.6388
G00 Z1.5000
G00 X84.9294 Y62.6388
G01 F60.00
G01 Z-0.3000
G01 F120.00
G01 X85.0008 Y62.4959
G00 Z1.5000
G00 X84.7865 Y63.4245
G01 F60.00
G01 Z-0.3000
G01 F120.00
G01 X84.0008 Y63.4245
G00 Z1.5000
G00 X84.7865 Y63.4245
G01 F60.00
G01 Z-0.3000
G01 F120.00
G01 X84.9294 Y63.4959
G00 Z1.5000
G00 X84.9294 Y63.4959
G01 F60.00
G01 Z-0.3000
G01 F120.00
G01 X85.0008 Y63.6388
G00 Z1.5000
G00 X85.0008 Y63.6388
G01 F60.00
G01 Z-0.3000
G01 F120.00
G01 X85.0008 Y63.8531
G00 Z1.5000
G00 X85.0008 Y63.8531
G01 F60.00
G01 Z-0.3000
G01 F120.00
G01 X84.9294 Y63.9959
G00 Z1.5000
G00 X84.9294 Y63.9959
G01 F60.00
G01 Z-0.3000
G01 F120.00
G01 X84.8580 Y64.0674
G00 Z1.5000
G00 X85.0008 Y64.0674
G01 F60.00
G01 Z-0.3000
G01 F120.00
G01 X84.0008 Y64.0674
G00 Z1.5000
G00 X84.7865 Y64.7817
G01 F60.00
G01 Z-0.3000
G01 F120.00
G01 X83.5008 Y64.7817
G00 Z1.5000
G00 X84.7865 Y64.7817
G01 F60.00
G01 Z-0.3000
G01 F120.00
G01 X84.9294 Y64.8531
G00 Z1.5000
G00 X84.9294 Y64.8531
G01 F60.00
G01 Z-0.3000
G01 F120.00
G01 X85.0008 Y64.9959
G00 Z1.5000
G00 X85.0008 Y64.9959
G01 F60.00
G01 Z-0.3000
G01 F120.00
G01 X85.0008 Y65.1388
G00 Z1.5000
G00 X84.7865 Y65.6388
G01 F60.00
G01 Z-0.3000
G01 F120.00
G01 X83.5008 Y65.6388
G00 Z1.5000
G00 X84.7865 Y65.6388
G01 F60.00
G01 Z-0.3000
G01 F120.00
G01 X84.9294 Y65.7102
G00 Z1.5000
G00 X84.9294 Y65.7102
G01 F60.00
G01 Z-0.3000
G01 F120.00
G01 X85.0008 Y65.8531
G00 Z1.5000
G00 X85.0008 Y65.8531
G01 F60.00
G01 Z-0.3000
G01 F120.00
G01 X85.0008 Y65.9959
G00 Z1.5000
G00 X84.7151 Y66.4245
G01 F60.00
G01 Z-0.3000
G01 F120.00
G01 X84.8580 Y66.4959
G00 Z1.5000
G00 X84.7151 Y66.4245
G01 F60.00
G01 Z-0.3000
G01 F120.00
G01 X84.2865 Y66.4245
G00 Z1.5000
G00 X84.2865 Y66.4245
G01 F60.00
G01 Z-0.3000
G01 F120.00
G01 X84.1437 Y66.4959
G00 Z1.5000
G00 X84.1437 Y66.4959
G01 F60.00
G01 Z-0.3000
G01 F120.00
G01 X84.0723 Y66.5674
G00 Z1.5000
G00 X84.0723 Y66.5674
G01 F60.00
G01 Z-0.3000
G01 F120.00
G01 X84.0008 Y66.7102
G00 Z1.5000
G00 X84.0008 Y66.7102
G01 F60.00
G01 Z-0.3000
G01 F120.00
G01 X84.0008 Y66.9245
G00 Z1.5000
G00 X84.0008 Y66.9245
G01 F60.00
G01 Z-0.3000
G01 F120.00
G01 X84.0723 Y67.0674
G00 Z1.5000
G00 X84.0723 Y67.0674
G01 F60.00
G01 Z-0.3000
G01 F120.00
G01 X84.1437 Y67.1388
G00 Z1.5000
G00 X84.1437 Y67.1388
G01 F60.00
G01 Z-0.3000
G01 F120.00
G01 X84.2865 Y67.2102
G00 Z1.5000
G00 X84.2865 Y67.2102
G01 F60.00
G01 Z-0.3000
G01 F120.00
G01 X84.7151 Y67.2102
G00 Z1.5000
G00 X84.7151 Y67.2102
G01 F60.00
G01 Z-0.3000
G01 F120.00
G01 X84.8580 Y67.1388
G00 Z1.5000
G00 X84.8580 Y67.1388
G01 F60.00
G01 Z-0.3000
G01 F120.00
G01 X84.9294 Y67.0674
G00 Z1.5000
G00 X84.9294 Y67.0674
G01 F60.00
G01 Z-0.3000
G01 F120.00
G01 X85.0008 Y66.9245
G00 Z1.5000
G00 X85.0008 Y66.9245
G01 F60.00
G01 Z-0.3000
G01 F120.00
G01 X85.0008 Y66.7102
G00 Z1.5000
G00 X85.0008 Y66.7102
G01 F60.00
G01 Z-0.3000
G01 F120.00
G01 X84.9294 Y66.5674
G00 Z1.5000
G00 X84.9294 Y66.5674
G01 F60.00
G01 Z-0.3000
G01 F120.00
G01 X84.8580 Y66.4959
G00 Z1.5000
G00 X84.0008 Y65.9959
G01 F60.00
G01 Z-0.3000
G01 F120.00
G01 X84.0008 Y65.4245
G00 Z1.5000
G00 X84.0008 Y65.1388
G01 F60.00
G01 Z-0.3000
G01 F120.00
G01 X84.0008 Y64.5674
G00 Z1.5000
G00 X82.5858 Y64.6388
G01 F60.00
G01 Z-0.3000
G01 F120.00
G01 X81.5858 Y64.6388
G00 Z1.5000
G00 X81.7287 Y64.7102
G01 F60.00
G01 Z-0.3000
G01 F120.00
G01 X81.8715 Y64.6388
G00 Z1.5000
G00 X81.7287 Y64.7102
G01 F60.00
G01 Z-0.3000
G01 F120.00
G01 X81.6573 Y64.7817
G00 Z1.5000
G00 X81.6573 Y64.7817
G01 F60.00
G01 Z-0.3000
G01 F120.00
G01 X81.5858 Y64.9245
G00 Z1.5000
G00 X81.5858 Y64.9245
G01 F60.00
G01 Z-0.3000
G01 F120.00
G01 X81.5858 Y65.0674
G00 Z1.5000
G00 X81.8715 Y65.4959
G01 F60.00
G01 Z-0.3000
G01 F120.00
G01 X82.3001 Y65.4959
G00 Z1.5000
G00 X81.8715 Y65.4959
G01 F60.00
G01 Z-0.3000
G01 F120.00
G01 X81.7287 Y65.5674
G00 Z1.5000
G00 X81.7287 Y65.5674
G01 F60.00
G01 Z-0.3000
G01 F120.00
G01 X81.6573 Y65.6388
G00 Z1.5000
G00 X81.6573 Y65.6388
G01 F60.00
G01 Z-0.3000
G01 F120.00
G01 X81.5858 Y65.7817
G00 Z1.5000
G00 X81.5858 Y65.7817
G01 F60.00
G01 Z-0.3000
G01 F120.00
G01 X81.5858 Y65.9959
G00 Z1.5000
G00 X81.5858 Y65.9959
G01 F60.00
G01 Z-0.3000
G01 F120.00
G01 X81.6573 Y66.1388
G00 Z1.5000
G00 X81.6573 Y66.1388
G01 F60.00
G01 Z-0.3000
G01 F120.00
G01 X81.7287 Y66.2102
G00 Z1.5000
G00 X81.7287 Y66.2102
G01 F60.00
G01 Z-0.3000
G01 F120.00
G01 X81.8715 Y66.2817
G00 Z1.5000
G00 X81.8715 Y66.2817
G01 F60.00
G01 Z-0.3000
G01 F120.00
G01 X82.3001 Y66.2817
G00 Z1.5000
G00 X82.3001 Y66.2817
G01 F60.00
G01 Z-0.3000
G01 F120.00
G01 X82.4430 Y66.2102
G00 Z1.5000
G00 X82.4430 Y66.2102
G01 F60.00
G01 Z-0.3000
G01 F120.00
G01 X82.5144 Y66.1388
G00 Z1.5000
G00 X82.5144 Y66.1388
G01 F60.00
G01 Z-0.3000
G01 F120.00
G01 X82.5858 Y65.9959
G00 Z1.5000
G00 X82.5858 Y65.9959
G01 F60.00
G01 Z-0.3000
G01 F120.00
G01 X82.5858 Y65.7817
G00 Z1.5000
G00 X82.5858 Y65.7817
G01 F60.00
G01 Z-0.3000
G01 F120.00
G01 X82.5144 Y65.6388
G00 Z1.5000
G00 X82.5144 Y65.6388
G01 F60.00
G01 Z-0.3000
G01 F120.00
G01 X82.4430 Y65.5674
G00 Z1.5000
G00 X82.4430 Y65.5674
G01 F60.00
G01 Z-0.3000
G01 F120.00
G01 X82.3001 Y65.4959
G00 Z1.5000
G00 X82.5858 Y66.9245
G01 F60.00
G01 Z-0.3000
G01 F120.00
G01 X81.5858 Y66.9245
G00 Z1.5000
G00 X81.2287 Y66.9245
G01 F60.00
G01 Z-0.3000
G01 F120.00
G01 X81.1573 Y66.8531
G00 Z1.5000
G00 X81.2287 Y66.9245
G01 F60.00
G01 Z-0.3000
G01 F120.00
G01 X81.1573 Y66.9959
G00 Z1.5000
G00 X81.1573 Y66.9959
G01 F60.00
G01 Z-0.3000
G01 F120.00
G01 X81.0858 Y66.9245
G00 Z1.5000
G00 X81.0858 Y66.9245
G01 F60.00
G01 Z-0.3000
G01 F120.00
G01 X81.1573 Y66.8531
G00 Z1.5000
G00 X81.2287 Y66.9245
G01 F60.00
G01 Z-0.3000
G01 F120.00
G01 X81.0858 Y66.9245
G00 Z1.5000
G00 X81.5858 Y67.4959
G01 F60.00
G01 Z-0.3000
G01 F120.00
G01 X81.5858 Y68.2817
G00 Z1.5000
G00 X81.5858 Y68.2817
G01 F60.00
G01 Z-0.3000
G01 F120.00
G01 X82.5858 Y67.4959
G00 Z1.5000
G00 X82.5858 Y67.4959
G01 F60.00
G01 Z-0.3000
G01 F120.00
G01 X82.5858 Y68.2817
G00 Z1.5000
G00 X82.3715 Y68.7817
G01 F60.00
G01 Z-0.3000
G01 F120.00
G01 X82.5144 Y68.8531
G00 Z1.5000
G00 X82.3715 Y68.7817
G01 F60.00
G01 Z-0.3000
G01 F120.00
G01 X81.8001 Y68.7817
G00 Z1.5000
G00 X81.8001 Y68.7817
G01 F60.00
G01 Z-0.3000
G01 F120.00
G01 X81.6573 Y68.8531
G00 Z1.5000
G00 X81.6573 Y68.8531
G01 F60.00
G01 Z-0.3000
G01 F120.00
G01 X81.5858 Y68.9959
G00 Z1.5000
G00 X81.5858 Y68.9959
G01 F60.00
G01 Z-0.3000
G01 F120.00
G01 X81.5858 Y69.2817
G00 Z1.5000
G00 X81.5858 Y69.2817
G01 F60.00
G01 Z-0.3000
G01 F120.00
G01 X81.6573 Y69.4245
G00 Z1.5000
G00 X81.6573 Y69.4245
G01 F60.00
G01 Z-0.3000
G01 F120.00
G01 X81.8001 Y69.4959
G00 Z1.5000
G00 X81.8001 Y69.4959
G01 F60.00
G01 Z-0.3000
G01 F120.00
G01 X81.9430 Y69.4959
G00 Z1.5000
G00 X81.9430 Y69.4959
G01 F60.00
G01 Z-0.3000
G01 F120.00
G01 X82.0858 Y68.7817
G00 Z1.5000
G00 X82.5144 Y68.8531
G01 F60.00
G01 Z-0.3000
G01 F120.00
G01 X82.5858 Y68.9959
G00 Z1.5000
G00 X82.5858 Y68.9959
G01 F60.00
G01 Z-0.3000
G01 F120.00
G01 X82.5858 Y69.2817
G00 Z1.5000
G00 X82.5858 Y69.2817
G01 F60.00
G01 Z-0.3000
G01 F120.00
G01 X82.5144 Y69.4245
G00 Z1.5000
G00 X84.0723 Y68.4245
G01 F60.00
G01 Z-0.3000
G01 F120.00
G01 X84.0008 Y68.2817
G00 Z1.5000
G00 X84.0723 Y68.4245
G01 F60.00
G01 Z-0.3000
G01 F120.00
G01 X84.2151 Y68.4959
G00 Z1.5000
G00 X84.2151 Y68.4959
G01 F60.00
G01 Z-0.3000
G01 F120.00
G01 X85.0008 Y68.4959
G00 Z1.5000
G00 X85.0008 Y67.8531
G01 F60.00
G01 Z-0.3000
G01 F120.00
G01 X84.0008 Y67.8531
G00 Z1.5000
G00 X84.1437 Y67.8531
G01 F60.00
G01 Z-0.3000
G01 F120.00
G01 X84.0723 Y67.9245
G00 Z1.5000
G00 X84.0723 Y67.9245
G01 F60.00
G01 Z-0.3000
G01 F120.00
G01 X84.0008 Y68.0674
G00 Z1.5000
G00 X84.0008 Y68.0674
G01 F60.00
G01 Z-0.3000
G01 F120.00
G01 X84.0008 Y68.2817
G00 Z1.5000
G00 X82.5144 Y63.9245
G01 F60.00
G01 Z-0.3000
G01 F120.00
G01 X82.5858 Y63.7817
G00 Z1.5000
G00 X82.5858 Y63.7817
G01 F60.00
G01 Z-0.3000
G01 F120.00
G01 X82.5858 Y63.4959
G00 Z1.5000
G00 X82.5858 Y63.4959
G01 F60.00
G01 Z-0.3000
G01 F120.00
G01 X82.5144 Y63.3531
G00 Z1.5000
G00 X82.5144 Y63.3531
G01 F60.00
G01 Z-0.3000
G01 F120.00
G01 X82.3715 Y63.2817
G00 Z1.5000
G00 X82.3715 Y63.2817
G01 F60.00
G01 Z-0.3000
G01 F120.00
G01 X81.8001 Y63.2817
G00 Z1.5000
G00 X81.8001 Y63.2817
G01 F60.00
G01 Z-0.3000
G01 F120.00
G01 X81.6573 Y63.3531
G00 Z1.5000
G00 X81.6573 Y63.3531
G01 F60.00
G01 Z-0.3000
G01 F120.00
G01 X81.5858 Y63.4959
G00 Z1.5000
G00 X81.5858 Y63.4959
G01 F60.00
G01 Z-0.3000
G01 F120.00
G01 X81.5858 Y63.7817
G00 Z1.5000
G00 X81.5858 Y63.7817
G01 F60.00
G01 Z-0.3000
G01 F120.00
G01 X81.6573 Y63.9245
G00 Z1.5000
G00 X81.6573 Y63.9245
G01 F60.00
G01 Z-0.3000
G01 F120.00
G01 X81.8001 Y63.9959
G00 Z1.5000
G00 X81.8001 Y63.9959
G01 F60.00
G01 Z-0.3000
G01 F120.00
G01 X81.9430 Y63.9959
G00 Z1.5000
G00 X81.9430 Y63.9959
G01 F60.00
G01 Z-0.3000
G01 F120.00
G01 X82.0858 Y63.2817
G00 Z1.5000
G00 X82.5858 Y62.7817
G01 F60.00
G01 Z-0.3000
G01 F120.00
G01 X82.5858 Y61.7817
G00 Z1.5000
G00 X82.5858 Y61.7817
G01 F60.00
G01 Z-0.3000
G01 F120.00
G01 X81.0858 Y62.7817
G00 Z1.5000
G00 X81.0858 Y61.7817
G01 F60.00
G01 Z-0.3000
G01 F120.00
G01 X81.0858 Y62.7817
G00 Z1.5000
G00 X70.9594 Y70.7431
G01 F60.00
G01 Z-0.3000
G01 F120.00
G01 X71.0308 Y70.9574
G00 Z1.5000
G00 X71.0308 Y70.9574
G01 F60.00
G01 Z-0.3000
G01 F120.00
G01 X71.0308 Y71.3145
G00 Z1.5000
G00 X71.0308 Y71.3145
G01 F60.00
G01 Z-0.3000
G01 F120.00
G01 X70.9594 Y71.4574
G00 Z1.5000
G00 X70.9594 Y71.4574
G01 F60.00
G01 Z-0.3000
G01 F120.00
G01 X70.8880 Y71.5288
G00 Z1.5000
G00 X70.8880 Y71.5288
G01 F60.00
G01 Z-0.3000
G01 F120.00
G01 X70.7451 Y71.6002
G00 Z1.5000
G00 X70.7451 Y71.6002
G01 F60.00
G01 Z-0.3000
G01 F120.00
G01 X70.6023 Y71.6002
G00 Z1.5000
G00 X70.6023 Y71.6002
G01 F60.00
G01 Z-0.3000
G01 F120.00
G01 X70.4594 Y71.5288
G00 Z1.5000
G00 X70.4594 Y71.5288
G01 F60.00
G01 Z-0.3000
G01 F120.00
G01 X70.3880 Y71.4574
G00 Z1.5000
G00 X70.3880 Y71.4574
G01 F60.00
G01 Z-0.3000
G01 F120.00
G01 X70.3165 Y71.3145
G00 Z1.5000
G00 X70.3165 Y71.3145
G01 F60.00
G01 Z-0.3000
G01 F120.00
G01 X70.2451 Y71.0288
G00 Z1.5000
G00 X70.2451 Y71.0288
G01 F60.00
G01 Z-0.3000
G01 F120.00
G01 X70.1737 Y70.8859
G00 Z1.5000
G00 X70.1737 Y70.8859
G01 F60.00
G01 Z-0.3000
G01 F120.00
G01 X70.1023 Y70.8145
G00 Z1.5000
G00 X70.1023 Y70.8145
G01 F60.00
G01 Z-0.3000
G01 F120.00
G01 X69.9594 Y70.7431
G00 Z1.5000
G00 X69.9594 Y70.7431
G01 F60.00
G01 Z-0.3000
G01 F120.00
G01 X69.8165 Y70.7431
G00 Z1.5000
G00 X69.8165 Y70.7431
G01 F60.00
G01 Z-0.3000
G01 F120.00
G01 X69.6737 Y70.8145
G00 Z1.5000
G00 X69.6737 Y70.8145
G01 F60.00
G01 Z-0.3000
G01 F120.00
G01 X69.6023 Y70.8859
G00 Z1.5000
G00 X69.6023 Y70.8859
G01 F60.00
G01 Z-0.3000
G01 F120.00
G01 X69.5308 Y71.0288
G00 Z1.5000
G00 X69.5308 Y71.0288
G01 F60.00
G01 Z-0.3000
G01 F120.00
G01 X69.5308 Y71.3859
G00 Z1.5000
G00 X69.5308 Y71.3859
G01 F60.00
G01 Z-0.3000
G01 F120.00
G01 X69.6023 Y71.6002
G00 Z1.5000
G00 X70.1023 Y72.2431
G01 F60.00
G01 Z-0.3000
G01 F120.00
G01 X70.2451 Y72.1717
G00 Z1.5000
G00 X70.1023 Y72.2431
G01 F60.00
G01 Z-0.3000
G01 F120.00
G01 X70.0308 Y72.3859
G00 Z1.5000
G00 X70.0308 Y72.3859
G01 F60.00
G01 Z-0.3000
G01 F120.00
G01 X70.0308 Y72.6717
G00 Z1.5000
G00 X70.0308 Y72.6717
G01 F60.00
G01 Z-0.3000
G01 F120.00
G01 X70.1023 Y72.8145
G00 Z1.5000
G00 X70.1023 Y72.8145
G01 F60.00
G01 Z-0.3000
G01 F120.00
G01 X70.2451 Y72.8859
G00 Z1.5000
G00 X70.2451 Y72.8859
G01 F60.00
G01 Z-0.3000
G01 F120.00
G01 X70.3880 Y72.8859
G00 Z1.5000
G00 X70.3880 Y72.8859
G01 F60.00
G01 Z-0.3000
G01 F120.00
G01 X70.5308 Y72.1717
G00 Z1.5000
G00 X70.2451 Y72.1717
G01 F60.00
G01 Z-0.3000
G01 F120.00
G01 X70.8165 Y72.1717
G00 Z1.5000
G00 X70.8165 Y72.1717
G01 F60.00
G01 Z-0.3000
G01 F120.00
G01 X70.9594 Y72.2431
G00 Z1.5000
G00 X70.9594 Y72.2431
G01 F60.00
G01 Z-0.3000
G01 F120.00
G01 X71.0308 Y72.3859
G00 Z1.5000
G00 X71.0308 Y72.3859
G01 F60.00
G01 Z-0.3000
G01 F120.00
G01 X71.0308 Y72.6717
G00 Z1.5000
G00 X71.0308 Y72.6717
G01 F60.00
G01 Z-0.3000
G01 F120.00
G01 X70.9594 Y72.8145
G00 Z1.5000
G00 X71.0308 Y73.5288
G01 F60.00
G01 Z-0.3000
G01 F120.00
G01 X70.0308 Y73.5288
G00 Z1.5000
G00 X71.0308 Y74.1717
G01 F60.00
G01 Z-0.3000
G01 F120.00
G01 X70.2451 Y74.1717
G00 Z1.5000
G00 X70.9594 Y74.8145
G01 F60.00
G01 Z-0.3000
G01 F120.00
G01 X71.0308 Y74.9574
G00 Z1.5000
G00 X71.0308 Y74.9574
G01 F60.00
G01 Z-0.3000
G01 F120.00
G01 X71.0308 Y75.2431
G00 Z1.5000
G00 X71.0308 Y75.2431
G01 F60.00
G01 Z-0.3000
G01 F120.00
G01 X70.9594 Y75.3859
G00 Z1.5000
G00 X70.9594 Y75.3859
G01 F60.00
G01 Z-0.3000
G01 F120.00
G01 X70.8165 Y75.4574
G00 Z1.5000
G00 X70.8165 Y75.4574
G01 F60.00
G01 Z-0.3000
G01 F120.00
G01 X70.7451 Y75.4574
G00 Z1.5000
G00 X70.7451 Y75.4574
G01 F60.00
G01 Z-0.3000
G01 F120.00
G01 X70.6023 Y75.3859
G00 Z1.5000
G00 X70.6023 Y75.3859
G01 F60.00
G01 Z-0.3000
G01 F120.00
G01 X70.5308 Y75.2431
G00 Z1.5000
G00 X70.5308 Y75.2431
G01 F60.00
G01 Z-0.3000
G01 F120.00
G01 X70.5308 Y75.0288
G00 Z1.5000
G00 X70.5308 Y75.0288
G01 F60.00
G01 Z-0.3000
G01 F120.00
G01 X70.4594 Y74.8859
G00 Z1.5000
G00 X70.4594 Y74.8859
G01 F60.00
G01 Z-0.3000
G01 F120.00
G01 X70.3165 Y74.8145
G00 Z1.5000
G00 X70.3165 Y74.8145
G01 F60.00
G01 Z-0.3000
G01 F120.00
G01 X70.2451 Y74.8145
G00 Z1.5000
G00 X70.2451 Y74.8145
G01 F60.00
G01 Z-0.3000
G01 F120.00
G01 X70.1023 Y74.8859
G00 Z1.5000
G00 X70.1023 Y74.8859
G01 F60.00
G01 Z-0.3000
G01 F120.00
G01 X70.0308 Y75.0288
G00 Z1.5000
G00 X70.0308 Y75.0288
G01 F60.00
G01 Z-0.3000
G01 F120.00
G01 X70.0308 Y75.2431
G00 Z1.5000
G00 X70.0308 Y75.2431
G01 F60.00
G01 Z-0.3000
G01 F120.00
G01 X70.1023 Y75.3859
G00 Z1.5000
G00 X70.3165 Y76.0288
G01 F60.00
G01 Z-0.3000
G01 F120.00
G01 X70.7451 Y76.0288
G00 Z1.5000
G00 X70.3165 Y76.0288
G01 F60.00
G01 Z-0.3000
G01 F120.00
G01 X70.1737 Y76.1002
G00 Z1.5000
G00 X70.1737 Y76.1002
G01 F60.00
G01 Z-0.3000
G01 F120.00
G01 X70.1023 Y76.1717
G00 Z1.5000
G00 X70.1023 Y76.1717
G01 F60.00
G01 Z-0.3000
G01 F120.00
G01 X70.0308 Y76.3145
G00 Z1.5000
G00 X70.0308 Y76.3145
G01 F60.00
G01 Z-0.3000
G01 F120.00
G01 X70.0308 Y76.5288
G00 Z1.5000
G00 X70.0308 Y76.5288
G01 F60.00
G01 Z-0.3000
G01 F120.00
G01 X70.1023 Y76.6717
G00 Z1.5000
G00 X70.1023 Y76.6717
G01 F60.00
G01 Z-0.3000
G01 F120.00
G01 X70.1737 Y76.7431
G00 Z1.5000
G00 X70.1737 Y76.7431
G01 F60.00
G01 Z-0.3000
G01 F120.00
G01 X70.3165 Y76.8145
G00 Z1.5000
G00 X70.3165 Y76.8145
G01 F60.00
G01 Z-0.3000
G01 F120.00
G01 X70.7451 Y76.8145
G00 Z1.5000
G00 X70.7451 Y76.8145
G01 F60.00
G01 Z-0.3000
G01 F120.00
G01 X70.8880 Y76.7431
G00 Z1.5000
G00 X70.8880 Y76.7431
G01 F60.00
G01 Z-0.3000
G01 F120.00
G01 X70.9594 Y76.6717
G00 Z1.5000
G00 X70.9594 Y76.6717
G01 F60.00
G01 Z-0.3000
G01 F120.00
G01 X71.0308 Y76.5288
G00 Z1.5000
G00 X71.0308 Y76.5288
G01 F60.00
G01 Z-0.3000
G01 F120.00
G01 X71.0308 Y76.3145
G00 Z1.5000
G00 X71.0308 Y76.3145
G01 F60.00
G01 Z-0.3000
G01 F120.00
G01 X70.9594 Y76.1717
G00 Z1.5000
G00 X70.9594 Y76.1717
G01 F60.00
G01 Z-0.3000
G01 F120.00
G01 X70.8880 Y76.1002
G00 Z1.5000
G00 X70.8880 Y76.1002
G01 F60.00
G01 Z-0.3000
G01 F120.00
G01 X70.7451 Y76.0288
G00 Z1.5000
G00 X71.0308 Y77.4574
G01 F60.00
G01 Z-0.3000
G01 F120.00
G01 X70.0308 Y77.4574
G00 Z1.5000
G00 X70.1737 Y77.5288
G01 F60.00
G01 Z-0.3000
G01 F120.00
G01 X70.1023 Y77.6002
G00 Z1.5000
G00 X70.1023 Y77.6002
G01 F60.00
G01 Z-0.3000
G01 F120.00
G01 X70.0308 Y77.7431
G00 Z1.5000
G00 X70.0308 Y77.7431
G01 F60.00
G01 Z-0.3000
G01 F120.00
G01 X70.0308 Y77.8859
G00 Z1.5000
G00 X70.1737 Y77.5288
G01 F60.00
G01 Z-0.3000
G01 F120.00
G01 X70.3165 Y77.4574
G00 Z1.5000
G00 X68.6158 Y77.8859
G01 F60.00
G01 Z-0.3000
G01 F120.00
G01 X68.5444 Y77.7431
G00 Z1.5000
G00 X68.5444 Y77.7431
G01 F60.00
G01 Z-0.3000
G01 F120.00
G01 X68.4015 Y77.6717
G00 Z1.5000
G00 X68.4015 Y77.6717
G01 F60.00
G01 Z-0.3000
G01 F120.00
G01 X67.8301 Y77.6717
G00 Z1.5000
G00 X67.8301 Y77.6717
G01 F60.00
G01 Z-0.3000
G01 F120.00
G01 X67.6873 Y77.7431
G00 Z1.5000
G00 X67.6873 Y77.7431
G01 F60.00
G01 Z-0.3000
G01 F120.00
G01 X67.6158 Y77.8859
G00 Z1.5000
G00 X67.6158 Y77.8859
G01 F60.00
G01 Z-0.3000
G01 F120.00
G01 X67.6158 Y78.1717
G00 Z1.5000
G00 X67.6158 Y78.1717
G01 F60.00
G01 Z-0.3000
G01 F120.00
G01 X67.6873 Y78.3145
G00 Z1.5000
G00 X67.6873 Y78.3145
G01 F60.00
G01 Z-0.3000
G01 F120.00
G01 X67.8301 Y78.3859
G00 Z1.5000
G00 X67.8301 Y78.3859
G01 F60.00
G01 Z-0.3000
G01 F120.00
G01 X67.9730 Y78.3859
G00 Z1.5000
G00 X67.9730 Y78.3859
G01 F60.00
G01 Z-0.3000
G01 F120.00
G01 X68.1158 Y77.6717
G00 Z1.5000
G00 X68.6158 Y77.8859
G01 F60.00
G01 Z-0.3000
G01 F120.00
G01 X68.6158 Y78.1717
G00 Z1.5000
G00 X68.6158 Y78.1717
G01 F60.00
G01 Z-0.3000
G01 F120.00
G01 X68.5444 Y78.3145
G00 Z1.5000
G00 X68.6158 Y77.1717
G01 F60.00
G01 Z-0.3000
G01 F120.00
G01 X68.6158 Y76.3859
G00 Z1.5000
G00 X68.6158 Y76.3859
G01 F60.00
G01 Z-0.3000
G01 F120.00
G01 X67.6158 Y77.1717
G00 Z1.5000
G00 X68.6158 Y75.8145
G01 F60.00
G01 Z-0.3000
G01 F120.00
G01 X67.6158 Y75.8145
G00 Z1.5000
G00 X67.2587 Y75.8145
G01 F60.00
G01 Z-0.3000
G01 F120.00
G01 X67.1873 Y75.7431
G00 Z1.5000
G00 X67.2587 Y75.8145
G01 F60.00
G01 Z-0.3000
G01 F120.00
G01 X67.1873 Y75.8859
G00 Z1.5000
G00 X67.1873 Y75.8859
G01 F60.00
G01 Z-0.3000
G01 F120.00
G01 X67.1158 Y75.8145
G00 Z1.5000
G00 X67.1158 Y75.8145
G01 F60.00
G01 Z-0.3000
G01 F120.00
G01 X67.1873 Y75.7431
G00 Z1.5000
G00 X67.2587 Y75.8145
G01 F60.00
G01 Z-0.3000
G01 F120.00
G01 X67.1158 Y75.8145
G00 Z1.5000
G00 X67.6158 Y76.3859
G01 F60.00
G01 Z-0.3000
G01 F120.00
G01 X67.6158 Y77.1717
G00 Z1.5000
G00 X67.9015 Y75.1717
G01 F60.00
G01 Z-0.3000
G01 F120.00
G01 X67.7587 Y75.1002
G00 Z1.5000
G00 X67.9015 Y75.1717
G01 F60.00
G01 Z-0.3000
G01 F120.00
G01 X68.3301 Y75.1717
G00 Z1.5000
G00 X68.3301 Y75.1717
G01 F60.00
G01 Z-0.3000
G01 F120.00
G01 X68.4730 Y75.1002
G00 Z1.5000
G00 X68.4730 Y75.1002
G01 F60.00
G01 Z-0.3000
G01 F120.00
G01 X68.5444 Y75.0288
G00 Z1.5000
G00 X68.5444 Y75.0288
G01 F60.00
G01 Z-0.3000
G01 F120.00
G01 X68.6158 Y74.8859
G00 Z1.5000
G00 X68.6158 Y74.8859
G01 F60.00
G01 Z-0.3000
G01 F120.00
G01 X68.6158 Y74.6717
G00 Z1.5000
G00 X68.6158 Y74.6717
G01 F60.00
G01 Z-0.3000
G01 F120.00
G01 X68.5444 Y74.5288
G00 Z1.5000
G00 X68.5444 Y74.5288
G01 F60.00
G01 Z-0.3000
G01 F120.00
G01 X68.4730 Y74.4574
G00 Z1.5000
G00 X68.4730 Y74.4574
G01 F60.00
G01 Z-0.3000
G01 F120.00
G01 X68.3301 Y74.3859
G00 Z1.5000
G00 X68.3301 Y74.3859
G01 F60.00
G01 Z-0.3000
G01 F120.00
G01 X67.9015 Y74.3859
G00 Z1.5000
G00 X67.9015 Y74.3859
G01 F60.00
G01 Z-0.3000
G01 F120.00
G01 X67.7587 Y74.4574
G00 Z1.5000
G00 X67.7587 Y74.4574
G01 F60.00
G01 Z-0.3000
G01 F120.00
G01 X67.6873 Y74.5288
G00 Z1.5000
G00 X67.6873 Y74.5288
G01 F60.00
G01 Z-0.3000
G01 F120.00
G01 X67.6158 Y74.6717
G00 Z1.5000
G00 X67.6158 Y74.6717
G01 F60.00
G01 Z-0.3000
G01 F120.00
G01 X67.6158 Y74.8859
G00 Z1.5000
G00 X67.6158 Y74.8859
G01 F60.00
G01 Z-0.3000
G01 F120.00
G01 X67.6873 Y75.0288
G00 Z1.5000
G00 X67.6873 Y75.0288
G01 F60.00
G01 Z-0.3000
G01 F120.00
G01 X67.7587 Y75.1002
G00 Z1.5000
G00 X67.6158 Y73.9574
G01 F60.00
G01 Z-0.3000
G01 F120.00
G01 X67.6158 Y73.8145
G00 Z1.5000
G00 X67.6158 Y73.8145
G01 F60.00
G01 Z-0.3000
G01 F120.00
G01 X67.6873 Y73.6717
G00 Z1.5000
G00 X67.6873 Y73.6717
G01 F60.00
G01 Z-0.3000
G01 F120.00
G01 X67.7587 Y73.6002
G00 Z1.5000
G00 X67.7587 Y73.6002
G01 F60.00
G01 Z-0.3000
G01 F120.00
G01 X67.9015 Y73.5288
G00 Z1.5000
G00 X67.6158 Y73.5288
G01 F60.00
G01 Z-0.3000
G01 F120.00
G01 X68.6158 Y73.5288
G00 Z1.5000
G00 X67.8301 Y72.8859
G01 F60.00
G01 Z-0.3000
G01 F120.00
G01 X67.6873 Y72.8145
G00 Z1.5000
G00 X67.8301 Y72.8859
G01 F60.00
G01 Z-0.3000
G01 F120.00
G01 X67.9730 Y72.8859
G00 Z1.5000
G00 X67.9730 Y72.8859
G01 F60.00
G01 Z-0.3000
G01 F120.00
G01 X68.1158 Y72.1717
G00 Z1.5000
G00 X68.4015 Y72.1717
G01 F60.00
G01 Z-0.3000
G01 F120.00
G01 X68.5444 Y72.2431
G00 Z1.5000
G00 X68.4015 Y72.1717
G01 F60.00
G01 Z-0.3000
G01 F120.00
G01 X67.8301 Y72.1717
G00 Z1.5000
G00 X67.8301 Y72.1717
G01 F60.00
G01 Z-0.3000
G01 F120.00
G01 X67.6873 Y72.2431
G00 Z1.5000
G00 X67.6873 Y72.2431
G01 F60.00
G01 Z-0.3000
G01 F120.00
G01 X67.6158 Y72.3859
G00 Z1.5000
G00 X67.6158 Y72.3859
G01 F60.00
G01 Z-0.3000
G01 F120.00
G01 X67.6158 Y72.6717
G00 Z1.5000
G00 X67.6158 Y72.6717
G01 F60.00
G01 Z-0.3000
G01 F120.00
G01 X67.6873 Y72.8145
G00 Z1.5000
G00 X68.5444 Y72.8145
G01 F60.00
G01 Z-0.3000
G01 F120.00
G01 X68.6158 Y72.6717
G00 Z1.5000
G00 X68.6158 Y72.6717
G01 F60.00
G01 Z-0.3000
G01 F120.00
G01 X68.6158 Y72.3859
G00 Z1.5000
G00 X68.6158 Y72.3859
G01 F60.00
G01 Z-0.3000
G01 F120.00
G01 X68.5444 Y72.2431
G00 Z1.5000
G00 X68.6158 Y71.6717
G01 F60.00
G01 Z-0.3000
G01 F120.00
G01 X68.6158 Y70.6717
G00 Z1.5000
G00 X68.6158 Y70.6717
G01 F60.00
G01 Z-0.3000
G01 F120.00
G01 X67.1158 Y71.6717
G00 Z1.5000
G00 X67.1158 Y70.6717
G01 F60.00
G01 Z-0.3000
G01 F120.00
G01 X67.1158 Y71.6717
G00 Z1.5000
G00 X70.1023 Y73.6002
G01 F60.00
G01 Z-0.3000
G01 F120.00
G01 X70.1737 Y73.5288
G00 Z1.5000
G00 X70.1023 Y73.6002
G01 F60.00
G01 Z-0.3000
G01 F120.00
G01 X70.0308 Y73.7431
G00 Z1.5000
G00 X70.0308 Y73.7431
G01 F60.00
G01 Z-0.3000
G01 F120.00
G01 X70.0308 Y73.9574
G00 Z1.5000
G00 X70.0308 Y73.9574
G01 F60.00
G01 Z-0.3000
G01 F120.00
G01 X70.1023 Y74.1002
G00 Z1.5000
G00 X70.1023 Y74.1002
G01 F60.00
G01 Z-0.3000
G01 F120.00
G01 X70.2451 Y74.1717
G00 Z1.5000
G00 X67.6359 Y58.9225
G01 F60.00
G01 Z-0.3000
G01 F120.00
G01 X67.2359 Y58.9225
G00 Z1.5000
G00 X67.6359 Y58.9225
G01 F60.00
G01 Z-0.3000
G01 F120.00
G01 X67.7502 Y58.8653
G00 Z1.5000
G00 X67.7502 Y58.8653
G01 F60.00
G01 Z-0.3000
G01 F120.00
G01 X67.8074 Y58.8082
G00 Z1.5000
G00 X67.8074 Y58.8082
G01 F60.00
G01 Z-0.3000
G01 F120.00
G01 X67.8645 Y58.6939
G00 Z1.5000
G00 X67.8645 Y58.6939
G01 F60.00
G01 Z-0.3000
G01 F120.00
G01 X67.8645 Y58.5796
G00 Z1.5000
G00 X67.8645 Y58.5796
G01 F60.00
G01 Z-0.3000
G01 F120.00
G01 X67.8074 Y58.4653
G00 Z1.5000
G00 X67.8074 Y58.4653
G01 F60.00
G01 Z-0.3000
G01 F120.00
G01 X67.7502 Y58.4082
G00 Z1.5000
G00 X67.7502 Y58.4082
G01 F60.00
G01 Z-0.3000
G01 F120.00
G01 X67.6359 Y58.3510
G00 Z1.5000
G00 X67.6359 Y58.3510
G01 F60.00
G01 Z-0.3000
G01 F120.00
G01 X67.8074 Y58.2939
G00 Z1.5000
G00 X67.8074 Y58.2939
G01 F60.00
G01 Z-0.3000
G01 F120.00
G01 X67.8645 Y58.2367
G00 Z1.5000
G00 X67.8645 Y58.2367
G01 F60.00
G01 Z-0.3000
G01 F120.00
G01 X67.9217 Y58.1225
G00 Z1.5000
G00 X67.9217 Y58.1225
G01 F60.00
G01 Z-0.3000
G01 F120.00
G01 X67.9217 Y57.9510
G00 Z1.5000
G00 X67.9217 Y57.9510
G01 F60.00
G01 Z-0.3000
G01 F120.00
G01 X67.8645 Y57.8367
G00 Z1.5000
G00 X67.8645 Y57.8367
G01 F60.00
G01 Z-0.3000
G01 F120.00
G01 X67.8074 Y57.7796
G00 Z1.5000
G00 X67.8074 Y57.7796
G01 F60.00
G01 Z-0.3000
G01 F120.00
G01 X67.6931 Y57.7225
G00 Z1.5000
G00 X67.6931 Y57.7225
G01 F60.00
G01 Z-0.3000
G01 F120.00
G01 X67.2359 Y57.7225
G00 Z1.5000
G00 X67.2359 Y57.7225
G01 F60.00
G01 Z-0.3000
G01 F120.00
G01 X67.2359 Y58.9225
G00 Z1.5000
G00 X66.8359 Y58.5225
G01 F60.00
G01 Z-0.3000
G01 F120.00
G01 X66.3788 Y58.5225
G00 Z1.5000
G00 X67.2359 Y58.3510
G01 F60.00
G01 Z-0.3000
G01 F120.00
G01 X67.6359 Y58.3510
G00 Z1.5000
G00 X66.8359 Y57.7225
G01 F60.00
G01 Z-0.3000
G01 F120.00
G01 X66.7217 Y57.7225
G00 Z1.5000
G00 X66.7217 Y57.7225
G01 F60.00
G01 Z-0.3000
G01 F120.00
G01 X66.6074 Y57.7796
G00 Z1.5000
G00 X66.6074 Y57.7796
G01 F60.00
G01 Z-0.3000
G01 F120.00
G01 X66.5502 Y57.8939
G00 Z1.5000
G00 X66.5502 Y57.8939
G01 F60.00
G01 Z-0.3000
G01 F120.00
G01 X66.5502 Y58.9225
G00 Z1.5000
G00 X66.0359 Y57.9510
G01 F60.00
G01 Z-0.3000
G01 F120.00
G01 X66.0359 Y58.2939
G00 Z1.5000
G00 X66.0359 Y57.9510
G01 F60.00
G01 Z-0.3000
G01 F120.00
G01 X65.9788 Y57.8367
G00 Z1.5000
G00 X65.9788 Y57.8367
G01 F60.00
G01 Z-0.3000
G01 F120.00
G01 X65.9217 Y57.7796
G00 Z1.5000
G00 X65.9217 Y57.7796
G01 F60.00
G01 Z-0.3000
G01 F120.00
G01 X65.8074 Y57.7225
G00 Z1.5000
G00 X65.8074 Y57.7225
G01 F60.00
G01 Z-0.3000
G01 F120.00
G01 X65.6359 Y57.7225
G00 Z1.5000
G00 X65.6359 Y57.7225
G01 F60.00
G01 Z-0.3000
G01 F120.00
G01 X65.5217 Y57.7796
G00 Z1.5000
G00 X65.5217 Y57.7796
G01 F60.00
G01 Z-0.3000
G01 F120.00
G01 X65.4645 Y57.8367
G00 Z1.5000
G00 X65.4645 Y57.8367
G01 F60.00
G01 Z-0.3000
G01 F120.00
G01 X65.4074 Y57.9510
G00 Z1.5000
G00 X65.4074 Y57.9510
G01 F60.00
G01 Z-0.3000
G01 F120.00
G01 X65.4074 Y58.2939
G00 Z1.5000
G00 X65.4074 Y58.2939
G01 F60.00
G01 Z-0.3000
G01 F120.00
G01 X65.4645 Y58.4082
G00 Z1.5000
G00 X65.4645 Y58.4082
G01 F60.00
G01 Z-0.3000
G01 F120.00
G01 X65.5217 Y58.4653
G00 Z1.5000
G00 X65.5217 Y58.4653
G01 F60.00
G01 Z-0.3000
G01 F120.00
G01 X65.6359 Y58.5225
G00 Z1.5000
G00 X65.6359 Y58.5225
G01 F60.00
G01 Z-0.3000
G01 F120.00
G01 X65.8074 Y58.5225
G00 Z1.5000
G00 X65.8074 Y58.5225
G01 F60.00
G01 Z-0.3000
G01 F120.00
G01 X65.9217 Y58.4653
G00 Z1.5000
G00 X65.9217 Y58.4653
G01 F60.00
G01 Z-0.3000
G01 F120.00
G01 X65.9788 Y58.4082
G00 Z1.5000
G00 X65.9788 Y58.4082
G01 F60.00
G01 Z-0.3000
G01 F120.00
G01 X66.0359 Y58.2939
G00 Z1.5000
G00 X64.8931 Y57.7225
G01 F60.00
G01 Z-0.3000
G01 F120.00
G01 X64.8931 Y58.9225
G00 Z1.5000
G00 X64.4931 Y58.0653
G01 F60.00
G01 Z-0.3000
G01 F120.00
G01 X64.0931 Y58.9225
G00 Z1.5000
G00 X64.4931 Y58.0653
G01 F60.00
G01 Z-0.3000
G01 F120.00
G01 X64.8931 Y58.9225
G00 Z1.5000
G00 X64.0931 Y58.9225
G01 F60.00
G01 Z-0.3000
G01 F120.00
G01 X64.0931 Y57.7225
G00 Z1.5000
G00 X48.1708 Y58.7245
G01 F60.00
G01 Z-0.3000
G01 F120.00
G01 X46.6708 Y58.7245
G00 Z1.5000
G00 X46.6708 Y58.7245
G01 F60.00
G01 Z-0.3000
G01 F120.00
G01 X48.1708 Y59.5817
G00 Z1.5000
G00 X48.1708 Y59.5817
G01 F60.00
G01 Z-0.3000
G01 F120.00
G01 X46.6708 Y59.5817
G00 Z1.5000
G00 X47.2423 Y60.2959
G01 F60.00
G01 Z-0.3000
G01 F120.00
G01 X47.1708 Y60.4388
G00 Z1.5000
G00 X47.1708 Y60.4388
G01 F60.00
G01 Z-0.3000
G01 F120.00
G01 X47.1708 Y60.7245
G00 Z1.5000
G00 X47.1708 Y60.7245
G01 F60.00
G01 Z-0.3000
G01 F120.00
G01 X47.2423 Y60.8674
G00 Z1.5000
G00 X47.2423 Y60.8674
G01 F60.00
G01 Z-0.3000
G01 F120.00
G01 X47.3851 Y60.9388
G00 Z1.5000
G00 X47.3851 Y60.9388
G01 F60.00
G01 Z-0.3000
G01 F120.00
G01 X48.1708 Y60.9388
G00 Z1.5000
G00 X47.5280 Y60.9388
G01 F60.00
G01 Z-0.3000
G01 F120.00
G01 X47.5994 Y60.7959
G00 Z1.5000
G00 X47.5994 Y60.7959
G01 F60.00
G01 Z-0.3000
G01 F120.00
G01 X47.5994 Y60.4388
G00 Z1.5000
G00 X47.5994 Y60.4388
G01 F60.00
G01 Z-0.3000
G01 F120.00
G01 X47.6708 Y60.2959
G00 Z1.5000
G00 X47.6708 Y60.2959
G01 F60.00
G01 Z-0.3000
G01 F120.00
G01 X47.8137 Y60.2245
G00 Z1.5000
G00 X47.8137 Y60.2245
G01 F60.00
G01 Z-0.3000
G01 F120.00
G01 X47.9565 Y60.2245
G00 Z1.5000
G00 X47.9565 Y60.2245
G01 F60.00
G01 Z-0.3000
G01 F120.00
G01 X48.0994 Y60.2959
G00 Z1.5000
G00 X48.0994 Y60.2959
G01 F60.00
G01 Z-0.3000
G01 F120.00
G01 X48.1708 Y60.4388
G00 Z1.5000
G00 X48.1708 Y60.4388
G01 F60.00
G01 Z-0.3000
G01 F120.00
G01 X48.1708 Y60.7959
G00 Z1.5000
G00 X48.1708 Y60.7959
G01 F60.00
G01 Z-0.3000
G01 F120.00
G01 X48.0994 Y60.9388
G00 Z1.5000
G00 X48.1708 Y61.6531
G01 F60.00
G01 Z-0.3000
G01 F120.00
G01 X47.1708 Y61.6531
G00 Z1.5000
G00 X48.1708 Y62.2959
G01 F60.00
G01 Z-0.3000
G01 F120.00
G01 X47.3851 Y62.2959
G00 Z1.5000
G00 X47.8851 Y62.9388
G01 F60.00
G01 Z-0.3000
G01 F120.00
G01 X48.0280 Y63.0102
G00 Z1.5000
G00 X47.8851 Y62.9388
G01 F60.00
G01 Z-0.3000
G01 F120.00
G01 X47.4565 Y62.9388
G00 Z1.5000
G00 X47.4565 Y62.9388
G01 F60.00
G01 Z-0.3000
G01 F120.00
G01 X47.3137 Y63.0102
G00 Z1.5000
G00 X47.3137 Y63.0102
G01 F60.00
G01 Z-0.3000
G01 F120.00
G01 X47.2423 Y63.0817
G00 Z1.5000
G00 X47.2423 Y63.0817
G01 F60.00
G01 Z-0.3000
G01 F120.00
G01 X47.1708 Y63.2245
G00 Z1.5000
G00 X47.1708 Y63.2245
G01 F60.00
G01 Z-0.3000
G01 F120.00
G01 X47.1708 Y63.4388
G00 Z1.5000
G00 X47.1708 Y63.4388
G01 F60.00
G01 Z-0.3000
G01 F120.00
G01 X47.2423 Y63.5817
G00 Z1.5000
G00 X47.2423 Y63.5817
G01 F60.00
G01 Z-0.3000
G01 F120.00
G01 X47.3137 Y63.6531
G00 Z1.5000
G00 X47.3137 Y63.6531
G01 F60.00
G01 Z-0.3000
G01 F120.00
G01 X47.4565 Y63.7245
G00 Z1.5000
G00 X47.4565 Y63.7245
G01 F60.00
G01 Z-0.3000
G01 F120.00
G01 X47.8851 Y63.7245
G00 Z1.5000
G00 X47.8851 Y63.7245
G01 F60.00
G01 Z-0.3000
G01 F120.00
G01 X48.0280 Y63.6531
G00 Z1.5000
G00 X48.0280 Y63.6531
G01 F60.00
G01 Z-0.3000
G01 F120.00
G01 X48.0994 Y63.5817
G00 Z1.5000
G00 X48.0994 Y63.5817
G01 F60.00
G01 Z-0.3000
G01 F120.00
G01 X48.1708 Y63.4388
G00 Z1.5000
G00 X48.1708 Y63.4388
G01 F60.00
G01 Z-0.3000
G01 F120.00
G01 X48.1708 Y63.2245
G00 Z1.5000
G00 X48.1708 Y63.2245
G01 F60.00
G01 Z-0.3000
G01 F120.00
G01 X48.0994 Y63.0817
G00 Z1.5000
G00 X48.0994 Y63.0817
G01 F60.00
G01 Z-0.3000
G01 F120.00
G01 X48.0280 Y63.0102
G00 Z1.5000
G00 X47.3851 Y62.2959
G01 F60.00
G01 Z-0.3000
G01 F120.00
G01 X47.2423 Y62.2245
G00 Z1.5000
G00 X47.2423 Y62.2245
G01 F60.00
G01 Z-0.3000
G01 F120.00
G01 X47.1708 Y62.0817
G00 Z1.5000
G00 X47.1708 Y62.0817
G01 F60.00
G01 Z-0.3000
G01 F120.00
G01 X47.1708 Y61.8674
G00 Z1.5000
G00 X47.1708 Y61.8674
G01 F60.00
G01 Z-0.3000
G01 F120.00
G01 X47.2423 Y61.7245
G00 Z1.5000
G00 X47.2423 Y61.7245
G01 F60.00
G01 Z-0.3000
G01 F120.00
G01 X47.3137 Y61.6531
G00 Z1.5000
G00 X47.4565 Y56.9388
G01 F60.00
G01 Z-0.3000
G01 F120.00
G01 X47.3137 Y56.8674
G00 Z1.5000
G00 X47.4565 Y56.9388
G01 F60.00
G01 Z-0.3000
G01 F120.00
G01 X47.8851 Y56.9388
G00 Z1.5000
G00 X47.8851 Y56.9388
G01 F60.00
G01 Z-0.3000
G01 F120.00
G01 X48.0280 Y56.8674
G00 Z1.5000
G00 X48.0280 Y56.8674
G01 F60.00
G01 Z-0.3000
G01 F120.00
G01 X48.0994 Y56.7959
G00 Z1.5000
G00 X48.0994 Y56.7959
G01 F60.00
G01 Z-0.3000
G01 F120.00
G01 X48.1708 Y56.6531
G00 Z1.5000
G00 X48.1708 Y56.6531
G01 F60.00
G01 Z-0.3000
G01 F120.00
G01 X48.1708 Y56.4388
G00 Z1.5000
G00 X48.1708 Y56.4388
G01 F60.00
G01 Z-0.3000
G01 F120.00
G01 X48.0994 Y56.2959
G00 Z1.5000
G00 X48.0994 Y56.2959
G01 F60.00
G01 Z-0.3000
G01 F120.00
G01 X48.0280 Y56.2245
G00 Z1.5000
G00 X48.0280 Y56.2245
G01 F60.00
G01 Z-0.3000
G01 F120.00
G01 X47.8851 Y56.1531
G00 Z1.5000
G00 X47.8851 Y56.1531
G01 F60.00
G01 Z-0.3000
G01 F120.00
G01 X47.4565 Y56.1531
G00 Z1.5000
G00 X47.4565 Y56.1531
G01 F60.00
G01 Z-0.3000
G01 F120.00
G01 X47.3137 Y56.2245
G00 Z1.5000
G00 X47.3137 Y56.2245
G01 F60.00
G01 Z-0.3000
G01 F120.00
G01 X47.2423 Y56.2959
G00 Z1.5000
G00 X47.2423 Y56.2959
G01 F60.00
G01 Z-0.3000
G01 F120.00
G01 X47.1708 Y56.4388
G00 Z1.5000
G00 X47.1708 Y56.4388
G01 F60.00
G01 Z-0.3000
G01 F120.00
G01 X47.1708 Y56.6531
G00 Z1.5000
G00 X47.1708 Y56.6531
G01 F60.00
G01 Z-0.3000
G01 F120.00
G01 X47.2423 Y56.7959
G00 Z1.5000
G00 X47.2423 Y56.7959
G01 F60.00
G01 Z-0.3000
G01 F120.00
G01 X47.3137 Y56.8674
G00 Z1.5000
G00 X47.3851 Y55.5102
G01 F60.00
G01 Z-0.3000
G01 F120.00
G01 X47.2423 Y55.4388
G00 Z1.5000
G00 X47.3851 Y55.5102
G01 F60.00
G01 Z-0.3000
G01 F120.00
G01 X48.1708 Y55.5102
G00 Z1.5000
G00 X48.1708 Y54.8674
G01 F60.00
G01 Z-0.3000
G01 F120.00
G01 X47.1708 Y54.8674
G00 Z1.5000
G00 X48.1708 Y54.1531
G01 F60.00
G01 Z-0.3000
G01 F120.00
G01 X47.1708 Y54.1531
G00 Z1.5000
G00 X46.8137 Y54.1531
G01 F60.00
G01 Z-0.3000
G01 F120.00
G01 X46.7423 Y54.0817
G00 Z1.5000
G00 X46.8137 Y54.1531
G01 F60.00
G01 Z-0.3000
G01 F120.00
G01 X46.7423 Y54.2245
G00 Z1.5000
G00 X46.7423 Y54.2245
G01 F60.00
G01 Z-0.3000
G01 F120.00
G01 X46.6708 Y54.1531
G00 Z1.5000
G00 X46.6708 Y54.1531
G01 F60.00
G01 Z-0.3000
G01 F120.00
G01 X46.7423 Y54.0817
G00 Z1.5000
G00 X46.8137 Y54.1531
G01 F60.00
G01 Z-0.3000
G01 F120.00
G01 X46.6708 Y54.1531
G00 Z1.5000
G00 X47.1708 Y53.4388
G01 F60.00
G01 Z-0.3000
G01 F120.00
G01 X48.1708 Y53.4388
G00 Z1.5000
G00 X48.0994 Y53.3674
G01 F60.00
G01 Z-0.3000
G01 F120.00
G01 X48.1708 Y53.2245
G00 Z1.5000
G00 X48.0994 Y53.3674
G01 F60.00
G01 Z-0.3000
G01 F120.00
G01 X48.0280 Y53.4388
G00 Z1.5000
G00 X48.1708 Y53.2245
G01 F60.00
G01 Z-0.3000
G01 F120.00
G01 X48.1708 Y53.0102
G00 Z1.5000
G00 X48.1708 Y53.0102
G01 F60.00
G01 Z-0.3000
G01 F120.00
G01 X48.0994 Y52.8674
G00 Z1.5000
G00 X48.0994 Y52.8674
G01 F60.00
G01 Z-0.3000
G01 F120.00
G01 X47.9565 Y52.7959
G00 Z1.5000
G00 X47.9565 Y52.7959
G01 F60.00
G01 Z-0.3000
G01 F120.00
G01 X47.1708 Y52.7959
G00 Z1.5000
G00 X48.0994 Y52.0817
G01 F60.00
G01 Z-0.3000
G01 F120.00
G01 X48.1708 Y51.9388
G00 Z1.5000
G00 X48.1708 Y51.9388
G01 F60.00
G01 Z-0.3000
G01 F120.00
G01 X48.1708 Y51.6531
G00 Z1.5000
G00 X48.1708 Y51.6531
G01 F60.00
G01 Z-0.3000
G01 F120.00
G01 X48.0994 Y51.5102
G00 Z1.5000
G00 X48.0994 Y51.5102
G01 F60.00
G01 Z-0.3000
G01 F120.00
G01 X48.0280 Y51.4388
G00 Z1.5000
G00 X48.0280 Y51.4388
G01 F60.00
G01 Z-0.3000
G01 F120.00
G01 X47.8851 Y51.3674
G00 Z1.5000
G00 X47.8851 Y51.3674
G01 F60.00
G01 Z-0.3000
G01 F120.00
G01 X47.4565 Y51.3674
G00 Z1.5000
G00 X47.4565 Y51.3674
G01 F60.00
G01 Z-0.3000
G01 F120.00
G01 X47.3137 Y51.4388
G00 Z1.5000
G00 X47.3137 Y51.4388
G01 F60.00
G01 Z-0.3000
G01 F120.00
G01 X47.2423 Y51.5102
G00 Z1.5000
G00 X47.2423 Y51.5102
G01 F60.00
G01 Z-0.3000
G01 F120.00
G01 X47.1708 Y51.6531
G00 Z1.5000
G00 X47.1708 Y51.6531
G01 F60.00
G01 Z-0.3000
G01 F120.00
G01 X47.1708 Y51.9388
G00 Z1.5000
G00 X47.1708 Y51.9388
G01 F60.00
G01 Z-0.3000
G01 F120.00
G01 X47.2423 Y52.0817
G00 Z1.5000
G00 X46.6708 Y52.0817
G01 F60.00
G01 Z-0.3000
G01 F120.00
G01 X48.1708 Y52.0817
G00 Z1.5000
G00 X47.1708 Y50.9388
G01 F60.00
G01 Z-0.3000
G01 F120.00
G01 X47.1708 Y50.7959
G00 Z1.5000
G00 X47.1708 Y50.7959
G01 F60.00
G01 Z-0.3000
G01 F120.00
G01 X47.2423 Y50.6531
G00 Z1.5000
G00 X47.2423 Y50.6531
G01 F60.00
G01 Z-0.3000
G01 F120.00
G01 X47.3137 Y50.5817
G00 Z1.5000
G00 X47.3137 Y50.5817
G01 F60.00
G01 Z-0.3000
G01 F120.00
G01 X47.4565 Y50.5102
G00 Z1.5000
G00 X47.1708 Y50.5102
G01 F60.00
G01 Z-0.3000
G01 F120.00
G01 X48.1708 Y50.5102
G00 Z1.5000
G00 X47.7423 Y49.8674
G01 F60.00
G01 Z-0.3000
G01 F120.00
G01 X47.7423 Y49.1531
G00 Z1.5000
G00 X48.1708 Y50.0102
G01 F60.00
G01 Z-0.3000
G01 F120.00
G01 X46.6708 Y49.5102
G00 Z1.5000
G00 X48.1708 Y49.0102
G01 F60.00
G01 Z-0.3000
G01 F120.00
G01 X46.6708 Y49.5102
G00 Z1.5000
G00 X47.3137 Y54.8674
G01 F60.00
G01 Z-0.3000
G01 F120.00
G01 X47.2423 Y54.9388
G00 Z1.5000
G00 X47.2423 Y54.9388
G01 F60.00
G01 Z-0.3000
G01 F120.00
G01 X47.1708 Y55.0817
G00 Z1.5000
G00 X47.1708 Y55.0817
G01 F60.00
G01 Z-0.3000
G01 F120.00
G01 X47.1708 Y55.2959
G00 Z1.5000
G00 X47.1708 Y55.2959
G01 F60.00
G01 Z-0.3000
G01 F120.00
G01 X47.2423 Y55.4388
G00 Z1.5000
G00 X36.7874 Y76.8092
G01 F60.00
G01 Z-0.3000
G01 F120.00
G01 X36.6445 Y76.8092
G00 Z1.5000
G00 X36.6445 Y76.8092
G01 F60.00
G01 Z-0.3000
G01 F120.00
G01 X36.5017 Y76.8806
G00 Z1.5000
G00 X36.5017 Y76.8806
G01 F60.00
G01 Z-0.3000
G01 F120.00
G01 X36.4302 Y77.0235
G00 Z1.5000
G00 X36.4302 Y77.0235
G01 F60.00
G01 Z-0.3000
G01 F120.00
G01 X36.4302 Y78.3092
G00 Z1.5000
G00 X35.7159 Y76.8806
G01 F60.00
G01 Z-0.3000
G01 F120.00
G01 X35.5731 Y76.8092
G00 Z1.5000
G00 X35.5731 Y76.8092
G01 F60.00
G01 Z-0.3000
G01 F120.00
G01 X35.2874 Y76.8092
G00 Z1.5000
G00 X35.2874 Y76.8092
G01 F60.00
G01 Z-0.3000
G01 F120.00
G01 X35.1445 Y76.8806
G00 Z1.5000
G00 X35.1445 Y76.8806
G01 F60.00
G01 Z-0.3000
G01 F120.00
G01 X35.0731 Y77.0235
G00 Z1.5000
G00 X35.0731 Y77.0235
G01 F60.00
G01 Z-0.3000
G01 F120.00
G01 X35.0731 Y77.5949
G00 Z1.5000
G00 X35.0731 Y77.5949
G01 F60.00
G01 Z-0.3000
G01 F120.00
G01 X35.1445 Y77.7377
G00 Z1.5000
G00 X35.1445 Y77.7377
G01 F60.00
G01 Z-0.3000
G01 F120.00
G01 X35.2874 Y77.8092
G00 Z1.5000
G00 X35.2874 Y77.8092
G01 F60.00
G01 Z-0.3000
G01 F120.00
G01 X35.5731 Y77.8092
G00 Z1.5000
G00 X35.5731 Y77.8092
G01 F60.00
G01 Z-0.3000
G01 F120.00
G01 X35.7159 Y77.7377
G00 Z1.5000
G00 X35.7159 Y77.7377
G01 F60.00
G01 Z-0.3000
G01 F120.00
G01 X35.7874 Y77.5949
G00 Z1.5000
G00 X35.7874 Y77.5949
G01 F60.00
G01 Z-0.3000
G01 F120.00
G01 X35.7874 Y77.4520
G00 Z1.5000
G00 X35.7874 Y77.4520
G01 F60.00
G01 Z-0.3000
G01 F120.00
G01 X35.0731 Y77.3092
G00 Z1.5000
G00 X34.5017 Y77.0949
G01 F60.00
G01 Z-0.3000
G01 F120.00
G01 X34.5017 Y77.0235
G00 Z1.5000
G00 X34.5017 Y77.0949
G01 F60.00
G01 Z-0.3000
G01 F120.00
G01 X34.4302 Y77.2377
G00 Z1.5000
G00 X34.4302 Y77.2377
G01 F60.00
G01 Z-0.3000
G01 F120.00
G01 X34.2874 Y77.3092
G00 Z1.5000
G00 X34.2874 Y77.3092
G01 F60.00
G01 Z-0.3000
G01 F120.00
G01 X34.0731 Y77.3092
G00 Z1.5000
G00 X34.0731 Y77.3092
G01 F60.00
G01 Z-0.3000
G01 F120.00
G01 X33.9302 Y77.3806
G00 Z1.5000
G00 X33.9302 Y77.3806
G01 F60.00
G01 Z-0.3000
G01 F120.00
G01 X33.8588 Y77.5235
G00 Z1.5000
G00 X33.8588 Y77.5235
G01 F60.00
G01 Z-0.3000
G01 F120.00
G01 X33.8588 Y77.5949
G00 Z1.5000
G00 X33.8588 Y77.5949
G01 F60.00
G01 Z-0.3000
G01 F120.00
G01 X33.9302 Y77.7377
G00 Z1.5000
G00 X33.9302 Y77.7377
G01 F60.00
G01 Z-0.3000
G01 F120.00
G01 X34.0731 Y77.8092
G00 Z1.5000
G00 X34.0731 Y77.8092
G01 F60.00
G01 Z-0.3000
G01 F120.00
G01 X34.2874 Y77.8092
G00 Z1.5000
G00 X34.2874 Y77.8092
G01 F60.00
G01 Z-0.3000
G01 F120.00
G01 X34.4302 Y77.7377
G00 Z1.5000
G00 X34.5017 Y77.0235
G01 F60.00
G01 Z-0.3000
G01 F120.00
G01 X34.4302 Y76.8806
G00 Z1.5000
G00 X34.4302 Y76.8806
G01 F60.00
G01 Z-0.3000
G01 F120.00
G01 X34.2874 Y76.8092
G00 Z1.5000
G00 X34.2874 Y76.8092
G01 F60.00
G01 Z-0.3000
G01 F120.00
G01 X34.0017 Y76.8092
G00 Z1.5000
G00 X34.0017 Y76.8092
G01 F60.00
G01 Z-0.3000
G01 F120.00
G01 X33.8588 Y76.8806
G00 Z1.5000
G00 X33.2159 Y76.8806
G01 F60.00
G01 Z-0.3000
G01 F120.00
G01 X33.0731 Y76.8092
G00 Z1.5000
G00 X33.0731 Y76.8092
G01 F60.00
G01 Z-0.3000
G01 F120.00
G01 X32.7874 Y76.8092
G00 Z1.5000
G00 X32.7874 Y76.8092
G01 F60.00
G01 Z-0.3000
G01 F120.00
G01 X32.6445 Y76.8806
G00 Z1.5000
G00 X32.6445 Y76.8806
G01 F60.00
G01 Z-0.3000
G01 F120.00
G01 X32.5731 Y77.0235
G00 Z1.5000
G00 X32.5731 Y77.0235
G01 F60.00
G01 Z-0.3000
G01 F120.00
G01 X32.5731 Y77.5949
G00 Z1.5000
G00 X32.5731 Y77.5949
G01 F60.00
G01 Z-0.3000
G01 F120.00
G01 X32.6445 Y77.7377
G00 Z1.5000
G00 X32.6445 Y77.7377
G01 F60.00
G01 Z-0.3000
G01 F120.00
G01 X32.7874 Y77.8092
G00 Z1.5000
G00 X32.7874 Y77.8092
G01 F60.00
G01 Z-0.3000
G01 F120.00
G01 X33.0731 Y77.8092
G00 Z1.5000
G00 X33.0731 Y77.8092
G01 F60.00
G01 Z-0.3000
G01 F120.00
G01 X33.2159 Y77.7377
G00 Z1.5000
G00 X33.2159 Y77.7377
G01 F60.00
G01 Z-0.3000
G01 F120.00
G01 X33.2874 Y77.5949
G00 Z1.5000
G00 X33.2874 Y77.5949
G01 F60.00
G01 Z-0.3000
G01 F120.00
G01 X33.2874 Y77.4520
G00 Z1.5000
G00 X33.2874 Y77.4520
G01 F60.00
G01 Z-0.3000
G01 F120.00
G01 X32.5731 Y77.3092
G00 Z1.5000
G00 X31.9302 Y77.6663
G01 F60.00
G01 Z-0.3000
G01 F120.00
G01 X32.0017 Y77.8092
G00 Z1.5000
G00 X31.9302 Y77.6663
G01 F60.00
G01 Z-0.3000
G01 F120.00
G01 X31.8588 Y77.5949
G00 Z1.5000
G00 X31.8588 Y77.5949
G01 F60.00
G01 Z-0.3000
G01 F120.00
G01 X31.7159 Y77.5235
G00 Z1.5000
G00 X31.7159 Y77.5235
G01 F60.00
G01 Z-0.3000
G01 F120.00
G01 X31.1445 Y77.5235
G00 Z1.5000
G00 X31.5017 Y77.5235
G01 F60.00
G01 Z-0.3000
G01 F120.00
G01 X32.0017 Y76.8092
G00 Z1.5000
G00 X32.0017 Y77.8092
G01 F60.00
G01 Z-0.3000
G01 F120.00
G01 X32.0017 Y78.0235
G00 Z1.5000
G00 X32.0017 Y78.0235
G01 F60.00
G01 Z-0.3000
G01 F120.00
G01 X31.9302 Y78.1663
G00 Z1.5000
G00 X31.9302 Y78.1663
G01 F60.00
G01 Z-0.3000
G01 F120.00
G01 X31.8588 Y78.2377
G00 Z1.5000
G00 X31.8588 Y78.2377
G01 F60.00
G01 Z-0.3000
G01 F120.00
G01 X31.7159 Y78.3092
G00 Z1.5000
G00 X31.7159 Y78.3092
G01 F60.00
G01 Z-0.3000
G01 F120.00
G01 X31.1445 Y78.3092
G00 Z1.5000
G00 X31.1445 Y78.3092
G01 F60.00
G01 Z-0.3000
G01 F120.00
G01 X31.1445 Y76.8092
G00 Z1.5000
G00 X36.2159 Y77.8092
G01 F60.00
G01 Z-0.3000
G01 F120.00
G01 X36.7874 Y77.8092
G00 Z1.5000
G00 X21.5783 Y66.1725
G01 F60.00
G01 Z-0.3000
G01 F120.00
G01 X21.4830 Y66.2678
G00 Z1.5000
G00 X21.5783 Y66.1725
G01 F60.00
G01 Z-0.3000
G01 F120.00
G01 X21.6259 Y66.0773
G00 Z1.5000
G00 X21.6259 Y66.0773
G01 F60.00
G01 Z-0.3000
G01 F120.00
G01 X21.6735 Y65.8868
G00 Z1.5000
G00 X21.6735 Y65.8868
G01 F60.00
G01 Z-0.3000
G01 F120.00
G01 X21.6735 Y65.7440
G00 Z1.5000
G00 X21.6735 Y65.7440
G01 F60.00
G01 Z-0.3000
G01 F120.00
G01 X21.6259 Y65.5535
G00 Z1.5000
G00 X21.6259 Y65.5535
G01 F60.00
G01 Z-0.3000
G01 F120.00
G01 X21.5783 Y65.4582
G00 Z1.5000
G00 X21.5783 Y65.4582
G01 F60.00
G01 Z-0.3000
G01 F120.00
G01 X21.4830 Y65.3630
G00 Z1.5000
G00 X21.4830 Y65.3630
G01 F60.00
G01 Z-0.3000
G01 F120.00
G01 X21.3402 Y65.3154
G00 Z1.5000
G00 X21.3402 Y65.3154
G01 F60.00
G01 Z-0.3000
G01 F120.00
G01 X21.1021 Y65.3154
G00 Z1.5000
G00 X21.1021 Y65.3154
G01 F60.00
G01 Z-0.3000
G01 F120.00
G01 X21.1021 Y66.3154
G00 Z1.5000
G00 X21.1021 Y66.3154
G01 F60.00
G01 Z-0.3000
G01 F120.00
G01 X21.3402 Y66.3154
G00 Z1.5000
G00 X21.3402 Y66.3154
G01 F60.00
G01 Z-0.3000
G01 F120.00
G01 X21.4830 Y66.2678
G00 Z1.5000
G00 X20.6735 Y66.2201
G01 F60.00
G01 Z-0.3000
G01 F120.00
G01 X20.6259 Y66.2678
G00 Z1.5000
G00 X20.6259 Y66.2678
G01 F60.00
G01 Z-0.3000
G01 F120.00
G01 X20.4830 Y66.3154
G00 Z1.5000
G00 X20.4830 Y66.3154
G01 F60.00
G01 Z-0.3000
G01 F120.00
G01 X20.3878 Y66.3154
G00 Z1.5000
G00 X20.3878 Y66.3154
G01 F60.00
G01 Z-0.3000
G01 F120.00
G01 X20.2449 Y66.2678
G00 Z1.5000
G00 X20.2449 Y66.2678
G01 F60.00
G01 Z-0.3000
G01 F120.00
G01 X20.1497 Y66.1725
G00 Z1.5000
G00 X20.1497 Y66.1725
G01 F60.00
G01 Z-0.3000
G01 F120.00
G01 X20.1021 Y66.0773
G00 Z1.5000
G00 X20.1021 Y66.0773
G01 F60.00
G01 Z-0.3000
G01 F120.00
G01 X20.0545 Y65.8868
G00 Z1.5000
G00 X20.0545 Y65.8868
G01 F60.00
G01 Z-0.3000
G01 F120.00
G01 X20.0545 Y65.7440
G00 Z1.5000
G00 X20.0545 Y65.7440
G01 F60.00
G01 Z-0.3000
G01 F120.00
G01 X20.1021 Y65.5535
G00 Z1.5000
G00 X20.1021 Y65.5535
G01 F60.00
G01 Z-0.3000
G01 F120.00
G01 X20.1497 Y65.4582
G00 Z1.5000
G00 X20.1497 Y65.4582
G01 F60.00
G01 Z-0.3000
G01 F120.00
G01 X20.2449 Y65.3630
G00 Z1.5000
G00 X20.2449 Y65.3630
G01 F60.00
G01 Z-0.3000
G01 F120.00
G01 X20.3878 Y65.3154
G00 Z1.5000
G00 X20.3878 Y65.3154
G01 F60.00
G01 Z-0.3000
G01 F120.00
G01 X20.4830 Y65.3154
G00 Z1.5000
G00 X20.4830 Y65.3154
G01 F60.00
G01 Z-0.3000
G01 F120.00
G01 X20.6259 Y65.3630
G00 Z1.5000
G00 X20.6259 Y65.3630
G01 F60.00
G01 Z-0.3000
G01 F120.00
G01 X20.6735 Y65.4106
G00 Z1.5000
G00 X19.7688 Y65.3154
G01 F60.00
G01 Z-0.3000
G01 F120.00
G01 X19.2926 Y65.3154
G00 Z1.5000
G00 X19.2926 Y65.3154
G01 F60.00
G01 Z-0.3000
G01 F120.00
G01 X19.2926 Y66.3154
G00 Z1.5000
G00 X18.8164 Y66.2678
G01 F60.00
G01 Z-0.3000
G01 F120.00
G01 X18.7211 Y66.3154
G00 Z1.5000
G00 X18.7211 Y66.3154
G01 F60.00
G01 Z-0.3000
G01 F120.00
G01 X18.5783 Y66.3154
G00 Z1.5000
G00 X18.5783 Y66.3154
G01 F60.00
G01 Z-0.3000
G01 F120.00
G01 X18.4354 Y66.2678
G00 Z1.5000
G00 X18.4354 Y66.2678
G01 F60.00
G01 Z-0.3000
G01 F120.00
G01 X18.3402 Y66.1725
G00 Z1.5000
G00 X18.3402 Y66.1725
G01 F60.00
G01 Z-0.3000
G01 F120.00
G01 X18.2926 Y66.0773
G00 Z1.5000
G00 X18.2926 Y66.0773
G01 F60.00
G01 Z-0.3000
G01 F120.00
G01 X18.2449 Y65.8868
G00 Z1.5000
G00 X18.2449 Y65.8868
G01 F60.00
G01 Z-0.3000
G01 F120.00
G01 X18.2449 Y65.7440
G00 Z1.5000
G00 X18.2449 Y65.7440
G01 F60.00
G01 Z-0.3000
G01 F120.00
G01 X18.2926 Y65.5535
G00 Z1.5000
G00 X18.2926 Y65.5535
G01 F60.00
G01 Z-0.3000
G01 F120.00
G01 X18.3402 Y65.4582
G00 Z1.5000
G00 X18.3402 Y65.4582
G01 F60.00
G01 Z-0.3000
G01 F120.00
G01 X18.4354 Y65.3630
G00 Z1.5000
G00 X18.4354 Y65.3630
G01 F60.00
G01 Z-0.3000
G01 F120.00
G01 X18.5783 Y65.3154
G00 Z1.5000
G00 X18.5783 Y65.3154
G01 F60.00
G01 Z-0.3000
G01 F120.00
G01 X18.6735 Y65.3154
G00 Z1.5000
G00 X18.6735 Y65.3154
G01 F60.00
G01 Z-0.3000
G01 F120.00
G01 X18.8164 Y65.3630
G00 Z1.5000
G00 X18.8164 Y65.3630
G01 F60.00
G01 Z-0.3000
G01 F120.00
G01 X18.8640 Y65.4106
G00 Z1.5000
G00 X18.8640 Y65.4106
G01 F60.00
G01 Z-0.3000
G01 F120.00
G01 X18.8640 Y65.7440
G00 Z1.5000
G00 X18.8640 Y65.7440
G01 F60.00
G01 Z-0.3000
G01 F120.00
G01 X18.6735 Y65.7440
G00 Z1.5000
G00 X18.7688 Y66.9254
G01 F60.00
G01 Z-0.3000
G01 F120.00
G01 X18.2926 Y66.9254
G00 Z1.5000
G00 X18.2926 Y66.9254
G01 F60.00
G01 Z-0.3000
G01 F120.00
G01 X18.2926 Y67.9254
G00 Z1.5000
G00 X18.2926 Y67.9254
G01 F60.00
G01 Z-0.3000
G01 F120.00
G01 X18.7688 Y67.9254
G00 Z1.5000
G00 X18.6259 Y67.4492
G01 F60.00
G01 Z-0.3000
G01 F120.00
G01 X18.2926 Y67.4492
G00 Z1.5000
G00 X19.1497 Y67.2111
G01 F60.00
G01 Z-0.3000
G01 F120.00
G01 X19.6259 Y67.2111
G00 Z1.5000
G00 X19.7211 Y66.9254
G01 F60.00
G01 Z-0.3000
G01 F120.00
G01 X19.3878 Y67.9254
G00 Z1.5000
G00 X19.0545 Y66.9254
G01 F60.00
G01 Z-0.3000
G01 F120.00
G01 X19.3878 Y67.9254
G00 Z1.5000
G00 X19.5125 Y61.5702
G01 F60.00
G01 Z-0.3000
G01 F120.00
G01 X19.0363 Y61.5702
G00 Z1.5000
G00 X19.9411 Y61.5702
G01 F60.00
G01 Z-0.3000
G01 F120.00
G01 X19.9411 Y60.5702
G00 Z1.5000
G00 X19.9411 Y61.5702
G01 F60.00
G01 Z-0.3000
G01 F120.00
G01 X20.1792 Y61.5702
G00 Z1.5000
G00 X20.1792 Y61.5702
G01 F60.00
G01 Z-0.3000
G01 F120.00
G01 X20.3220 Y61.5226
G00 Z1.5000
G00 X20.3220 Y61.5226
G01 F60.00
G01 Z-0.3000
G01 F120.00
G01 X20.4173 Y61.4273
G00 Z1.5000
G00 X20.4173 Y61.4273
G01 F60.00
G01 Z-0.3000
G01 F120.00
G01 X20.4649 Y61.3321
G00 Z1.5000
G00 X20.4649 Y61.3321
G01 F60.00
G01 Z-0.3000
G01 F120.00
G01 X20.5125 Y61.1416
G00 Z1.5000
G00 X20.5125 Y61.1416
G01 F60.00
G01 Z-0.3000
G01 F120.00
G01 X20.5125 Y60.9988
G00 Z1.5000
G00 X20.5125 Y60.9988
G01 F60.00
G01 Z-0.3000
G01 F120.00
G01 X20.4649 Y60.8083
G00 Z1.5000
G00 X20.4649 Y60.8083
G01 F60.00
G01 Z-0.3000
G01 F120.00
G01 X20.4173 Y60.7130
G00 Z1.5000
G00 X20.4173 Y60.7130
G01 F60.00
G01 Z-0.3000
G01 F120.00
G01 X20.3220 Y60.6178
G00 Z1.5000
G00 X20.3220 Y60.6178
G01 F60.00
G01 Z-0.3000
G01 F120.00
G01 X20.1792 Y60.5702
G00 Z1.5000
G00 X20.1792 Y60.5702
G01 F60.00
G01 Z-0.3000
G01 F120.00
G01 X19.9411 Y60.5702
G00 Z1.5000
G00 X19.5125 Y60.5702
G01 F60.00
G01 Z-0.3000
G01 F120.00
G01 X19.0363 Y60.5702
G00 Z1.5000
G00 X19.0363 Y60.5702
G01 F60.00
G01 Z-0.3000
G01 F120.00
G01 X19.0363 Y61.5702
G00 Z1.5000
G00 X19.0363 Y61.0940
G01 F60.00
G01 Z-0.3000
G01 F120.00
G01 X19.3696 Y61.0940
G00 Z1.5000
G00 X18.7030 Y60.5702
G01 F60.00
G01 Z-0.3000
G01 F120.00
G01 X18.2268 Y60.5702
G00 Z1.5000
G00 X18.2268 Y60.5702
G01 F60.00
G01 Z-0.3000
G01 F120.00
G01 X18.2268 Y61.5702
G00 Z1.5000
G00 X18.2268 Y59.9602
G01 F60.00
G01 Z-0.3000
G01 F120.00
G01 X18.7030 Y59.9602
G00 Z1.5000
G00 X18.2268 Y59.9602
G01 F60.00
G01 Z-0.3000
G01 F120.00
G01 X18.1792 Y59.4840
G00 Z1.5000
G00 X18.1792 Y59.4840
G01 F60.00
G01 Z-0.3000
G01 F120.00
G01 X18.2268 Y59.5316
G00 Z1.5000
G00 X18.2268 Y59.5316
G01 F60.00
G01 Z-0.3000
G01 F120.00
G01 X18.3220 Y59.5792
G00 Z1.5000
G00 X18.3220 Y59.5792
G01 F60.00
G01 Z-0.3000
G01 F120.00
G01 X18.5601 Y59.5792
G00 Z1.5000
G00 X18.5601 Y59.5792
G01 F60.00
G01 Z-0.3000
G01 F120.00
G01 X18.6553 Y59.5316
G00 Z1.5000
G00 X18.6553 Y59.5316
G01 F60.00
G01 Z-0.3000
G01 F120.00
G01 X18.7030 Y59.4840
G00 Z1.5000
G00 X18.7030 Y59.4840
G01 F60.00
G01 Z-0.3000
G01 F120.00
G01 X18.7506 Y59.3888
G00 Z1.5000
G00 X18.7506 Y59.3888
G01 F60.00
G01 Z-0.3000
G01 F120.00
G01 X18.7506 Y59.1507
G00 Z1.5000
G00 X18.7506 Y59.1507
G01 F60.00
G01 Z-0.3000
G01 F120.00
G01 X18.7030 Y59.0554
G00 Z1.5000
G00 X18.7030 Y59.0554
G01 F60.00
G01 Z-0.3000
G01 F120.00
G01 X18.6553 Y59.0078
G00 Z1.5000
G00 X18.6553 Y59.0078
G01 F60.00
G01 Z-0.3000
G01 F120.00
G01 X18.5601 Y58.9602
G00 Z1.5000
G00 X18.5601 Y58.9602
G01 F60.00
G01 Z-0.3000
G01 F120.00
G01 X18.3220 Y58.9602
G00 Z1.5000
G00 X18.3220 Y58.9602
G01 F60.00
G01 Z-0.3000
G01 F120.00
G01 X18.2268 Y59.0078
G00 Z1.5000
G00 X18.2268 Y59.0078
G01 F60.00
G01 Z-0.3000
G01 F120.00
G01 X18.1792 Y59.0554
G00 Z1.5000
G00 X19.1315 Y59.2935
G01 F60.00
G01 Z-0.3000
G01 F120.00
G01 X19.3696 Y60.0078
G00 Z1.5000
G00 X19.1315 Y59.2935
G01 F60.00
G01 Z-0.3000
G01 F120.00
G01 X19.7506 Y59.2935
G00 Z1.5000
G00 X19.6077 Y59.6268
G01 F60.00
G01 Z-0.3000
G01 F120.00
G01 X19.6077 Y58.9602
G00 Z1.5000
G00 X20.0839 Y59.0554
G01 F60.00
G01 Z-0.3000
G01 F120.00
G01 X20.1315 Y59.0078
G00 Z1.5000
G00 X20.1315 Y59.0078
G01 F60.00
G01 Z-0.3000
G01 F120.00
G01 X20.2268 Y58.9602
G00 Z1.5000
G00 X20.2268 Y58.9602
G01 F60.00
G01 Z-0.3000
G01 F120.00
G01 X20.4649 Y58.9602
G00 Z1.5000
G00 X20.4649 Y58.9602
G01 F60.00
G01 Z-0.3000
G01 F120.00
G01 X20.5601 Y59.0078
G00 Z1.5000
G00 X20.5601 Y59.0078
G01 F60.00
G01 Z-0.3000
G01 F120.00
G01 X20.6077 Y59.0554
G00 Z1.5000
G00 X20.6077 Y59.0554
G01 F60.00
G01 Z-0.3000
G01 F120.00
G01 X20.6553 Y59.1507
G00 Z1.5000
G00 X20.6553 Y59.1507
G01 F60.00
G01 Z-0.3000
G01 F120.00
G01 X20.6553 Y59.3888
G00 Z1.5000
G00 X20.6553 Y59.3888
G01 F60.00
G01 Z-0.3000
G01 F120.00
G01 X20.6077 Y59.4840
G00 Z1.5000
G00 X20.6077 Y59.4840
G01 F60.00
G01 Z-0.3000
G01 F120.00
G01 X20.5601 Y59.5316
G00 Z1.5000
G00 X20.5601 Y59.5316
G01 F60.00
G01 Z-0.3000
G01 F120.00
G01 X20.4649 Y59.5792
G00 Z1.5000
G00 X20.4649 Y59.5792
G01 F60.00
G01 Z-0.3000
G01 F120.00
G01 X20.2268 Y59.5792
G00 Z1.5000
G00 X20.2268 Y59.5792
G01 F60.00
G01 Z-0.3000
G01 F120.00
G01 X20.1315 Y59.5316
G00 Z1.5000
G00 X20.1315 Y59.5316
G01 F60.00
G01 Z-0.3000
G01 F120.00
G01 X20.0839 Y59.4840
G00 Z1.5000
G00 X20.0839 Y59.4840
G01 F60.00
G01 Z-0.3000
G01 F120.00
G01 X20.1315 Y59.9602
G00 Z1.5000
G00 X20.1315 Y59.9602
G01 F60.00
G01 Z-0.3000
G01 F120.00
G01 X20.6077 Y59.9602
G00 Z1.5000
G00 X21.0363 Y59.6745
G01 F60.00
G01 Z-0.3000
G01 F120.00
G01 X21.1315 Y59.7221
G00 Z1.5000
G00 X21.1315 Y59.7221
G01 F60.00
G01 Z-0.3000
G01 F120.00
G01 X21.2268 Y59.8173
G00 Z1.5000
G00 X21.2268 Y59.8173
G01 F60.00
G01 Z-0.3000
G01 F120.00
G01 X21.3220 Y59.9602
G00 Z1.5000
G00 X21.3220 Y59.9602
G01 F60.00
G01 Z-0.3000
G01 F120.00
G01 X21.3220 Y58.9602
G00 Z1.5000
G00 X21.0363 Y58.9602
G01 F60.00
G01 Z-0.3000
G01 F120.00
G01 X21.6077 Y58.9602
G00 Z1.5000
G00 X21.3220 Y56.1502
G01 F60.00
G01 Z-0.3000
G01 F120.00
G01 X20.9887 Y55.1502
G00 Z1.5000
G00 X21.3220 Y56.1502
G01 F60.00
G01 Z-0.3000
G01 F120.00
G01 X21.6553 Y55.1502
G00 Z1.5000
G00 X21.5601 Y55.4359
G01 F60.00
G01 Z-0.3000
G01 F120.00
G01 X21.0839 Y55.4359
G00 Z1.5000
G00 X20.7030 Y55.5788
G01 F60.00
G01 Z-0.3000
G01 F120.00
G01 X20.7030 Y55.7216
G00 Z1.5000
G00 X20.7030 Y55.5788
G01 F60.00
G01 Z-0.3000
G01 F120.00
G01 X20.6553 Y55.3883
G00 Z1.5000
G00 X20.6553 Y55.3883
G01 F60.00
G01 Z-0.3000
G01 F120.00
G01 X20.6077 Y55.2930
G00 Z1.5000
G00 X20.6077 Y55.2930
G01 F60.00
G01 Z-0.3000
G01 F120.00
G01 X20.5125 Y55.1978
G00 Z1.5000
G00 X20.5125 Y55.1978
G01 F60.00
G01 Z-0.3000
G01 F120.00
G01 X20.3696 Y55.1502
G00 Z1.5000
G00 X20.3696 Y55.1502
G01 F60.00
G01 Z-0.3000
G01 F120.00
G01 X20.1315 Y55.1502
G00 Z1.5000
G00 X20.1315 Y55.1502
G01 F60.00
G01 Z-0.3000
G01 F120.00
G01 X20.1315 Y56.1502
G00 Z1.5000
G00 X20.1315 Y56.1502
G01 F60.00
G01 Z-0.3000
G01 F120.00
G01 X20.3696 Y56.1502
G00 Z1.5000
G00 X20.3696 Y56.1502
G01 F60.00
G01 Z-0.3000
G01 F120.00
G01 X20.5125 Y56.1026
G00 Z1.5000
G00 X20.5125 Y56.1026
G01 F60.00
G01 Z-0.3000
G01 F120.00
G01 X20.6077 Y56.0073
G00 Z1.5000
G00 X20.6077 Y56.0073
G01 F60.00
G01 Z-0.3000
G01 F120.00
G01 X20.6553 Y55.9121
G00 Z1.5000
G00 X20.6553 Y55.9121
G01 F60.00
G01 Z-0.3000
G01 F120.00
G01 X20.7030 Y55.7216
G00 Z1.5000
G00 X19.7982 Y56.1502
G01 F60.00
G01 Z-0.3000
G01 F120.00
G01 X19.4649 Y55.6264
G00 Z1.5000
G00 X19.4649 Y55.6264
G01 F60.00
G01 Z-0.3000
G01 F120.00
G01 X19.4649 Y55.1502
G00 Z1.5000
G00 X19.4649 Y55.6264
G01 F60.00
G01 Z-0.3000
G01 F120.00
G01 X19.1315 Y56.1502
G00 Z1.5000
G00 X18.7982 Y55.6740
G01 F60.00
G01 Z-0.3000
G01 F120.00
G01 X18.2268 Y55.6740
G00 Z1.5000
G00 X18.7982 Y56.1502
G01 F60.00
G01 Z-0.3000
G01 F120.00
G01 X18.7982 Y55.1502
G00 Z1.5000
G00 X18.2268 Y56.1502
G01 F60.00
G01 Z-0.3000
G01 F120.00
G01 X18.2268 Y55.1502
G00 Z1.5000
G00 X18.2268 Y52.3402
G01 F60.00
G01 Z-0.3000
G01 F120.00
G01 X18.2268 Y51.3402
G00 Z1.5000
G00 X18.2268 Y51.8640
G01 F60.00
G01 Z-0.3000
G01 F120.00
G01 X18.7982 Y51.8640
G00 Z1.5000
G00 X18.7982 Y52.3402
G01 F60.00
G01 Z-0.3000
G01 F120.00
G01 X18.7982 Y51.3402
G00 Z1.5000
G00 X19.1315 Y52.3402
G01 F60.00
G01 Z-0.3000
G01 F120.00
G01 X19.4649 Y51.8164
G00 Z1.5000
G00 X19.4649 Y51.8164
G01 F60.00
G01 Z-0.3000
G01 F120.00
G01 X19.4649 Y51.3402
G00 Z1.5000
G00 X19.4649 Y51.8164
G01 F60.00
G01 Z-0.3000
G01 F120.00
G01 X19.7982 Y52.3402
G00 Z1.5000
G00 X20.1315 Y52.3402
G01 F60.00
G01 Z-0.3000
G01 F120.00
G01 X20.3696 Y52.3402
G00 Z1.5000
G00 X20.3696 Y52.3402
G01 F60.00
G01 Z-0.3000
G01 F120.00
G01 X20.5125 Y52.2926
G00 Z1.5000
G00 X20.5125 Y52.2926
G01 F60.00
G01 Z-0.3000
G01 F120.00
G01 X20.6077 Y52.1973
G00 Z1.5000
G00 X20.6077 Y52.1973
G01 F60.00
G01 Z-0.3000
G01 F120.00
G01 X20.6553 Y52.1021
G00 Z1.5000
G00 X20.6553 Y52.1021
G01 F60.00
G01 Z-0.3000
G01 F120.00
G01 X20.7030 Y51.9116
G00 Z1.5000
G00 X20.7030 Y51.9116
G01 F60.00
G01 Z-0.3000
G01 F120.00
G01 X20.7030 Y51.7688
G00 Z1.5000
G00 X20.7030 Y51.7688
G01 F60.00
G01 Z-0.3000
G01 F120.00
G01 X20.6553 Y51.5783
G00 Z1.5000
G00 X20.6553 Y51.5783
G01 F60.00
G01 Z-0.3000
G01 F120.00
G01 X20.6077 Y51.4830
G00 Z1.5000
G00 X20.6077 Y51.4830
G01 F60.00
G01 Z-0.3000
G01 F120.00
G01 X20.5125 Y51.3878
G00 Z1.5000
G00 X20.5125 Y51.3878
G01 F60.00
G01 Z-0.3000
G01 F120.00
G01 X20.3696 Y51.3402
G00 Z1.5000
G00 X20.3696 Y51.3402
G01 F60.00
G01 Z-0.3000
G01 F120.00
G01 X20.1315 Y51.3402
G00 Z1.5000
G00 X20.1315 Y51.3402
G01 F60.00
G01 Z-0.3000
G01 F120.00
G01 X20.1315 Y52.3402
G00 Z1.5000
G00 X21.1315 Y52.3402
G01 F60.00
G01 Z-0.3000
G01 F120.00
G01 X21.1315 Y51.3402
G00 Z1.5000
G00 X21.1315 Y52.3402
G01 F60.00
G01 Z-0.3000
G01 F120.00
G01 X21.5125 Y52.3402
G00 Z1.5000
G00 X21.5125 Y52.3402
G01 F60.00
G01 Z-0.3000
G01 F120.00
G01 X21.6077 Y52.2926
G00 Z1.5000
G00 X21.6077 Y52.2926
G01 F60.00
G01 Z-0.3000
G01 F120.00
G01 X21.6553 Y52.2449
G00 Z1.5000
G00 X21.6553 Y52.2449
G01 F60.00
G01 Z-0.3000
G01 F120.00
G01 X21.7030 Y52.1497
G00 Z1.5000
G00 X21.7030 Y52.1497
G01 F60.00
G01 Z-0.3000
G01 F120.00
G01 X21.7030 Y52.0068
G00 Z1.5000
G00 X21.7030 Y52.0068
G01 F60.00
G01 Z-0.3000
G01 F120.00
G01 X21.6553 Y51.9116
G00 Z1.5000
G00 X21.6553 Y51.9116
G01 F60.00
G01 Z-0.3000
G01 F120.00
G01 X21.6077 Y51.8640
G00 Z1.5000
G00 X21.6077 Y51.8640
G01 F60.00
G01 Z-0.3000
G01 F120.00
G01 X21.5125 Y51.8164
G00 Z1.5000
G00 X21.5125 Y51.8164
G01 F60.00
G01 Z-0.3000
G01 F120.00
G01 X21.1315 Y51.8164
G00 Z1.5000
G00 X21.0363 Y48.8702
G01 F60.00
G01 Z-0.3000
G01 F120.00
G01 X21.0363 Y47.8702
G00 Z1.5000
G00 X20.6077 Y48.8702
G01 F60.00
G01 Z-0.3000
G01 F120.00
G01 X20.1315 Y48.8702
G00 Z1.5000
G00 X20.1315 Y48.8702
G01 F60.00
G01 Z-0.3000
G01 F120.00
G01 X20.1315 Y47.8702
G00 Z1.5000
G00 X20.1315 Y48.3940
G01 F60.00
G01 Z-0.3000
G01 F120.00
G01 X20.4649 Y48.3940
G00 Z1.5000
G00 X20.6077 Y47.8702
G01 F60.00
G01 Z-0.3000
G01 F120.00
G01 X20.1315 Y47.8702
G00 Z1.5000
G00 X19.6553 Y48.0607
G01 F60.00
G01 Z-0.3000
G01 F120.00
G01 X19.6077 Y47.9654
G00 Z1.5000
G00 X19.6553 Y48.0607
G01 F60.00
G01 Z-0.3000
G01 F120.00
G01 X19.6553 Y48.8702
G00 Z1.5000
G00 X19.0839 Y48.8702
G01 F60.00
G01 Z-0.3000
G01 F120.00
G01 X19.0839 Y48.0607
G00 Z1.5000
G00 X19.0839 Y48.0607
G01 F60.00
G01 Z-0.3000
G01 F120.00
G01 X19.1315 Y47.9654
G00 Z1.5000
G00 X19.1315 Y47.9654
G01 F60.00
G01 Z-0.3000
G01 F120.00
G01 X19.1792 Y47.9178
G00 Z1.5000
G00 X19.1792 Y47.9178
G01 F60.00
G01 Z-0.3000
G01 F120.00
G01 X19.2744 Y47.8702
G00 Z1.5000
G00 X19.2744 Y47.8702
G01 F60.00
G01 Z-0.3000
G01 F120.00
G01 X19.4649 Y47.8702
G00 Z1.5000
G00 X19.4649 Y47.8702
G01 F60.00
G01 Z-0.3000
G01 F120.00
G01 X19.5601 Y47.9178
G00 Z1.5000
G00 X19.5601 Y47.9178
G01 F60.00
G01 Z-0.3000
G01 F120.00
G01 X19.6077 Y47.9654
G00 Z1.5000
G00 X20.3220 Y47.2602
G01 F60.00
G01 Z-0.3000
G01 F120.00
G01 X20.3220 Y46.2602
G00 Z1.5000
G00 X20.3220 Y47.2602
G01 F60.00
G01 Z-0.3000
G01 F120.00
G01 X20.7030 Y47.2602
G00 Z1.5000
G00 X20.7030 Y47.2602
G01 F60.00
G01 Z-0.3000
G01 F120.00
G01 X20.7982 Y47.2126
G00 Z1.5000
G00 X20.7982 Y47.2126
G01 F60.00
G01 Z-0.3000
G01 F120.00
G01 X20.8458 Y47.1649
G00 Z1.5000
G00 X20.8458 Y47.1649
G01 F60.00
G01 Z-0.3000
G01 F120.00
G01 X20.8934 Y47.0697
G00 Z1.5000
G00 X20.8934 Y47.0697
G01 F60.00
G01 Z-0.3000
G01 F120.00
G01 X20.8934 Y46.9268
G00 Z1.5000
G00 X20.8934 Y46.9268
G01 F60.00
G01 Z-0.3000
G01 F120.00
G01 X20.8458 Y46.8316
G00 Z1.5000
G00 X20.8458 Y46.8316
G01 F60.00
G01 Z-0.3000
G01 F120.00
G01 X20.7982 Y46.7840
G00 Z1.5000
G00 X20.7982 Y46.7840
G01 F60.00
G01 Z-0.3000
G01 F120.00
G01 X20.7030 Y46.7364
G00 Z1.5000
G00 X20.7030 Y46.7364
G01 F60.00
G01 Z-0.3000
G01 F120.00
G01 X20.3220 Y46.7364
G00 Z1.5000
G00 X20.5601 Y46.7364
G01 F60.00
G01 Z-0.3000
G01 F120.00
G01 X20.8934 Y46.2602
G00 Z1.5000
G00 X19.8458 Y46.6411
G01 F60.00
G01 Z-0.3000
G01 F120.00
G01 X19.0839 Y46.6411
G00 Z1.5000
G00 X18.5601 Y46.7840
G01 F60.00
G01 Z-0.3000
G01 F120.00
G01 X18.2268 Y46.7840
G00 Z1.5000
G00 X18.2268 Y47.2602
G01 F60.00
G01 Z-0.3000
G01 F120.00
G01 X18.7030 Y47.2602
G00 Z1.5000
G00 X18.2268 Y47.2602
G01 F60.00
G01 Z-0.3000
G01 F120.00
G01 X18.2268 Y46.2602
G00 Z1.5000
G00 X18.2268 Y47.8702
G01 F60.00
G01 Z-0.3000
G01 F120.00
G01 X18.2268 Y48.8702
G00 Z1.5000
G00 X18.2268 Y48.8702
G01 F60.00
G01 Z-0.3000
G01 F120.00
G01 X18.7030 Y48.8702
G00 Z1.5000
G00 X18.5601 Y48.3940
G01 F60.00
G01 Z-0.3000
G01 F120.00
G01 X18.2268 Y48.3940
G00 Z1.5000
G00 X21.0363 Y47.8702
G01 F60.00
G01 Z-0.3000
G01 F120.00
G01 X21.5125 Y47.8702
G00 Z1.5000
G00 X21.0363 Y45.0602
G01 F60.00
G01 Z-0.3000
G01 F120.00
G01 X21.0363 Y44.0602
G00 Z1.5000
G00 X20.6077 Y45.0602
G01 F60.00
G01 Z-0.3000
G01 F120.00
G01 X20.1315 Y45.0602
G00 Z1.5000
G00 X20.1315 Y45.0602
G01 F60.00
G01 Z-0.3000
G01 F120.00
G01 X20.1315 Y44.0602
G00 Z1.5000
G00 X20.1315 Y44.5840
G01 F60.00
G01 Z-0.3000
G01 F120.00
G01 X20.4649 Y44.5840
G00 Z1.5000
G00 X20.6077 Y44.0602
G01 F60.00
G01 Z-0.3000
G01 F120.00
G01 X20.1315 Y44.0602
G00 Z1.5000
G00 X19.6553 Y44.2507
G01 F60.00
G01 Z-0.3000
G01 F120.00
G01 X19.6077 Y44.1554
G00 Z1.5000
G00 X19.6553 Y44.2507
G01 F60.00
G01 Z-0.3000
G01 F120.00
G01 X19.6553 Y45.0602
G00 Z1.5000
G00 X19.0839 Y45.0602
G01 F60.00
G01 Z-0.3000
G01 F120.00
G01 X19.0839 Y44.2507
G00 Z1.5000
G00 X19.0839 Y44.2507
G01 F60.00
G01 Z-0.3000
G01 F120.00
G01 X19.1315 Y44.1554
G00 Z1.5000
G00 X19.1315 Y44.1554
G01 F60.00
G01 Z-0.3000
G01 F120.00
G01 X19.1792 Y44.1078
G00 Z1.5000
G00 X19.1792 Y44.1078
G01 F60.00
G01 Z-0.3000
G01 F120.00
G01 X19.2744 Y44.0602
G00 Z1.5000
G00 X19.2744 Y44.0602
G01 F60.00
G01 Z-0.3000
G01 F120.00
G01 X19.4649 Y44.0602
G00 Z1.5000
G00 X19.4649 Y44.0602
G01 F60.00
G01 Z-0.3000
G01 F120.00
G01 X19.5601 Y44.1078
G00 Z1.5000
G00 X19.5601 Y44.1078
G01 F60.00
G01 Z-0.3000
G01 F120.00
G01 X19.6077 Y44.1554
G00 Z1.5000
G00 X20.3220 Y43.4502
G01 F60.00
G01 Z-0.3000
G01 F120.00
G01 X20.3220 Y42.4502
G00 Z1.5000
G00 X19.8458 Y42.8311
G01 F60.00
G01 Z-0.3000
G01 F120.00
G01 X19.0839 Y42.8311
G00 Z1.5000
G00 X20.3220 Y42.4502
G01 F60.00
G01 Z-0.3000
G01 F120.00
G01 X20.7982 Y42.4502
G00 Z1.5000
G00 X18.7506 Y42.4502
G01 F60.00
G01 Z-0.3000
G01 F120.00
G01 X18.4173 Y43.4502
G00 Z1.5000
G00 X18.6553 Y42.7359
G01 F60.00
G01 Z-0.3000
G01 F120.00
G01 X18.1792 Y42.7359
G00 Z1.5000
G00 X18.0839 Y42.4502
G01 F60.00
G01 Z-0.3000
G01 F120.00
G01 X18.4173 Y43.4502
G00 Z1.5000
G00 X18.2268 Y44.0602
G01 F60.00
G01 Z-0.3000
G01 F120.00
G01 X18.2268 Y45.0602
G00 Z1.5000
G00 X18.2268 Y45.0602
G01 F60.00
G01 Z-0.3000
G01 F120.00
G01 X18.7030 Y45.0602
G00 Z1.5000
G00 X18.5601 Y44.5840
G01 F60.00
G01 Z-0.3000
G01 F120.00
G01 X18.2268 Y44.5840
G00 Z1.5000
G00 X21.0363 Y44.0602
G01 F60.00
G01 Z-0.3000
G01 F120.00
G01 X21.5125 Y44.0602
G00 Z1.5000
G00 X21.3017 Y36.2742
G01 F60.00
G01 Z-0.3000
G01 F120.00
G01 X22.3017 Y34.7742
G00 Z1.5000
G00 X21.3017 Y34.7742
G01 F60.00
G01 Z-0.3000
G01 F120.00
G01 X22.3017 Y36.2742
G00 Z1.5000
G00 X20.9445 Y34.7742
G01 F60.00
G01 Z-0.3000
G01 F120.00
G01 X20.4445 Y36.2742
G00 Z1.5000
G00 X20.8017 Y35.2027
G01 F60.00
G01 Z-0.3000
G01 F120.00
G01 X20.0874 Y35.2027
G00 Z1.5000
G00 X19.9445 Y34.7742
G01 F60.00
G01 Z-0.3000
G01 F120.00
G01 X20.4445 Y36.2742
G00 Z1.5000
G00 X19.4445 Y36.2742
G01 F60.00
G01 Z-0.3000
G01 F120.00
G01 X18.9445 Y35.2027
G00 Z1.5000
G00 X19.4445 Y36.2742
G01 F60.00
G01 Z-0.3000
G01 F120.00
G01 X19.4445 Y34.7742
G00 Z1.5000
G00 X18.9445 Y35.2027
G01 F60.00
G01 Z-0.3000
G01 F120.00
G01 X18.4445 Y36.2742
G00 Z1.5000
G00 X18.4445 Y34.7742
G01 F60.00
G01 Z-0.3000
G01 F120.00
G01 X18.4445 Y36.2742
G00 Z1.5000
G00 X18.3017 Y33.8592
G01 F60.00
G01 Z-0.3000
G01 F120.00
G01 X19.3017 Y33.8592
G00 Z1.5000
G00 X19.3017 Y33.8592
G01 F60.00
G01 Z-0.3000
G01 F120.00
G01 X18.6588 Y32.3592
G00 Z1.5000
G00 X19.7302 Y32.3592
G01 F60.00
G01 Z-0.3000
G01 F120.00
G01 X20.5874 Y33.2163
G00 Z1.5000
G00 X19.7302 Y32.3592
G01 F60.00
G01 Z-0.3000
G01 F120.00
G01 X20.6588 Y32.3592
G00 Z1.5000
G00 X21.2302 Y32.3592
G01 F60.00
G01 Z-0.3000
G01 F120.00
G01 X22.0874 Y32.3592
G00 Z1.5000
G00 X21.6588 Y32.3592
G01 F60.00
G01 Z-0.3000
G01 F120.00
G01 X21.6588 Y33.8592
G00 Z1.5000
G00 X21.6588 Y33.8592
G01 F60.00
G01 Z-0.3000
G01 F120.00
G01 X21.5159 Y33.6449
G00 Z1.5000
G00 X21.5159 Y33.6449
G01 F60.00
G01 Z-0.3000
G01 F120.00
G01 X21.3731 Y33.5020
G00 Z1.5000
G00 X21.3731 Y33.5020
G01 F60.00
G01 Z-0.3000
G01 F120.00
G01 X21.2302 Y33.4306
G00 Z1.5000
G00 X20.6588 Y33.4306
G01 F60.00
G01 Z-0.3000
G01 F120.00
G01 X20.6588 Y33.5735
G00 Z1.5000
G00 X20.6588 Y33.4306
G01 F60.00
G01 Z-0.3000
G01 F120.00
G01 X20.5874 Y33.2163
G00 Z1.5000
G00 X20.6588 Y33.5735
G01 F60.00
G01 Z-0.3000
G01 F120.00
G01 X20.5874 Y33.7163
G00 Z1.5000
G00 X20.5874 Y33.7163
G01 F60.00
G01 Z-0.3000
G01 F120.00
G01 X20.5159 Y33.7877
G00 Z1.5000
G00 X20.5159 Y33.7877
G01 F60.00
G01 Z-0.3000
G01 F120.00
G01 X20.3731 Y33.8592
G00 Z1.5000
G00 X20.3731 Y33.8592
G01 F60.00
G01 Z-0.3000
G01 F120.00
G01 X20.0159 Y33.8592
G00 Z1.5000
G00 X20.0159 Y33.8592
G01 F60.00
G01 Z-0.3000
G01 F120.00
G01 X19.8731 Y33.7877
G00 Z1.5000
G00 X19.8731 Y33.7877
G01 F60.00
G01 Z-0.3000
G01 F120.00
G01 X19.8017 Y33.7163
G00 Z1.5000
G00 X22.6588 Y33.5735
G01 F60.00
G01 Z-0.3000
G01 F120.00
G01 X22.7302 Y33.7163
G00 Z1.5000
G00 X22.6588 Y33.5735
G01 F60.00
G01 Z-0.3000
G01 F120.00
G01 X22.6588 Y33.2163
G00 Z1.5000
G00 X22.6588 Y33.2163
G01 F60.00
G01 Z-0.3000
G01 F120.00
G01 X22.7302 Y33.0735
G00 Z1.5000
G00 X22.7302 Y33.0735
G01 F60.00
G01 Z-0.3000
G01 F120.00
G01 X22.8017 Y33.0020
G00 Z1.5000
G00 X22.8017 Y33.0020
G01 F60.00
G01 Z-0.3000
G01 F120.00
G01 X22.9445 Y32.9306
G00 Z1.5000
G00 X22.9445 Y32.9306
G01 F60.00
G01 Z-0.3000
G01 F120.00
G01 X23.2302 Y32.9306
G00 Z1.5000
G00 X23.2302 Y32.9306
G01 F60.00
G01 Z-0.3000
G01 F120.00
G01 X23.3731 Y33.0020
G00 Z1.5000
G00 X23.3731 Y33.0020
G01 F60.00
G01 Z-0.3000
G01 F120.00
G01 X23.4445 Y33.0735
G00 Z1.5000
G00 X23.4445 Y33.0735
G01 F60.00
G01 Z-0.3000
G01 F120.00
G01 X23.5159 Y33.2163
G00 Z1.5000
G00 X23.5159 Y33.0020
G01 F60.00
G01 Z-0.3000
G01 F120.00
G01 X23.4445 Y32.7163
G00 Z1.5000
G00 X23.5159 Y33.0020
G01 F60.00
G01 Z-0.3000
G01 F120.00
G01 X23.5159 Y33.5735
G00 Z1.5000
G00 X23.5159 Y33.5735
G01 F60.00
G01 Z-0.3000
G01 F120.00
G01 X23.4445 Y33.7163
G00 Z1.5000
G00 X23.4445 Y33.7163
G01 F60.00
G01 Z-0.3000
G01 F120.00
G01 X23.3731 Y33.7877
G00 Z1.5000
G00 X23.3731 Y33.7877
G01 F60.00
G01 Z-0.3000
G01 F120.00
G01 X23.2302 Y33.8592
G00 Z1.5000
G00 X23.2302 Y33.8592
G01 F60.00
G01 Z-0.3000
G01 F120.00
G01 X22.9445 Y33.8592
G00 Z1.5000
G00 X22.9445 Y33.8592
G01 F60.00
G01 Z-0.3000
G01 F120.00
G01 X22.8017 Y33.7877
G00 Z1.5000
G00 X22.8017 Y33.7877
G01 F60.00
G01 Z-0.3000
G01 F120.00
G01 X22.7302 Y33.7163
G00 Z1.5000
G00 X23.4445 Y32.7163
G01 F60.00
G01 Z-0.3000
G01 F120.00
G01 X23.3017 Y32.5020
G00 Z1.5000
G00 X23.3017 Y32.5020
G01 F60.00
G01 Z-0.3000
G01 F120.00
G01 X23.2302 Y32.4306
G00 Z1.5000
G00 X23.2302 Y32.4306
G01 F60.00
G01 Z-0.3000
G01 F120.00
G01 X23.0874 Y32.3592
G00 Z1.5000
G00 X23.0874 Y32.3592
G01 F60.00
G01 Z-0.3000
G01 F120.00
G01 X22.8017 Y32.3592
G00 Z1.5000
G00 X61.6245 Y32.5892
G01 F60.00
G01 Z-0.3000
G01 F120.00
G01 X61.6245 Y31.0892
G00 Z1.5000
G00 X61.6245 Y32.5892
G01 F60.00
G01 Z-0.3000
G01 F120.00
G01 X62.1245 Y31.5177
G00 Z1.5000
G00 X62.1245 Y31.5177
G01 F60.00
G01 Z-0.3000
G01 F120.00
G01 X62.6245 Y32.5892
G00 Z1.5000
G00 X62.6245 Y32.5892
G01 F60.00
G01 Z-0.3000
G01 F120.00
G01 X62.6245 Y31.0892
G00 Z1.5000
G00 X63.2674 Y31.3749
G01 F60.00
G01 Z-0.3000
G01 F120.00
G01 X63.3388 Y31.2320
G00 Z1.5000
G00 X63.2674 Y31.3749
G01 F60.00
G01 Z-0.3000
G01 F120.00
G01 X63.2674 Y31.8035
G00 Z1.5000
G00 X63.2674 Y31.8035
G01 F60.00
G01 Z-0.3000
G01 F120.00
G01 X63.3388 Y31.9463
G00 Z1.5000
G00 X63.3388 Y31.9463
G01 F60.00
G01 Z-0.3000
G01 F120.00
G01 X63.4102 Y32.0177
G00 Z1.5000
G00 X63.4102 Y32.0177
G01 F60.00
G01 Z-0.3000
G01 F120.00
G01 X63.5531 Y32.0892
G00 Z1.5000
G00 X63.5531 Y32.0892
G01 F60.00
G01 Z-0.3000
G01 F120.00
G01 X63.7674 Y32.0892
G00 Z1.5000
G00 X63.7674 Y32.0892
G01 F60.00
G01 Z-0.3000
G01 F120.00
G01 X63.9102 Y32.0177
G00 Z1.5000
G00 X63.9102 Y32.0177
G01 F60.00
G01 Z-0.3000
G01 F120.00
G01 X63.9817 Y31.9463
G00 Z1.5000
G00 X63.9817 Y31.9463
G01 F60.00
G01 Z-0.3000
G01 F120.00
G01 X64.0531 Y31.8035
G00 Z1.5000
G00 X64.0531 Y31.8035
G01 F60.00
G01 Z-0.3000
G01 F120.00
G01 X64.0531 Y31.3749
G00 Z1.5000
G00 X64.0531 Y31.3749
G01 F60.00
G01 Z-0.3000
G01 F120.00
G01 X63.9817 Y31.2320
G00 Z1.5000
G00 X63.9817 Y31.2320
G01 F60.00
G01 Z-0.3000
G01 F120.00
G01 X63.9102 Y31.1606
G00 Z1.5000
G00 X63.9102 Y31.1606
G01 F60.00
G01 Z-0.3000
G01 F120.00
G01 X63.7674 Y31.0892
G00 Z1.5000
G00 X63.7674 Y31.0892
G01 F60.00
G01 Z-0.3000
G01 F120.00
G01 X63.5531 Y31.0892
G00 Z1.5000
G00 X63.5531 Y31.0892
G01 F60.00
G01 Z-0.3000
G01 F120.00
G01 X63.4102 Y31.1606
G00 Z1.5000
G00 X63.4102 Y31.1606
G01 F60.00
G01 Z-0.3000
G01 F120.00
G01 X63.3388 Y31.2320
G00 Z1.5000
G00 X64.6959 Y31.3035
G01 F60.00
G01 Z-0.3000
G01 F120.00
G01 X64.7674 Y31.1606
G00 Z1.5000
G00 X64.7674 Y31.1606
G01 F60.00
G01 Z-0.3000
G01 F120.00
G01 X64.9102 Y31.0892
G00 Z1.5000
G00 X64.9102 Y31.0892
G01 F60.00
G01 Z-0.3000
G01 F120.00
G01 X65.0531 Y31.0892
G00 Z1.5000
G00 X64.6959 Y31.3035
G01 F60.00
G01 Z-0.3000
G01 F120.00
G01 X64.6959 Y32.5892
G00 Z1.5000
G00 X64.4817 Y32.0892
G01 F60.00
G01 Z-0.3000
G01 F120.00
G01 X65.0531 Y32.0892
G00 Z1.5000
G00 X66.6245 Y31.5177
G01 F60.00
G01 Z-0.3000
G01 F120.00
G01 X67.3388 Y31.5177
G00 Z1.5000
G00 X67.4817 Y31.0892
G01 F60.00
G01 Z-0.3000
G01 F120.00
G01 X66.9817 Y32.5892
G00 Z1.5000
G00 X66.4817 Y31.0892
G01 F60.00
G01 Z-0.3000
G01 F120.00
G01 X66.9817 Y32.5892
G00 Z1.5000
M05
G00 Z1.5000
G00 Z15.00


