(G-CODE GENERATED BY FLATCAM v8.994 - www.flatcam.org - Version Date: 2020/11/7)

(Name: nanoRIghtAux-F_Cu.gbr_iso_combined_cnc)
(Type: G-code from Geometry)
(Units: MM)

(Created on Tuesday, 20 June 2023 at 21:12)

(This preprocessor is the default preprocessor used by FlatCAM.)
(It is made to work with MACH3 compatible motion controllers.)

(TOOL DIAMETER: 0.1 mm)
(Feedrate_XY: 120.0 mm/min)
(Feedrate_Z: 60.0 mm/min)
(Feedrate rapids 1500.0 mm/min)

(Z_Cut: -0.1 mm)
(Z_Move: 2.0 mm)
(Z Start: None mm)
(Z End: 15.0 mm)
(X,Y End: None mm)
(Steps per circle: 64)
(Preprocessor Geometry: default)

(X range:   22.0700 ...   97.4800  mm)
(Y range:   24.9100 ...   74.9700  mm)

(Spindle Speed: 0.0 RPM)
G21
G90
G94

G01 F120.00

M5
G00 Z15.0000
G00 X0.0000 Y0.0000
T1
M6    
(MSG, Change to Tool Dia = 0.1000)
M0
G00 Z15.0000

M03
G01 F120.00
G00 X32.2715 Y24.9107
G01 F60.00
G01 Z-0.1000
G01 F120.00
G01 X32.2800 Y24.9100
G01 X33.9800 Y24.9100
G01 X33.9898 Y24.9110
G01 X33.9991 Y24.9138
G01 X34.0078 Y24.9184
G01 X34.0154 Y24.9246
G01 X34.0216 Y24.9322
G01 X34.0262 Y24.9409
G01 X34.0290 Y24.9502
G01 X34.0300 Y24.9600
G01 X34.0300 Y26.6600
G01 X34.0290 Y26.6698
G01 X34.0262 Y26.6791
G01 X34.0216 Y26.6878
G01 X34.0154 Y26.6954
G01 X34.0078 Y26.7016
G01 X33.9991 Y26.7062
G01 X33.9898 Y26.7090
G01 X33.9800 Y26.7100
G01 X32.2800 Y26.7100
G01 X32.2702 Y26.7090
G01 X32.2609 Y26.7062
G01 X32.2522 Y26.7016
G01 X32.2446 Y26.6954
G01 X32.2384 Y26.6878
G01 X32.2338 Y26.6791
G01 X32.2310 Y26.6698
G01 X32.2300 Y26.6600
G01 X32.2300 Y24.9588
G01 X32.2310 Y24.9502
G01 X32.2334 Y24.9420
G01 X32.2371 Y24.9343
G01 X32.2421 Y24.9273
G01 X32.2483 Y24.9213
G01 X32.2554 Y24.9165
G01 X32.2632 Y24.9129
G01 X32.2715 Y24.9107
G00 Z2.0000
G00 X35.2457 Y25.0163
G01 F60.00
G01 Z-0.1000
G01 F120.00
G01 X35.3256 Y24.9785
G01 X35.4087 Y24.9488
G01 X35.4944 Y24.9273
G01 X35.5818 Y24.9143
G01 X35.6700 Y24.9100
G01 X35.7582 Y24.9143
G01 X35.8456 Y24.9273
G01 X35.9313 Y24.9488
G01 X36.0144 Y24.9785
G01 X36.0943 Y25.0163
G01 X36.1700 Y25.0617
G01 X36.2410 Y25.1143
G01 X36.3064 Y25.1736
G01 X36.3657 Y25.2390
G01 X36.4183 Y25.3100
G01 X36.4637 Y25.3857
G01 X36.5015 Y25.4656
G01 X36.5312 Y25.5487
G01 X36.5527 Y25.6344
G01 X36.5657 Y25.7218
G01 X36.5700 Y25.8100
G01 X36.5657 Y25.8982
G01 X36.5527 Y25.9856
G01 X36.5312 Y26.0713
G01 X36.5015 Y26.1544
G01 X36.4637 Y26.2343
G01 X36.4183 Y26.3100
G01 X36.3657 Y26.3810
G01 X36.3064 Y26.4464
G01 X36.2410 Y26.5057
G01 X36.1700 Y26.5583
G01 X36.0943 Y26.6037
G01 X36.0144 Y26.6415
G01 X35.9313 Y26.6712
G01 X35.8456 Y26.6927
G01 X35.7582 Y26.7057
G01 X35.6700 Y26.7100
G01 X35.5818 Y26.7057
G01 X35.4944 Y26.6927
G01 X35.4087 Y26.6712
G01 X35.3256 Y26.6415
G01 X35.2457 Y26.6037
G01 X35.1700 Y26.5583
G01 X35.0990 Y26.5057
G01 X35.0336 Y26.4464
G01 X34.9743 Y26.3810
G01 X34.9217 Y26.3100
G01 X34.8763 Y26.2343
G01 X34.8385 Y26.1544
G01 X34.8088 Y26.0713
G01 X34.7873 Y25.9856
G01 X34.7743 Y25.8982
G01 X34.7700 Y25.8100
G01 X34.7743 Y25.7218
G01 X34.7873 Y25.6344
G01 X34.8088 Y25.5487
G01 X34.8385 Y25.4656
G01 X34.8763 Y25.3857
G01 X34.9217 Y25.3100
G01 X34.9743 Y25.2390
G01 X35.0336 Y25.1736
G01 X35.0990 Y25.1143
G01 X35.1700 Y25.0617
G01 X35.2457 Y25.0163
G00 Z2.0000
G00 X28.9207 Y33.8913
G01 F60.00
G01 Z-0.1000
G01 F120.00
G01 X29.0006 Y33.8535
G01 X29.0837 Y33.8238
G01 X29.1694 Y33.8023
G01 X29.2568 Y33.7893
G01 X29.3450 Y33.7850
G01 X29.4332 Y33.7893
G01 X29.5206 Y33.8023
G01 X29.6063 Y33.8238
G01 X29.6894 Y33.8535
G01 X29.7693 Y33.8913
G01 X29.8450 Y33.9367
G01 X29.9160 Y33.9893
G01 X29.9814 Y34.0486
G01 X30.0407 Y34.1140
G01 X30.0933 Y34.1850
G01 X30.1387 Y34.2607
G01 X30.1765 Y34.3406
G01 X30.2062 Y34.4237
G01 X30.2277 Y34.5094
G01 X30.2407 Y34.5968
G01 X30.2450 Y34.6850
G01 X30.2407 Y34.7732
G01 X30.2277 Y34.8606
G01 X30.2062 Y34.9463
G01 X30.1765 Y35.0294
G01 X30.1387 Y35.1093
G01 X30.0933 Y35.1850
G01 X30.0407 Y35.2560
G01 X29.9814 Y35.3214
G01 X29.9160 Y35.3807
G01 X29.8450 Y35.4333
G01 X29.7693 Y35.4787
G01 X29.6894 Y35.5165
G01 X29.6063 Y35.5462
G01 X29.5206 Y35.5677
G01 X29.4332 Y35.5807
G01 X29.3450 Y35.5850
G01 X29.2568 Y35.5807
G01 X29.1694 Y35.5677
G01 X29.0837 Y35.5462
G01 X29.0006 Y35.5165
G01 X28.9207 Y35.4787
G01 X28.8450 Y35.4333
G01 X28.7740 Y35.3807
G01 X28.7086 Y35.3214
G01 X28.6493 Y35.2560
G01 X28.5967 Y35.1850
G01 X28.5513 Y35.1093
G01 X28.5135 Y35.0294
G01 X28.4838 Y34.9463
G01 X28.4623 Y34.8606
G01 X28.4493 Y34.7732
G01 X28.4450 Y34.6850
G01 X28.4493 Y34.5968
G01 X28.4623 Y34.5094
G01 X28.4838 Y34.4237
G01 X28.5135 Y34.3406
G01 X28.5513 Y34.2607
G01 X28.5967 Y34.1850
G01 X28.6493 Y34.1140
G01 X28.7086 Y34.0486
G01 X28.7740 Y33.9893
G01 X28.8450 Y33.9367
G01 X28.9207 Y33.8913
G00 Z2.0000
G00 X28.9218 Y36.4307
G01 F60.00
G01 Z-0.1000
G01 F120.00
G01 X29.0006 Y36.3935
G01 X29.0837 Y36.3638
G01 X29.1694 Y36.3423
G01 X29.2568 Y36.3293
G01 X29.3450 Y36.3250
G01 X29.4332 Y36.3293
G01 X29.5206 Y36.3423
G01 X29.6063 Y36.3638
G01 X29.6894 Y36.3935
G01 X29.7693 Y36.4313
G01 X29.8450 Y36.4767
G01 X29.9160 Y36.5293
G01 X29.9814 Y36.5886
G01 X30.0407 Y36.6540
G01 X30.0933 Y36.7250
G01 X30.1387 Y36.8007
G01 X30.1765 Y36.8806
G01 X30.2062 Y36.9637
G01 X30.2277 Y37.0494
G01 X30.2407 Y37.1368
G01 X30.2450 Y37.2250
G01 X30.2407 Y37.3132
G01 X30.2277 Y37.4006
G01 X30.2062 Y37.4863
G01 X30.1765 Y37.5694
G01 X30.1387 Y37.6493
G01 X30.0933 Y37.7250
G01 X30.0407 Y37.7960
G01 X29.9814 Y37.8614
G01 X29.9160 Y37.9207
G01 X29.8450 Y37.9733
G01 X29.7693 Y38.0187
G01 X29.6894 Y38.0565
G01 X29.6063 Y38.0862
G01 X29.5206 Y38.1077
G01 X29.4332 Y38.1207
G01 X29.3450 Y38.1250
G01 X29.2568 Y38.1207
G01 X29.1694 Y38.1077
G01 X29.0837 Y38.0862
G01 X29.0006 Y38.0565
G01 X28.9207 Y38.0187
G01 X28.8450 Y37.9733
G01 X28.7740 Y37.9207
G01 X28.7086 Y37.8614
G01 X28.6493 Y37.7960
G01 X28.5967 Y37.7250
G01 X28.5513 Y37.6493
G01 X28.5135 Y37.5694
G01 X28.4838 Y37.4863
G01 X28.4623 Y37.4006
G01 X28.4493 Y37.3132
G01 X28.4450 Y37.2250
G01 X28.4493 Y37.1368
G01 X28.4623 Y37.0494
G01 X28.4838 Y36.9637
G01 X28.5135 Y36.8806
G01 X28.5513 Y36.8007
G01 X28.5967 Y36.7250
G01 X28.6493 Y36.6540
G01 X28.7086 Y36.5886
G01 X28.7740 Y36.5293
G01 X28.8450 Y36.4767
G01 X28.9218 Y36.4307
G00 Z2.0000
G00 X28.4865 Y38.8657
G01 F60.00
G01 Z-0.1000
G01 F120.00
G01 X28.4950 Y38.8650
G01 X30.1950 Y38.8650
G01 X30.2048 Y38.8660
G01 X30.2141 Y38.8688
G01 X30.2228 Y38.8734
G01 X30.2304 Y38.8796
G01 X30.2366 Y38.8872
G01 X30.2412 Y38.8959
G01 X30.2440 Y38.9052
G01 X30.2450 Y38.9150
G01 X30.2450 Y40.6150
G01 X30.2440 Y40.6248
G01 X30.2412 Y40.6341
G01 X30.2366 Y40.6428
G01 X30.2304 Y40.6504
G01 X30.2228 Y40.6566
G01 X30.2141 Y40.6612
G01 X30.2048 Y40.6640
G01 X30.1950 Y40.6650
G01 X28.4950 Y40.6650
G01 X28.4852 Y40.6640
G01 X28.4759 Y40.6612
G01 X28.4672 Y40.6566
G01 X28.4596 Y40.6504
G01 X28.4534 Y40.6428
G01 X28.4488 Y40.6341
G01 X28.4460 Y40.6248
G01 X28.4450 Y40.6150
G01 X28.4450 Y38.9138
G01 X28.4460 Y38.9052
G01 X28.4484 Y38.8970
G01 X28.4521 Y38.8893
G01 X28.4571 Y38.8823
G01 X28.4633 Y38.8763
G01 X28.4704 Y38.8715
G01 X28.4782 Y38.8679
G01 X28.4865 Y38.8657
G00 Z2.0000
G00 X25.0868 Y38.9857
G01 F60.00
G01 Z-0.1000
G01 F120.00
G01 X25.1656 Y38.9485
G01 X25.2487 Y38.9188
G01 X25.3344 Y38.8973
G01 X25.4218 Y38.8843
G01 X25.5100 Y38.8800
G01 X25.5982 Y38.8843
G01 X25.6856 Y38.8973
G01 X25.7713 Y38.9188
G01 X25.8544 Y38.9485
G01 X25.9343 Y38.9863
G01 X26.0100 Y39.0317
G01 X26.0810 Y39.0843
G01 X26.1464 Y39.1436
G01 X26.2057 Y39.2090
G01 X26.2583 Y39.2800
G01 X26.3037 Y39.3557
G01 X26.3415 Y39.4356
G01 X26.3712 Y39.5187
G01 X26.3927 Y39.6044
G01 X26.4057 Y39.6918
G01 X26.4100 Y39.7800
G01 X26.4057 Y39.8682
G01 X26.3927 Y39.9556
G01 X26.3712 Y40.0413
G01 X26.3415 Y40.1244
G01 X26.3037 Y40.2043
G01 X26.2583 Y40.2800
G01 X26.2057 Y40.3510
G01 X26.1464 Y40.4164
G01 X26.0810 Y40.4757
G01 X26.0100 Y40.5283
G01 X25.9343 Y40.5737
G01 X25.8544 Y40.6115
G01 X25.7713 Y40.6412
G01 X25.6856 Y40.6627
G01 X25.5982 Y40.6757
G01 X25.5100 Y40.6800
G01 X25.4218 Y40.6757
G01 X25.3344 Y40.6627
G01 X25.2487 Y40.6412
G01 X25.1656 Y40.6115
G01 X25.0857 Y40.5737
G01 X25.0100 Y40.5283
G01 X24.9390 Y40.4757
G01 X24.8736 Y40.4164
G01 X24.8143 Y40.3510
G01 X24.7617 Y40.2800
G01 X24.7163 Y40.2043
G01 X24.6785 Y40.1244
G01 X24.6488 Y40.0413
G01 X24.6273 Y39.9556
G01 X24.6143 Y39.8682
G01 X24.6100 Y39.7800
G01 X24.6143 Y39.6918
G01 X24.6273 Y39.6044
G01 X24.6488 Y39.5187
G01 X24.6785 Y39.4356
G01 X24.7163 Y39.3557
G01 X24.7617 Y39.2800
G01 X24.8143 Y39.2090
G01 X24.8736 Y39.1436
G01 X24.9390 Y39.0843
G01 X25.0100 Y39.0317
G01 X25.0868 Y38.9857
G00 Z2.0000
G00 X22.1115 Y38.8807
G01 F60.00
G01 Z-0.1000
G01 F120.00
G01 X22.1200 Y38.8800
G01 X23.8200 Y38.8800
G01 X23.8298 Y38.8810
G01 X23.8391 Y38.8838
G01 X23.8478 Y38.8884
G01 X23.8554 Y38.8946
G01 X23.8616 Y38.9022
G01 X23.8662 Y38.9109
G01 X23.8690 Y38.9202
G01 X23.8700 Y38.9300
G01 X23.8700 Y40.6300
G01 X23.8690 Y40.6398
G01 X23.8662 Y40.6491
G01 X23.8616 Y40.6578
G01 X23.8554 Y40.6654
G01 X23.8478 Y40.6716
G01 X23.8391 Y40.6762
G01 X23.8298 Y40.6790
G01 X23.8200 Y40.6800
G01 X22.1200 Y40.6800
G01 X22.1102 Y40.6790
G01 X22.1009 Y40.6762
G01 X22.0922 Y40.6716
G01 X22.0846 Y40.6654
G01 X22.0784 Y40.6578
G01 X22.0738 Y40.6491
G01 X22.0710 Y40.6398
G01 X22.0700 Y40.6300
G01 X22.0700 Y38.9288
G01 X22.0710 Y38.9202
G01 X22.0734 Y38.9120
G01 X22.0771 Y38.9043
G01 X22.0821 Y38.8973
G01 X22.0883 Y38.8913
G01 X22.0954 Y38.8865
G01 X22.1032 Y38.8829
G01 X22.1115 Y38.8807
G00 Z2.0000
G00 X23.8007 Y42.7963
G01 F60.00
G01 Z-0.1000
G01 F120.00
G01 X23.8806 Y42.7585
G01 X23.9637 Y42.7288
G01 X24.0494 Y42.7073
G01 X24.1368 Y42.6943
G01 X24.2250 Y42.6900
G01 X24.3132 Y42.6943
G01 X24.4006 Y42.7073
G01 X24.4863 Y42.7288
G01 X24.5694 Y42.7585
G01 X24.6493 Y42.7963
G01 X24.7250 Y42.8417
G01 X24.7960 Y42.8943
G01 X24.8614 Y42.9536
G01 X24.9207 Y43.0190
G01 X24.9733 Y43.0900
G01 X25.0187 Y43.1657
G01 X25.0565 Y43.2456
G01 X25.0862 Y43.3287
G01 X25.1077 Y43.4144
G01 X25.1207 Y43.5018
G01 X25.1250 Y43.5900
G01 X25.1207 Y43.6782
G01 X25.1077 Y43.7656
G01 X25.0862 Y43.8513
G01 X25.0565 Y43.9344
G01 X25.0187 Y44.0143
G01 X24.9733 Y44.0900
G01 X24.9207 Y44.1610
G01 X24.8614 Y44.2264
G01 X24.7960 Y44.2857
G01 X24.7250 Y44.3383
G01 X24.6493 Y44.3837
G01 X24.5694 Y44.4215
G01 X24.4863 Y44.4512
G01 X24.4006 Y44.4727
G01 X24.3132 Y44.4857
G01 X24.2250 Y44.4900
G01 X24.1368 Y44.4857
G01 X24.0494 Y44.4727
G01 X23.9637 Y44.4512
G01 X23.8806 Y44.4215
G01 X23.8007 Y44.3837
G01 X23.7250 Y44.3383
G01 X23.6540 Y44.2857
G01 X23.5886 Y44.2264
G01 X23.5293 Y44.1610
G01 X23.4767 Y44.0900
G01 X23.4313 Y44.0143
G01 X23.3935 Y43.9344
G01 X23.3638 Y43.8513
G01 X23.3423 Y43.7656
G01 X23.3293 Y43.6782
G01 X23.3250 Y43.5900
G01 X23.3293 Y43.5018
G01 X23.3423 Y43.4144
G01 X23.3638 Y43.3287
G01 X23.3935 Y43.2456
G01 X23.4313 Y43.1657
G01 X23.4767 Y43.0900
G01 X23.5293 Y43.0190
G01 X23.5886 Y42.9536
G01 X23.6540 Y42.8943
G01 X23.7250 Y42.8417
G01 X23.8007 Y42.7963
G00 Z2.0000
G00 X26.3418 Y42.7957
G01 F60.00
G01 Z-0.1000
G01 F120.00
G01 X26.4206 Y42.7585
G01 X26.5037 Y42.7288
G01 X26.5894 Y42.7073
G01 X26.6768 Y42.6943
G01 X26.7650 Y42.6900
G01 X26.8532 Y42.6943
G01 X26.9406 Y42.7073
G01 X27.0263 Y42.7288
G01 X27.1094 Y42.7585
G01 X27.1893 Y42.7963
G01 X27.2650 Y42.8417
G01 X27.3360 Y42.8943
G01 X27.4014 Y42.9536
G01 X27.4607 Y43.0190
G01 X27.5133 Y43.0900
G01 X27.5587 Y43.1657
G01 X27.5965 Y43.2456
G01 X27.6262 Y43.3287
G01 X27.6477 Y43.4144
G01 X27.6607 Y43.5018
G01 X27.6650 Y43.5900
G01 X27.6607 Y43.6782
G01 X27.6477 Y43.7656
G01 X27.6262 Y43.8513
G01 X27.5965 Y43.9344
G01 X27.5587 Y44.0143
G01 X27.5133 Y44.0900
G01 X27.4607 Y44.1610
G01 X27.4014 Y44.2264
G01 X27.3360 Y44.2857
G01 X27.2650 Y44.3383
G01 X27.1893 Y44.3837
G01 X27.1094 Y44.4215
G01 X27.0263 Y44.4512
G01 X26.9406 Y44.4727
G01 X26.8532 Y44.4857
G01 X26.7650 Y44.4900
G01 X26.6768 Y44.4857
G01 X26.5894 Y44.4727
G01 X26.5037 Y44.4512
G01 X26.4206 Y44.4215
G01 X26.3407 Y44.3837
G01 X26.2650 Y44.3383
G01 X26.1940 Y44.2857
G01 X26.1286 Y44.2264
G01 X26.0693 Y44.1610
G01 X26.0167 Y44.0900
G01 X25.9713 Y44.0143
G01 X25.9335 Y43.9344
G01 X25.9038 Y43.8513
G01 X25.8823 Y43.7656
G01 X25.8693 Y43.6782
G01 X25.8650 Y43.5900
G01 X25.8693 Y43.5018
G01 X25.8823 Y43.4144
G01 X25.9038 Y43.3287
G01 X25.9335 Y43.2456
G01 X25.9713 Y43.1657
G01 X26.0167 Y43.0900
G01 X26.0693 Y43.0190
G01 X26.1286 Y42.9536
G01 X26.1940 Y42.8943
G01 X26.2650 Y42.8417
G01 X26.3418 Y42.7957
G00 Z2.0000
G00 X28.4465 Y42.6907
G01 F60.00
G01 Z-0.1000
G01 F120.00
G01 X28.4550 Y42.6900
G01 X30.1550 Y42.6900
G01 X30.1648 Y42.6910
G01 X30.1741 Y42.6938
G01 X30.1828 Y42.6984
G01 X30.1904 Y42.7046
G01 X30.1966 Y42.7122
G01 X30.2012 Y42.7209
G01 X30.2040 Y42.7302
G01 X30.2050 Y42.7400
G01 X30.2050 Y44.4400
G01 X30.2040 Y44.4498
G01 X30.2012 Y44.4591
G01 X30.1966 Y44.4678
G01 X30.1904 Y44.4754
G01 X30.1828 Y44.4816
G01 X30.1741 Y44.4862
G01 X30.1648 Y44.4890
G01 X30.1550 Y44.4900
G01 X28.4550 Y44.4900
G01 X28.4452 Y44.4890
G01 X28.4359 Y44.4862
G01 X28.4272 Y44.4816
G01 X28.4196 Y44.4754
G01 X28.4134 Y44.4678
G01 X28.4088 Y44.4591
G01 X28.4060 Y44.4498
G01 X28.4050 Y44.4400
G01 X28.4050 Y42.7388
G01 X28.4060 Y42.7302
G01 X28.4084 Y42.7220
G01 X28.4121 Y42.7143
G01 X28.4171 Y42.7073
G01 X28.4233 Y42.7013
G01 X28.4304 Y42.6965
G01 X28.4382 Y42.6929
G01 X28.4465 Y42.6907
G00 Z2.0000
G00 X28.4615 Y46.5007
G01 F60.00
G01 Z-0.1000
G01 F120.00
G01 X28.4700 Y46.5000
G01 X30.1700 Y46.5000
G01 X30.1798 Y46.5010
G01 X30.1891 Y46.5038
G01 X30.1978 Y46.5084
G01 X30.2054 Y46.5146
G01 X30.2116 Y46.5222
G01 X30.2162 Y46.5309
G01 X30.2190 Y46.5402
G01 X30.2200 Y46.5500
G01 X30.2200 Y48.2500
G01 X30.2190 Y48.2598
G01 X30.2162 Y48.2691
G01 X30.2116 Y48.2778
G01 X30.2054 Y48.2854
G01 X30.1978 Y48.2916
G01 X30.1891 Y48.2962
G01 X30.1798 Y48.2990
G01 X30.1700 Y48.3000
G01 X28.4700 Y48.3000
G01 X28.4602 Y48.2990
G01 X28.4509 Y48.2962
G01 X28.4422 Y48.2916
G01 X28.4346 Y48.2854
G01 X28.4284 Y48.2778
G01 X28.4238 Y48.2691
G01 X28.4210 Y48.2598
G01 X28.4200 Y48.2500
G01 X28.4200 Y46.5488
G01 X28.4210 Y46.5402
G01 X28.4234 Y46.5320
G01 X28.4271 Y46.5243
G01 X28.4321 Y46.5173
G01 X28.4383 Y46.5113
G01 X28.4454 Y46.5065
G01 X28.4532 Y46.5029
G01 X28.4615 Y46.5007
G00 Z2.0000
G00 X26.3557 Y46.6063
G01 F60.00
G01 Z-0.1000
G01 F120.00
G01 X26.4356 Y46.5685
G01 X26.5187 Y46.5388
G01 X26.6044 Y46.5173
G01 X26.6918 Y46.5043
G01 X26.7800 Y46.5000
G01 X26.8682 Y46.5043
G01 X26.9556 Y46.5173
G01 X27.0413 Y46.5388
G01 X27.1244 Y46.5685
G01 X27.2043 Y46.6063
G01 X27.2800 Y46.6517
G01 X27.3510 Y46.7043
G01 X27.4164 Y46.7636
G01 X27.4757 Y46.8290
G01 X27.5283 Y46.9000
G01 X27.5737 Y46.9757
G01 X27.6115 Y47.0556
G01 X27.6412 Y47.1387
G01 X27.6627 Y47.2244
G01 X27.6757 Y47.3118
G01 X27.6800 Y47.4000
G01 X27.6757 Y47.4882
G01 X27.6627 Y47.5756
G01 X27.6412 Y47.6613
G01 X27.6115 Y47.7444
G01 X27.5737 Y47.8243
G01 X27.5283 Y47.9000
G01 X27.4757 Y47.9710
G01 X27.4164 Y48.0364
G01 X27.3510 Y48.0957
G01 X27.2800 Y48.1483
G01 X27.2043 Y48.1937
G01 X27.1244 Y48.2315
G01 X27.0413 Y48.2612
G01 X26.9556 Y48.2827
G01 X26.8682 Y48.2957
G01 X26.7800 Y48.3000
G01 X26.6918 Y48.2957
G01 X26.6044 Y48.2827
G01 X26.5187 Y48.2612
G01 X26.4356 Y48.2315
G01 X26.3557 Y48.1937
G01 X26.2800 Y48.1483
G01 X26.2090 Y48.0957
G01 X26.1436 Y48.0364
G01 X26.0843 Y47.9710
G01 X26.0317 Y47.9000
G01 X25.9863 Y47.8243
G01 X25.9485 Y47.7444
G01 X25.9188 Y47.6613
G01 X25.8973 Y47.5756
G01 X25.8843 Y47.4882
G01 X25.8800 Y47.4000
G01 X25.8843 Y47.3118
G01 X25.8973 Y47.2244
G01 X25.9188 Y47.1387
G01 X25.9485 Y47.0556
G01 X25.9863 Y46.9757
G01 X26.0317 Y46.9000
G01 X26.0843 Y46.8290
G01 X26.1436 Y46.7636
G01 X26.2090 Y46.7043
G01 X26.2800 Y46.6517
G01 X26.3557 Y46.6063
G00 Z2.0000
G00 X23.8157 Y46.6063
G01 F60.00
G01 Z-0.1000
G01 F120.00
G01 X23.8956 Y46.5685
G01 X23.9787 Y46.5388
G01 X24.0644 Y46.5173
G01 X24.1518 Y46.5043
G01 X24.2400 Y46.5000
G01 X24.3282 Y46.5043
G01 X24.4156 Y46.5173
G01 X24.5013 Y46.5388
G01 X24.5844 Y46.5685
G01 X24.6643 Y46.6063
G01 X24.7400 Y46.6517
G01 X24.8110 Y46.7043
G01 X24.8764 Y46.7636
G01 X24.9357 Y46.8290
G01 X24.9883 Y46.9000
G01 X25.0337 Y46.9757
G01 X25.0715 Y47.0556
G01 X25.1012 Y47.1387
G01 X25.1227 Y47.2244
G01 X25.1357 Y47.3118
G01 X25.1400 Y47.4000
G01 X25.1357 Y47.4882
G01 X25.1227 Y47.5756
G01 X25.1012 Y47.6613
G01 X25.0715 Y47.7444
G01 X25.0337 Y47.8243
G01 X24.9883 Y47.9000
G01 X24.9357 Y47.9710
G01 X24.8764 Y48.0364
G01 X24.8110 Y48.0957
G01 X24.7400 Y48.1483
G01 X24.6643 Y48.1937
G01 X24.5844 Y48.2315
G01 X24.5013 Y48.2612
G01 X24.4156 Y48.2827
G01 X24.3282 Y48.2957
G01 X24.2400 Y48.3000
G01 X24.1518 Y48.2957
G01 X24.0644 Y48.2827
G01 X23.9787 Y48.2612
G01 X23.8956 Y48.2315
G01 X23.8157 Y48.1937
G01 X23.7400 Y48.1483
G01 X23.6690 Y48.0957
G01 X23.6036 Y48.0364
G01 X23.5443 Y47.9710
G01 X23.4917 Y47.9000
G01 X23.4463 Y47.8243
G01 X23.4085 Y47.7444
G01 X23.3788 Y47.6613
G01 X23.3573 Y47.5756
G01 X23.3443 Y47.4882
G01 X23.3400 Y47.4000
G01 X23.3443 Y47.3118
G01 X23.3573 Y47.2244
G01 X23.3788 Y47.1387
G01 X23.4085 Y47.0556
G01 X23.4463 Y46.9757
G01 X23.4917 Y46.9000
G01 X23.5443 Y46.8290
G01 X23.6036 Y46.7636
G01 X23.6690 Y46.7043
G01 X23.7400 Y46.6517
G01 X23.8157 Y46.6063
G00 Z2.0000
G00 X23.8007 Y50.4163
G01 F60.00
G01 Z-0.1000
G01 F120.00
G01 X23.8806 Y50.3785
G01 X23.9637 Y50.3488
G01 X24.0494 Y50.3273
G01 X24.1368 Y50.3143
G01 X24.2250 Y50.3100
G01 X24.3132 Y50.3143
G01 X24.4006 Y50.3273
G01 X24.4863 Y50.3488
G01 X24.5694 Y50.3785
G01 X24.6493 Y50.4163
G01 X24.7250 Y50.4617
G01 X24.7960 Y50.5143
G01 X24.8614 Y50.5736
G01 X24.9207 Y50.6390
G01 X24.9733 Y50.7100
G01 X25.0187 Y50.7857
G01 X25.0565 Y50.8656
G01 X25.0862 Y50.9487
G01 X25.1077 Y51.0344
G01 X25.1207 Y51.1218
G01 X25.1250 Y51.2100
G01 X25.1207 Y51.2982
G01 X25.1077 Y51.3856
G01 X25.0862 Y51.4713
G01 X25.0565 Y51.5544
G01 X25.0187 Y51.6343
G01 X24.9733 Y51.7100
G01 X24.9207 Y51.7810
G01 X24.8614 Y51.8464
G01 X24.7960 Y51.9057
G01 X24.7250 Y51.9583
G01 X24.6493 Y52.0037
G01 X24.5694 Y52.0415
G01 X24.4863 Y52.0712
G01 X24.4006 Y52.0927
G01 X24.3132 Y52.1057
G01 X24.2250 Y52.1100
G01 X24.1368 Y52.1057
G01 X24.0494 Y52.0927
G01 X23.9637 Y52.0712
G01 X23.8806 Y52.0415
G01 X23.8007 Y52.0037
G01 X23.7250 Y51.9583
G01 X23.6540 Y51.9057
G01 X23.5886 Y51.8464
G01 X23.5293 Y51.7810
G01 X23.4767 Y51.7100
G01 X23.4313 Y51.6343
G01 X23.3935 Y51.5544
G01 X23.3638 Y51.4713
G01 X23.3423 Y51.3856
G01 X23.3293 Y51.2982
G01 X23.3250 Y51.2100
G01 X23.3293 Y51.1218
G01 X23.3423 Y51.0344
G01 X23.3638 Y50.9487
G01 X23.3935 Y50.8656
G01 X23.4313 Y50.7857
G01 X23.4767 Y50.7100
G01 X23.5293 Y50.6390
G01 X23.5886 Y50.5736
G01 X23.6540 Y50.5143
G01 X23.7250 Y50.4617
G01 X23.8007 Y50.4163
G00 Z2.0000
G00 X26.3407 Y50.4163
G01 F60.00
G01 Z-0.1000
G01 F120.00
G01 X26.4206 Y50.3785
G01 X26.5037 Y50.3488
G01 X26.5894 Y50.3273
G01 X26.6768 Y50.3143
G01 X26.7650 Y50.3100
G01 X26.8532 Y50.3143
G01 X26.9406 Y50.3273
G01 X27.0263 Y50.3488
G01 X27.1094 Y50.3785
G01 X27.1893 Y50.4163
G01 X27.2650 Y50.4617
G01 X27.3360 Y50.5143
G01 X27.4014 Y50.5736
G01 X27.4607 Y50.6390
G01 X27.5133 Y50.7100
G01 X27.5587 Y50.7857
G01 X27.5965 Y50.8656
G01 X27.6262 Y50.9487
G01 X27.6477 Y51.0344
G01 X27.6607 Y51.1218
G01 X27.6650 Y51.2100
G01 X27.6607 Y51.2982
G01 X27.6477 Y51.3856
G01 X27.6262 Y51.4713
G01 X27.5965 Y51.5544
G01 X27.5587 Y51.6343
G01 X27.5133 Y51.7100
G01 X27.4607 Y51.7810
G01 X27.4014 Y51.8464
G01 X27.3360 Y51.9057
G01 X27.2650 Y51.9583
G01 X27.1893 Y52.0037
G01 X27.1094 Y52.0415
G01 X27.0263 Y52.0712
G01 X26.9406 Y52.0927
G01 X26.8532 Y52.1057
G01 X26.7650 Y52.1100
G01 X26.6768 Y52.1057
G01 X26.5894 Y52.0927
G01 X26.5037 Y52.0712
G01 X26.4206 Y52.0415
G01 X26.3407 Y52.0037
G01 X26.2650 Y51.9583
G01 X26.1940 Y51.9057
G01 X26.1286 Y51.8464
G01 X26.0693 Y51.7810
G01 X26.0167 Y51.7100
G01 X25.9713 Y51.6343
G01 X25.9335 Y51.5544
G01 X25.9038 Y51.4713
G01 X25.8823 Y51.3856
G01 X25.8693 Y51.2982
G01 X25.8650 Y51.2100
G01 X25.8693 Y51.1218
G01 X25.8823 Y51.0344
G01 X25.9038 Y50.9487
G01 X25.9335 Y50.8656
G01 X25.9713 Y50.7857
G01 X26.0167 Y50.7100
G01 X26.0693 Y50.6390
G01 X26.1286 Y50.5736
G01 X26.1940 Y50.5143
G01 X26.2650 Y50.4617
G01 X26.3407 Y50.4163
G00 Z2.0000
G00 X28.4465 Y50.3107
G01 F60.00
G01 Z-0.1000
G01 F120.00
G01 X28.4550 Y50.3100
G01 X30.1550 Y50.3100
G01 X30.1648 Y50.3110
G01 X30.1741 Y50.3138
G01 X30.1828 Y50.3184
G01 X30.1904 Y50.3246
G01 X30.1966 Y50.3322
G01 X30.2012 Y50.3409
G01 X30.2040 Y50.3502
G01 X30.2050 Y50.3600
G01 X30.2050 Y52.0600
G01 X30.2040 Y52.0698
G01 X30.2012 Y52.0791
G01 X30.1966 Y52.0878
G01 X30.1904 Y52.0954
G01 X30.1828 Y52.1016
G01 X30.1741 Y52.1062
G01 X30.1648 Y52.1090
G01 X30.1550 Y52.1100
G01 X28.4550 Y52.1100
G01 X28.4452 Y52.1090
G01 X28.4359 Y52.1062
G01 X28.4272 Y52.1016
G01 X28.4196 Y52.0954
G01 X28.4134 Y52.0878
G01 X28.4088 Y52.0791
G01 X28.4060 Y52.0698
G01 X28.4050 Y52.0600
G01 X28.4050 Y50.3588
G01 X28.4060 Y50.3502
G01 X28.4084 Y50.3420
G01 X28.4121 Y50.3343
G01 X28.4171 Y50.3273
G01 X28.4233 Y50.3213
G01 X28.4304 Y50.3165
G01 X28.4382 Y50.3129
G01 X28.4465 Y50.3107
G00 Z2.0000
G00 X28.4465 Y54.1207
G01 F60.00
G01 Z-0.1000
G01 F120.00
G01 X28.4550 Y54.1200
G01 X30.1550 Y54.1200
G01 X30.1648 Y54.1210
G01 X30.1741 Y54.1238
G01 X30.1828 Y54.1284
G01 X30.1904 Y54.1346
G01 X30.1966 Y54.1422
G01 X30.2012 Y54.1509
G01 X30.2040 Y54.1602
G01 X30.2050 Y54.1700
G01 X30.2050 Y55.8700
G01 X30.2040 Y55.8798
G01 X30.2012 Y55.8891
G01 X30.1966 Y55.8978
G01 X30.1904 Y55.9054
G01 X30.1828 Y55.9116
G01 X30.1741 Y55.9162
G01 X30.1648 Y55.9190
G01 X30.1550 Y55.9200
G01 X28.4550 Y55.9200
G01 X28.4452 Y55.9190
G01 X28.4359 Y55.9162
G01 X28.4272 Y55.9116
G01 X28.4196 Y55.9054
G01 X28.4134 Y55.8978
G01 X28.4088 Y55.8891
G01 X28.4060 Y55.8798
G01 X28.4050 Y55.8700
G01 X28.4050 Y54.1688
G01 X28.4060 Y54.1602
G01 X28.4084 Y54.1520
G01 X28.4121 Y54.1443
G01 X28.4171 Y54.1373
G01 X28.4233 Y54.1313
G01 X28.4304 Y54.1265
G01 X28.4382 Y54.1229
G01 X28.4465 Y54.1207
G00 Z2.0000
G00 X26.3407 Y54.2263
G01 F60.00
G01 Z-0.1000
G01 F120.00
G01 X26.4206 Y54.1885
G01 X26.5037 Y54.1588
G01 X26.5894 Y54.1373
G01 X26.6768 Y54.1243
G01 X26.7650 Y54.1200
G01 X26.8532 Y54.1243
G01 X26.9406 Y54.1373
G01 X27.0263 Y54.1588
G01 X27.1094 Y54.1885
G01 X27.1893 Y54.2263
G01 X27.2650 Y54.2717
G01 X27.3360 Y54.3243
G01 X27.4014 Y54.3836
G01 X27.4607 Y54.4490
G01 X27.5133 Y54.5200
G01 X27.5587 Y54.5957
G01 X27.5965 Y54.6756
G01 X27.6262 Y54.7587
G01 X27.6477 Y54.8444
G01 X27.6607 Y54.9318
G01 X27.6650 Y55.0200
G01 X27.6607 Y55.1082
G01 X27.6477 Y55.1956
G01 X27.6262 Y55.2813
G01 X27.5965 Y55.3644
G01 X27.5587 Y55.4443
G01 X27.5133 Y55.5200
G01 X27.4607 Y55.5910
G01 X27.4014 Y55.6564
G01 X27.3360 Y55.7157
G01 X27.2650 Y55.7683
G01 X27.1893 Y55.8137
G01 X27.1094 Y55.8515
G01 X27.0263 Y55.8812
G01 X26.9406 Y55.9027
G01 X26.8532 Y55.9157
G01 X26.7650 Y55.9200
G01 X26.6768 Y55.9157
G01 X26.5894 Y55.9027
G01 X26.5037 Y55.8812
G01 X26.4206 Y55.8515
G01 X26.3407 Y55.8137
G01 X26.2650 Y55.7683
G01 X26.1940 Y55.7157
G01 X26.1286 Y55.6564
G01 X26.0693 Y55.5910
G01 X26.0167 Y55.5200
G01 X25.9713 Y55.4443
G01 X25.9335 Y55.3644
G01 X25.9038 Y55.2813
G01 X25.8823 Y55.1956
G01 X25.8693 Y55.1082
G01 X25.8650 Y55.0200
G01 X25.8693 Y54.9318
G01 X25.8823 Y54.8444
G01 X25.9038 Y54.7587
G01 X25.9335 Y54.6756
G01 X25.9713 Y54.5957
G01 X26.0167 Y54.5200
G01 X26.0693 Y54.4490
G01 X26.1286 Y54.3836
G01 X26.1940 Y54.3243
G01 X26.2650 Y54.2717
G01 X26.3407 Y54.2263
G00 Z2.0000
G00 X23.8018 Y54.2257
G01 F60.00
G01 Z-0.1000
G01 F120.00
G01 X23.8806 Y54.1885
G01 X23.9637 Y54.1588
G01 X24.0494 Y54.1373
G01 X24.1368 Y54.1243
G01 X24.2250 Y54.1200
G01 X24.3132 Y54.1243
G01 X24.4006 Y54.1373
G01 X24.4863 Y54.1588
G01 X24.5694 Y54.1885
G01 X24.6493 Y54.2263
G01 X24.7250 Y54.2717
G01 X24.7960 Y54.3243
G01 X24.8614 Y54.3836
G01 X24.9207 Y54.4490
G01 X24.9733 Y54.5200
G01 X25.0187 Y54.5957
G01 X25.0565 Y54.6756
G01 X25.0862 Y54.7587
G01 X25.1077 Y54.8444
G01 X25.1207 Y54.9318
G01 X25.1250 Y55.0200
G01 X25.1207 Y55.1082
G01 X25.1077 Y55.1956
G01 X25.0862 Y55.2813
G01 X25.0565 Y55.3644
G01 X25.0187 Y55.4443
G01 X24.9733 Y55.5200
G01 X24.9207 Y55.5910
G01 X24.8614 Y55.6564
G01 X24.7960 Y55.7157
G01 X24.7250 Y55.7683
G01 X24.6493 Y55.8137
G01 X24.5694 Y55.8515
G01 X24.4863 Y55.8812
G01 X24.4006 Y55.9027
G01 X24.3132 Y55.9157
G01 X24.2250 Y55.9200
G01 X24.1368 Y55.9157
G01 X24.0494 Y55.9027
G01 X23.9637 Y55.8812
G01 X23.8806 Y55.8515
G01 X23.8007 Y55.8137
G01 X23.7250 Y55.7683
G01 X23.6540 Y55.7157
G01 X23.5886 Y55.6564
G01 X23.5293 Y55.5910
G01 X23.4767 Y55.5200
G01 X23.4313 Y55.4443
G01 X23.3935 Y55.3644
G01 X23.3638 Y55.2813
G01 X23.3423 Y55.1956
G01 X23.3293 Y55.1082
G01 X23.3250 Y55.0200
G01 X23.3293 Y54.9318
G01 X23.3423 Y54.8444
G01 X23.3638 Y54.7587
G01 X23.3935 Y54.6756
G01 X23.4313 Y54.5957
G01 X23.4767 Y54.5200
G01 X23.5293 Y54.4490
G01 X23.5886 Y54.3836
G01 X23.6540 Y54.3243
G01 X23.7250 Y54.2717
G01 X23.8018 Y54.2257
G00 Z2.0000
G00 X23.8157 Y58.0363
G01 F60.00
G01 Z-0.1000
G01 F120.00
G01 X23.8956 Y57.9985
G01 X23.9787 Y57.9688
G01 X24.0644 Y57.9473
G01 X24.1518 Y57.9343
G01 X24.2400 Y57.9300
G01 X24.3282 Y57.9343
G01 X24.4156 Y57.9473
G01 X24.5013 Y57.9688
G01 X24.5844 Y57.9985
G01 X24.6643 Y58.0363
G01 X24.7400 Y58.0817
G01 X24.8110 Y58.1343
G01 X24.8764 Y58.1936
G01 X24.9357 Y58.2590
G01 X24.9883 Y58.3300
G01 X25.0337 Y58.4057
G01 X25.0715 Y58.4856
G01 X25.1012 Y58.5687
G01 X25.1227 Y58.6544
G01 X25.1357 Y58.7418
G01 X25.1400 Y58.8300
G01 X25.1357 Y58.9182
G01 X25.1227 Y59.0056
G01 X25.1012 Y59.0913
G01 X25.0715 Y59.1744
G01 X25.0337 Y59.2543
G01 X24.9883 Y59.3300
G01 X24.9357 Y59.4010
G01 X24.8764 Y59.4664
G01 X24.8110 Y59.5257
G01 X24.7400 Y59.5783
G01 X24.6643 Y59.6237
G01 X24.5844 Y59.6615
G01 X24.5013 Y59.6912
G01 X24.4156 Y59.7127
G01 X24.3282 Y59.7257
G01 X24.2400 Y59.7300
G01 X24.1518 Y59.7257
G01 X24.0644 Y59.7127
G01 X23.9787 Y59.6912
G01 X23.8956 Y59.6615
G01 X23.8157 Y59.6237
G01 X23.7400 Y59.5783
G01 X23.6690 Y59.5257
G01 X23.6036 Y59.4664
G01 X23.5443 Y59.4010
G01 X23.4917 Y59.3300
G01 X23.4463 Y59.2543
G01 X23.4085 Y59.1744
G01 X23.3788 Y59.0913
G01 X23.3573 Y59.0056
G01 X23.3443 Y58.9182
G01 X23.3400 Y58.8300
G01 X23.3443 Y58.7418
G01 X23.3573 Y58.6544
G01 X23.3788 Y58.5687
G01 X23.4085 Y58.4856
G01 X23.4463 Y58.4057
G01 X23.4917 Y58.3300
G01 X23.5443 Y58.2590
G01 X23.6036 Y58.1936
G01 X23.6690 Y58.1343
G01 X23.7400 Y58.0817
G01 X23.8157 Y58.0363
G00 Z2.0000
G00 X23.8157 Y60.5763
G01 F60.00
G01 Z-0.1000
G01 F120.00
G01 X23.8956 Y60.5385
G01 X23.9787 Y60.5088
G01 X24.0644 Y60.4873
G01 X24.1518 Y60.4743
G01 X24.2400 Y60.4700
G01 X24.3282 Y60.4743
G01 X24.4156 Y60.4873
G01 X24.5013 Y60.5088
G01 X24.5844 Y60.5385
G01 X24.6643 Y60.5763
G01 X24.7400 Y60.6217
G01 X24.8110 Y60.6743
G01 X24.8764 Y60.7336
G01 X24.9357 Y60.7990
G01 X24.9883 Y60.8700
G01 X25.0337 Y60.9457
G01 X25.0715 Y61.0256
G01 X25.1012 Y61.1087
G01 X25.1227 Y61.1944
G01 X25.1357 Y61.2818
G01 X25.1400 Y61.3700
G01 X25.1357 Y61.4582
G01 X25.1227 Y61.5456
G01 X25.1012 Y61.6313
G01 X25.0715 Y61.7144
G01 X25.0337 Y61.7943
G01 X24.9883 Y61.8700
G01 X24.9357 Y61.9410
G01 X24.8764 Y62.0064
G01 X24.8110 Y62.0657
G01 X24.7400 Y62.1183
G01 X24.6643 Y62.1637
G01 X24.5844 Y62.2015
G01 X24.5013 Y62.2312
G01 X24.4156 Y62.2527
G01 X24.3282 Y62.2657
G01 X24.2400 Y62.2700
G01 X24.1518 Y62.2657
G01 X24.0644 Y62.2527
G01 X23.9787 Y62.2312
G01 X23.8956 Y62.2015
G01 X23.8157 Y62.1637
G01 X23.7400 Y62.1183
G01 X23.6690 Y62.0657
G01 X23.6036 Y62.0064
G01 X23.5443 Y61.9410
G01 X23.4917 Y61.8700
G01 X23.4463 Y61.7943
G01 X23.4085 Y61.7144
G01 X23.3788 Y61.6313
G01 X23.3573 Y61.5456
G01 X23.3443 Y61.4582
G01 X23.3400 Y61.3700
G01 X23.3443 Y61.2818
G01 X23.3573 Y61.1944
G01 X23.3788 Y61.1087
G01 X23.4085 Y61.0256
G01 X23.4463 Y60.9457
G01 X23.4917 Y60.8700
G01 X23.5443 Y60.7990
G01 X23.6036 Y60.7336
G01 X23.6690 Y60.6743
G01 X23.7400 Y60.6217
G01 X23.8157 Y60.5763
G00 Z2.0000
G00 X26.3557 Y60.5763
G01 F60.00
G01 Z-0.1000
G01 F120.00
G01 X26.4356 Y60.5385
G01 X26.5187 Y60.5088
G01 X26.6044 Y60.4873
G01 X26.6918 Y60.4743
G01 X26.7800 Y60.4700
G01 X26.8682 Y60.4743
G01 X26.9556 Y60.4873
G01 X27.0413 Y60.5088
G01 X27.1244 Y60.5385
G01 X27.2043 Y60.5763
G01 X27.2800 Y60.6217
G01 X27.3510 Y60.6743
G01 X27.4164 Y60.7336
G01 X27.4757 Y60.7990
G01 X27.5283 Y60.8700
G01 X27.5737 Y60.9457
G01 X27.6115 Y61.0256
G01 X27.6412 Y61.1087
G01 X27.6627 Y61.1944
G01 X27.6757 Y61.2818
G01 X27.6800 Y61.3700
G01 X27.6757 Y61.4582
G01 X27.6627 Y61.5456
G01 X27.6412 Y61.6313
G01 X27.6115 Y61.7144
G01 X27.5737 Y61.7943
G01 X27.5283 Y61.8700
G01 X27.4757 Y61.9410
G01 X27.4164 Y62.0064
G01 X27.3510 Y62.0657
G01 X27.2800 Y62.1183
G01 X27.2043 Y62.1637
G01 X27.1244 Y62.2015
G01 X27.0413 Y62.2312
G01 X26.9556 Y62.2527
G01 X26.8682 Y62.2657
G01 X26.7800 Y62.2700
G01 X26.6918 Y62.2657
G01 X26.6044 Y62.2527
G01 X26.5187 Y62.2312
G01 X26.4356 Y62.2015
G01 X26.3557 Y62.1637
G01 X26.2800 Y62.1183
G01 X26.2090 Y62.0657
G01 X26.1436 Y62.0064
G01 X26.0843 Y61.9410
G01 X26.0317 Y61.8700
G01 X25.9863 Y61.7943
G01 X25.9485 Y61.7144
G01 X25.9188 Y61.6313
G01 X25.8973 Y61.5456
G01 X25.8843 Y61.4582
G01 X25.8800 Y61.3700
G01 X25.8843 Y61.2818
G01 X25.8973 Y61.1944
G01 X25.9188 Y61.1087
G01 X25.9485 Y61.0256
G01 X25.9863 Y60.9457
G01 X26.0317 Y60.8700
G01 X26.0843 Y60.7990
G01 X26.1436 Y60.7336
G01 X26.2090 Y60.6743
G01 X26.2800 Y60.6217
G01 X26.3557 Y60.5763
G00 Z2.0000
G00 X28.4627 Y60.4705
G01 F60.00
G01 Z-0.1000
G01 F120.00
G01 X28.4700 Y60.4700
G01 X30.1700 Y60.4700
G01 X30.1798 Y60.4710
G01 X30.1891 Y60.4738
G01 X30.1978 Y60.4784
G01 X30.2054 Y60.4846
G01 X30.2116 Y60.4922
G01 X30.2162 Y60.5009
G01 X30.2190 Y60.5102
G01 X30.2200 Y60.5200
G01 X30.2200 Y62.2200
G01 X30.2190 Y62.2298
G01 X30.2162 Y62.2391
G01 X30.2116 Y62.2478
G01 X30.2054 Y62.2554
G01 X30.1978 Y62.2616
G01 X30.1891 Y62.2662
G01 X30.1798 Y62.2690
G01 X30.1700 Y62.2700
G01 X28.4700 Y62.2700
G01 X28.4602 Y62.2690
G01 X28.4509 Y62.2662
G01 X28.4422 Y62.2616
G01 X28.4346 Y62.2554
G01 X28.4284 Y62.2478
G01 X28.4238 Y62.2391
G01 X28.4210 Y62.2298
G01 X28.4200 Y62.2200
G01 X28.4200 Y60.5188
G01 X28.4210 Y60.5102
G01 X28.4234 Y60.5020
G01 X28.4278 Y60.4933
G01 X28.4330 Y60.4864
G01 X28.4392 Y60.4806
G01 X28.4464 Y60.4759
G01 X28.4543 Y60.4725
G01 X28.4627 Y60.4705
G00 Z2.0000
G00 X28.8957 Y58.0363
G01 F60.00
G01 Z-0.1000
G01 F120.00
G01 X28.9756 Y57.9985
G01 X29.0587 Y57.9688
G01 X29.1444 Y57.9473
G01 X29.2318 Y57.9343
G01 X29.3200 Y57.9300
G01 X29.4082 Y57.9343
G01 X29.4956 Y57.9473
G01 X29.5813 Y57.9688
G01 X29.6644 Y57.9985
G01 X29.7443 Y58.0363
G01 X29.8200 Y58.0817
G01 X29.8910 Y58.1343
G01 X29.9564 Y58.1936
G01 X30.0157 Y58.2590
G01 X30.0683 Y58.3300
G01 X30.1137 Y58.4057
G01 X30.1515 Y58.4856
G01 X30.1812 Y58.5687
G01 X30.2027 Y58.6544
G01 X30.2157 Y58.7418
G01 X30.2200 Y58.8300
G01 X30.2157 Y58.9182
G01 X30.2027 Y59.0056
G01 X30.1812 Y59.0913
G01 X30.1515 Y59.1744
G01 X30.1137 Y59.2543
G01 X30.0683 Y59.3300
G01 X30.0157 Y59.4010
G01 X29.9564 Y59.4664
G01 X29.8910 Y59.5257
G01 X29.8200 Y59.5783
G01 X29.7443 Y59.6237
G01 X29.6644 Y59.6615
G01 X29.5813 Y59.6912
G01 X29.4956 Y59.7127
G01 X29.4082 Y59.7257
G01 X29.3200 Y59.7300
G01 X29.2318 Y59.7257
G01 X29.1444 Y59.7127
G01 X29.0587 Y59.6912
G01 X28.9756 Y59.6615
G01 X28.8957 Y59.6237
G01 X28.8200 Y59.5783
G01 X28.7490 Y59.5257
G01 X28.6836 Y59.4664
G01 X28.6243 Y59.4010
G01 X28.5717 Y59.3300
G01 X28.5263 Y59.2543
G01 X28.4885 Y59.1744
G01 X28.4588 Y59.0913
G01 X28.4373 Y59.0056
G01 X28.4243 Y58.9182
G01 X28.4200 Y58.8300
G01 X28.4243 Y58.7418
G01 X28.4373 Y58.6544
G01 X28.4588 Y58.5687
G01 X28.4885 Y58.4856
G01 X28.5263 Y58.4057
G01 X28.5717 Y58.3300
G01 X28.6243 Y58.2590
G01 X28.6836 Y58.1936
G01 X28.7490 Y58.1343
G01 X28.8200 Y58.0817
G01 X28.8957 Y58.0363
G00 Z2.0000
G00 X26.3557 Y58.0363
G01 F60.00
G01 Z-0.1000
G01 F120.00
G01 X26.4356 Y57.9985
G01 X26.5187 Y57.9688
G01 X26.6044 Y57.9473
G01 X26.6918 Y57.9343
G01 X26.7800 Y57.9300
G01 X26.8682 Y57.9343
G01 X26.9556 Y57.9473
G01 X27.0413 Y57.9688
G01 X27.1244 Y57.9985
G01 X27.2043 Y58.0363
G01 X27.2800 Y58.0817
G01 X27.3510 Y58.1343
G01 X27.4164 Y58.1936
G01 X27.4757 Y58.2590
G01 X27.5283 Y58.3300
G01 X27.5737 Y58.4057
G01 X27.6115 Y58.4856
G01 X27.6412 Y58.5687
G01 X27.6627 Y58.6544
G01 X27.6757 Y58.7418
G01 X27.6800 Y58.8300
G01 X27.6757 Y58.9182
G01 X27.6627 Y59.0056
G01 X27.6412 Y59.0913
G01 X27.6115 Y59.1744
G01 X27.5737 Y59.2543
G01 X27.5283 Y59.3300
G01 X27.4757 Y59.4010
G01 X27.4164 Y59.4664
G01 X27.3510 Y59.5257
G01 X27.2800 Y59.5783
G01 X27.2043 Y59.6237
G01 X27.1244 Y59.6615
G01 X27.0413 Y59.6912
G01 X26.9556 Y59.7127
G01 X26.8682 Y59.7257
G01 X26.7800 Y59.7300
G01 X26.6918 Y59.7257
G01 X26.6044 Y59.7127
G01 X26.5187 Y59.6912
G01 X26.4356 Y59.6615
G01 X26.3557 Y59.6237
G01 X26.2800 Y59.5783
G01 X26.2090 Y59.5257
G01 X26.1436 Y59.4664
G01 X26.0843 Y59.4010
G01 X26.0317 Y59.3300
G01 X25.9863 Y59.2543
G01 X25.9485 Y59.1744
G01 X25.9188 Y59.0913
G01 X25.8973 Y59.0056
G01 X25.8843 Y58.9182
G01 X25.8800 Y58.8300
G01 X25.8843 Y58.7418
G01 X25.8973 Y58.6544
G01 X25.9188 Y58.5687
G01 X25.9485 Y58.4856
G01 X25.9863 Y58.4057
G01 X26.0317 Y58.3300
G01 X26.0843 Y58.2590
G01 X26.1436 Y58.1936
G01 X26.2090 Y58.1343
G01 X26.2800 Y58.0817
G01 X26.3557 Y58.0363
G00 Z2.0000
G00 X26.3407 Y64.3913
G01 F60.00
G01 Z-0.1000
G01 F120.00
G01 X26.4206 Y64.3535
G01 X26.5037 Y64.3238
G01 X26.5894 Y64.3023
G01 X26.6768 Y64.2893
G01 X26.7650 Y64.2850
G01 X26.8532 Y64.2893
G01 X26.9406 Y64.3023
G01 X27.0263 Y64.3238
G01 X27.1094 Y64.3535
G01 X27.1893 Y64.3913
G01 X27.2650 Y64.4367
G01 X27.3360 Y64.4893
G01 X27.4014 Y64.5486
G01 X27.4607 Y64.6140
G01 X27.5133 Y64.6850
G01 X27.5587 Y64.7607
G01 X27.5965 Y64.8406
G01 X27.6262 Y64.9237
G01 X27.6477 Y65.0094
G01 X27.6607 Y65.0968
G01 X27.6650 Y65.1850
G01 X27.6607 Y65.2732
G01 X27.6477 Y65.3606
G01 X27.6262 Y65.4463
G01 X27.5965 Y65.5294
G01 X27.5587 Y65.6093
G01 X27.5133 Y65.6850
G01 X27.4607 Y65.7560
G01 X27.4014 Y65.8214
G01 X27.3360 Y65.8807
G01 X27.2650 Y65.9333
G01 X27.1893 Y65.9787
G01 X27.1094 Y66.0165
G01 X27.0263 Y66.0462
G01 X26.9406 Y66.0677
G01 X26.8532 Y66.0807
G01 X26.7650 Y66.0850
G01 X26.6768 Y66.0807
G01 X26.5894 Y66.0677
G01 X26.5037 Y66.0462
G01 X26.4206 Y66.0165
G01 X26.3407 Y65.9787
G01 X26.2650 Y65.9333
G01 X26.1940 Y65.8807
G01 X26.1286 Y65.8214
G01 X26.0693 Y65.7560
G01 X26.0167 Y65.6850
G01 X25.9713 Y65.6093
G01 X25.9335 Y65.5294
G01 X25.9038 Y65.4463
G01 X25.8823 Y65.3606
G01 X25.8693 Y65.2732
G01 X25.8650 Y65.1850
G01 X25.8693 Y65.0968
G01 X25.8823 Y65.0094
G01 X25.9038 Y64.9237
G01 X25.9335 Y64.8406
G01 X25.9713 Y64.7607
G01 X26.0167 Y64.6850
G01 X26.0693 Y64.6140
G01 X26.1286 Y64.5486
G01 X26.1940 Y64.4893
G01 X26.2650 Y64.4367
G01 X26.3407 Y64.3913
G00 Z2.0000
G00 X23.8007 Y64.3913
G01 F60.00
G01 Z-0.1000
G01 F120.00
G01 X23.8806 Y64.3535
G01 X23.9637 Y64.3238
G01 X24.0494 Y64.3023
G01 X24.1368 Y64.2893
G01 X24.2250 Y64.2850
G01 X24.3132 Y64.2893
G01 X24.4006 Y64.3023
G01 X24.4863 Y64.3238
G01 X24.5694 Y64.3535
G01 X24.6493 Y64.3913
G01 X24.7250 Y64.4367
G01 X24.7960 Y64.4893
G01 X24.8614 Y64.5486
G01 X24.9207 Y64.6140
G01 X24.9733 Y64.6850
G01 X25.0187 Y64.7607
G01 X25.0565 Y64.8406
G01 X25.0862 Y64.9237
G01 X25.1077 Y65.0094
G01 X25.1207 Y65.0968
G01 X25.1250 Y65.1850
G01 X25.1207 Y65.2732
G01 X25.1077 Y65.3606
G01 X25.0862 Y65.4463
G01 X25.0565 Y65.5294
G01 X25.0187 Y65.6093
G01 X24.9733 Y65.6850
G01 X24.9207 Y65.7560
G01 X24.8614 Y65.8214
G01 X24.7960 Y65.8807
G01 X24.7250 Y65.9333
G01 X24.6493 Y65.9787
G01 X24.5694 Y66.0165
G01 X24.4863 Y66.0462
G01 X24.4006 Y66.0677
G01 X24.3132 Y66.0807
G01 X24.2250 Y66.0850
G01 X24.1368 Y66.0807
G01 X24.0494 Y66.0677
G01 X23.9637 Y66.0462
G01 X23.8806 Y66.0165
G01 X23.8007 Y65.9787
G01 X23.7250 Y65.9333
G01 X23.6540 Y65.8807
G01 X23.5886 Y65.8214
G01 X23.5293 Y65.7560
G01 X23.4767 Y65.6850
G01 X23.4313 Y65.6093
G01 X23.3935 Y65.5294
G01 X23.3638 Y65.4463
G01 X23.3423 Y65.3606
G01 X23.3293 Y65.2732
G01 X23.3250 Y65.1850
G01 X23.3293 Y65.0968
G01 X23.3423 Y65.0094
G01 X23.3638 Y64.9237
G01 X23.3935 Y64.8406
G01 X23.4313 Y64.7607
G01 X23.4767 Y64.6850
G01 X23.5293 Y64.6140
G01 X23.5886 Y64.5486
G01 X23.6540 Y64.4893
G01 X23.7250 Y64.4367
G01 X23.8007 Y64.3913
G00 Z2.0000
G00 X23.8018 Y66.9307
G01 F60.00
G01 Z-0.1000
G01 F120.00
G01 X23.8806 Y66.8935
G01 X23.9637 Y66.8638
G01 X24.0494 Y66.8423
G01 X24.1368 Y66.8293
G01 X24.2250 Y66.8250
G01 X24.3132 Y66.8293
G01 X24.4006 Y66.8423
G01 X24.4863 Y66.8638
G01 X24.5694 Y66.8935
G01 X24.6493 Y66.9313
G01 X24.7250 Y66.9767
G01 X24.7960 Y67.0293
G01 X24.8614 Y67.0886
G01 X24.9207 Y67.1540
G01 X24.9733 Y67.2250
G01 X25.0187 Y67.3007
G01 X25.0565 Y67.3806
G01 X25.0862 Y67.4637
G01 X25.1077 Y67.5494
G01 X25.1207 Y67.6368
G01 X25.1250 Y67.7250
G01 X25.1207 Y67.8132
G01 X25.1077 Y67.9006
G01 X25.0862 Y67.9863
G01 X25.0565 Y68.0694
G01 X25.0187 Y68.1493
G01 X24.9733 Y68.2250
G01 X24.9207 Y68.2960
G01 X24.8614 Y68.3614
G01 X24.7960 Y68.4207
G01 X24.7250 Y68.4733
G01 X24.6493 Y68.5187
G01 X24.5694 Y68.5565
G01 X24.4863 Y68.5862
G01 X24.4006 Y68.6077
G01 X24.3132 Y68.6207
G01 X24.2250 Y68.6250
G01 X24.1368 Y68.6207
G01 X24.0494 Y68.6077
G01 X23.9637 Y68.5862
G01 X23.8806 Y68.5565
G01 X23.8007 Y68.5187
G01 X23.7250 Y68.4733
G01 X23.6540 Y68.4207
G01 X23.5886 Y68.3614
G01 X23.5293 Y68.2960
G01 X23.4767 Y68.2250
G01 X23.4313 Y68.1493
G01 X23.3935 Y68.0694
G01 X23.3638 Y67.9863
G01 X23.3423 Y67.9006
G01 X23.3293 Y67.8132
G01 X23.3250 Y67.7250
G01 X23.3293 Y67.6368
G01 X23.3423 Y67.5494
G01 X23.3638 Y67.4637
G01 X23.3935 Y67.3806
G01 X23.4313 Y67.3007
G01 X23.4767 Y67.2250
G01 X23.5293 Y67.1540
G01 X23.5886 Y67.0886
G01 X23.6540 Y67.0293
G01 X23.7250 Y66.9767
G01 X23.8018 Y66.9307
G00 Z2.0000
G00 X26.3407 Y66.9313
G01 F60.00
G01 Z-0.1000
G01 F120.00
G01 X26.4206 Y66.8935
G01 X26.5037 Y66.8638
G01 X26.5894 Y66.8423
G01 X26.6768 Y66.8293
G01 X26.7650 Y66.8250
G01 X26.8532 Y66.8293
G01 X26.9406 Y66.8423
G01 X27.0263 Y66.8638
G01 X27.1094 Y66.8935
G01 X27.1893 Y66.9313
G01 X27.2650 Y66.9767
G01 X27.3360 Y67.0293
G01 X27.4014 Y67.0886
G01 X27.4607 Y67.1540
G01 X27.5133 Y67.2250
G01 X27.5587 Y67.3007
G01 X27.5965 Y67.3806
G01 X27.6262 Y67.4637
G01 X27.6477 Y67.5494
G01 X27.6607 Y67.6368
G01 X27.6650 Y67.7250
G01 X27.6607 Y67.8132
G01 X27.6477 Y67.9006
G01 X27.6262 Y67.9863
G01 X27.5965 Y68.0694
G01 X27.5587 Y68.1493
G01 X27.5133 Y68.2250
G01 X27.4607 Y68.2960
G01 X27.4014 Y68.3614
G01 X27.3360 Y68.4207
G01 X27.2650 Y68.4733
G01 X27.1893 Y68.5187
G01 X27.1094 Y68.5565
G01 X27.0263 Y68.5862
G01 X26.9406 Y68.6077
G01 X26.8532 Y68.6207
G01 X26.7650 Y68.6250
G01 X26.6768 Y68.6207
G01 X26.5894 Y68.6077
G01 X26.5037 Y68.5862
G01 X26.4206 Y68.5565
G01 X26.3407 Y68.5187
G01 X26.2650 Y68.4733
G01 X26.1940 Y68.4207
G01 X26.1286 Y68.3614
G01 X26.0693 Y68.2960
G01 X26.0167 Y68.2250
G01 X25.9713 Y68.1493
G01 X25.9335 Y68.0694
G01 X25.9038 Y67.9863
G01 X25.8823 Y67.9006
G01 X25.8693 Y67.8132
G01 X25.8650 Y67.7250
G01 X25.8693 Y67.6368
G01 X25.8823 Y67.5494
G01 X25.9038 Y67.4637
G01 X25.9335 Y67.3806
G01 X25.9713 Y67.3007
G01 X26.0167 Y67.2250
G01 X26.0693 Y67.1540
G01 X26.1286 Y67.0886
G01 X26.1940 Y67.0293
G01 X26.2650 Y66.9767
G01 X26.3407 Y66.9313
G00 Z2.0000
G00 X28.4465 Y66.8257
G01 F60.00
G01 Z-0.1000
G01 F120.00
G01 X28.4550 Y66.8250
G01 X30.1550 Y66.8250
G01 X30.1648 Y66.8260
G01 X30.1741 Y66.8288
G01 X30.1828 Y66.8334
G01 X30.1904 Y66.8396
G01 X30.1966 Y66.8472
G01 X30.2012 Y66.8559
G01 X30.2040 Y66.8652
G01 X30.2050 Y66.8750
G01 X30.2050 Y68.5750
G01 X30.2040 Y68.5848
G01 X30.2012 Y68.5941
G01 X30.1966 Y68.6028
G01 X30.1904 Y68.6104
G01 X30.1828 Y68.6166
G01 X30.1741 Y68.6212
G01 X30.1648 Y68.6240
G01 X30.1550 Y68.6250
G01 X28.4550 Y68.6250
G01 X28.4452 Y68.6240
G01 X28.4359 Y68.6212
G01 X28.4272 Y68.6166
G01 X28.4196 Y68.6104
G01 X28.4134 Y68.6028
G01 X28.4088 Y68.5941
G01 X28.4060 Y68.5848
G01 X28.4050 Y68.5750
G01 X28.4050 Y66.8738
G01 X28.4060 Y66.8652
G01 X28.4084 Y66.8570
G01 X28.4121 Y66.8493
G01 X28.4171 Y66.8423
G01 X28.4233 Y66.8363
G01 X28.4304 Y66.8315
G01 X28.4382 Y66.8279
G01 X28.4465 Y66.8257
G00 Z2.0000
G00 X28.8807 Y64.3913
G01 F60.00
G01 Z-0.1000
G01 F120.00
G01 X28.9606 Y64.3535
G01 X29.0437 Y64.3238
G01 X29.1294 Y64.3023
G01 X29.2168 Y64.2893
G01 X29.3050 Y64.2850
G01 X29.3932 Y64.2893
G01 X29.4806 Y64.3023
G01 X29.5663 Y64.3238
G01 X29.6494 Y64.3535
G01 X29.7293 Y64.3913
G01 X29.8050 Y64.4367
G01 X29.8760 Y64.4893
G01 X29.9414 Y64.5486
G01 X30.0007 Y64.6140
G01 X30.0533 Y64.6850
G01 X30.0987 Y64.7607
G01 X30.1365 Y64.8406
G01 X30.1662 Y64.9237
G01 X30.1877 Y65.0094
G01 X30.2007 Y65.0968
G01 X30.2050 Y65.1850
G01 X30.2007 Y65.2732
G01 X30.1877 Y65.3606
G01 X30.1662 Y65.4463
G01 X30.1365 Y65.5294
G01 X30.0987 Y65.6093
G01 X30.0533 Y65.6850
G01 X30.0007 Y65.7560
G01 X29.9414 Y65.8214
G01 X29.8760 Y65.8807
G01 X29.8050 Y65.9333
G01 X29.7293 Y65.9787
G01 X29.6494 Y66.0165
G01 X29.5663 Y66.0462
G01 X29.4806 Y66.0677
G01 X29.3932 Y66.0807
G01 X29.3050 Y66.0850
G01 X29.2168 Y66.0807
G01 X29.1294 Y66.0677
G01 X29.0437 Y66.0462
G01 X28.9606 Y66.0165
G01 X28.8807 Y65.9787
G01 X28.8050 Y65.9333
G01 X28.7340 Y65.8807
G01 X28.6686 Y65.8214
G01 X28.6093 Y65.7560
G01 X28.5567 Y65.6850
G01 X28.5113 Y65.6093
G01 X28.4735 Y65.5294
G01 X28.4438 Y65.4463
G01 X28.4223 Y65.3606
G01 X28.4093 Y65.2732
G01 X28.4050 Y65.1850
G01 X28.4093 Y65.0968
G01 X28.4223 Y65.0094
G01 X28.4438 Y64.9237
G01 X28.4735 Y64.8406
G01 X28.5113 Y64.7607
G01 X28.5567 Y64.6850
G01 X28.6093 Y64.6140
G01 X28.6686 Y64.5486
G01 X28.7340 Y64.4893
G01 X28.8050 Y64.4367
G01 X28.8807 Y64.3913
G00 Z2.0000
G00 X31.4368 Y73.2757
G01 F60.00
G01 Z-0.1000
G01 F120.00
G01 X31.5156 Y73.2385
G01 X31.5987 Y73.2088
G01 X31.6844 Y73.1873
G01 X31.7718 Y73.1743
G01 X31.8600 Y73.1700
G01 X31.9482 Y73.1743
G01 X32.0356 Y73.1873
G01 X32.1213 Y73.2088
G01 X32.2044 Y73.2385
G01 X32.2843 Y73.2763
G01 X32.3600 Y73.3217
G01 X32.4310 Y73.3743
G01 X32.4964 Y73.4336
G01 X32.5557 Y73.4990
G01 X32.6083 Y73.5700
G01 X32.6537 Y73.6457
G01 X32.6915 Y73.7256
G01 X32.7212 Y73.8087
G01 X32.7427 Y73.8944
G01 X32.7557 Y73.9818
G01 X32.7600 Y74.0700
G01 X32.7557 Y74.1582
G01 X32.7427 Y74.2456
G01 X32.7212 Y74.3313
G01 X32.6915 Y74.4144
G01 X32.6537 Y74.4943
G01 X32.6083 Y74.5700
G01 X32.5557 Y74.6410
G01 X32.4964 Y74.7064
G01 X32.4310 Y74.7657
G01 X32.3600 Y74.8183
G01 X32.2843 Y74.8637
G01 X32.2044 Y74.9015
G01 X32.1213 Y74.9312
G01 X32.0356 Y74.9527
G01 X31.9482 Y74.9657
G01 X31.8600 Y74.9700
G01 X31.7718 Y74.9657
G01 X31.6844 Y74.9527
G01 X31.5987 Y74.9312
G01 X31.5156 Y74.9015
G01 X31.4357 Y74.8637
G01 X31.3600 Y74.8183
G01 X31.2890 Y74.7657
G01 X31.2236 Y74.7064
G01 X31.1643 Y74.6410
G01 X31.1117 Y74.5700
G01 X31.0663 Y74.4943
G01 X31.0285 Y74.4144
G01 X30.9988 Y74.3313
G01 X30.9773 Y74.2456
G01 X30.9643 Y74.1582
G01 X30.9600 Y74.0700
G01 X30.9643 Y73.9818
G01 X30.9773 Y73.8944
G01 X30.9988 Y73.8087
G01 X31.0285 Y73.7256
G01 X31.0663 Y73.6457
G01 X31.1117 Y73.5700
G01 X31.1643 Y73.4990
G01 X31.2236 Y73.4336
G01 X31.2890 Y73.3743
G01 X31.3600 Y73.3217
G01 X31.4368 Y73.2757
G00 Z2.0000
G00 X33.5415 Y73.1707
G01 F60.00
G01 Z-0.1000
G01 F120.00
G01 X33.5500 Y73.1700
G01 X35.2500 Y73.1700
G01 X35.2598 Y73.1710
G01 X35.2691 Y73.1738
G01 X35.2778 Y73.1784
G01 X35.2854 Y73.1846
G01 X35.2916 Y73.1922
G01 X35.2962 Y73.2009
G01 X35.2990 Y73.2102
G01 X35.3000 Y73.2200
G01 X35.3000 Y74.9200
G01 X35.2990 Y74.9298
G01 X35.2962 Y74.9391
G01 X35.2916 Y74.9478
G01 X35.2854 Y74.9554
G01 X35.2778 Y74.9616
G01 X35.2691 Y74.9662
G01 X35.2598 Y74.9690
G01 X35.2500 Y74.9700
G01 X33.5500 Y74.9700
G01 X33.5402 Y74.9690
G01 X33.5309 Y74.9662
G01 X33.5222 Y74.9616
G01 X33.5146 Y74.9554
G01 X33.5084 Y74.9478
G01 X33.5038 Y74.9391
G01 X33.5010 Y74.9298
G01 X33.5000 Y74.9200
G01 X33.5000 Y73.2188
G01 X33.5010 Y73.2102
G01 X33.5034 Y73.2020
G01 X33.5071 Y73.1943
G01 X33.5121 Y73.1873
G01 X33.5183 Y73.1813
G01 X33.5254 Y73.1765
G01 X33.5332 Y73.1729
G01 X33.5415 Y73.1707
G00 Z2.0000
G00 X39.9415 Y70.6807
G01 F60.00
G01 Z-0.1000
G01 F120.00
G01 X39.9500 Y70.6800
G01 X41.5500 Y70.6800
G01 X41.5598 Y70.6810
G01 X41.5691 Y70.6838
G01 X41.5778 Y70.6884
G01 X41.5817 Y70.6913
G01 X41.5862 Y70.6955
G01 X41.5922 Y70.7033
G01 X41.5966 Y70.7120
G01 X41.5993 Y70.7215
G01 X41.6000 Y70.7300
G01 X41.6000 Y72.3300
G01 X41.5998 Y72.3349
G01 X41.5988 Y72.3410
G01 X41.5957 Y72.3503
G01 X41.5909 Y72.3588
G01 X41.5845 Y72.3662
G01 X41.5767 Y72.3722
G01 X41.5691 Y72.3762
G01 X41.5598 Y72.3790
G01 X41.5500 Y72.3800
G01 X39.9500 Y72.3800
G01 X39.9402 Y72.3790
G01 X39.9309 Y72.3762
G01 X39.9254 Y72.3735
G01 X39.9212 Y72.3709
G01 X39.9138 Y72.3645
G01 X39.9084 Y72.3578
G01 X39.9038 Y72.3491
G01 X39.9010 Y72.3398
G01 X39.9000 Y72.3300
G01 X39.9000 Y70.7288
G01 X39.9010 Y70.7202
G01 X39.9034 Y70.7120
G01 X39.9071 Y70.7043
G01 X39.9121 Y70.6973
G01 X39.9183 Y70.6913
G01 X39.9254 Y70.6865
G01 X39.9332 Y70.6829
G01 X39.9415 Y70.6807
G00 Z2.0000
G00 X40.3493 Y68.2404
G01 F60.00
G01 Z-0.1000
G01 F120.00
G01 X40.4247 Y68.2047
G01 X40.5033 Y68.1766
G01 X40.5842 Y68.1563
G01 X40.6667 Y68.1441
G01 X40.7500 Y68.1400
G01 X40.8333 Y68.1441
G01 X40.9158 Y68.1563
G01 X40.9967 Y68.1766
G01 X41.0753 Y68.2047
G01 X41.1507 Y68.2404
G01 X41.2222 Y68.2833
G01 X41.2892 Y68.3329
G01 X41.3510 Y68.3890
G01 X41.4071 Y68.4508
G01 X41.4567 Y68.5178
G01 X41.4996 Y68.5893
G01 X41.5353 Y68.6647
G01 X41.5634 Y68.7433
G01 X41.5837 Y68.8242
G01 X41.5959 Y68.9067
G01 X41.6000 Y68.9900
G01 X41.5959 Y69.0733
G01 X41.5837 Y69.1558
G01 X41.5634 Y69.2367
G01 X41.5353 Y69.3153
G01 X41.4996 Y69.3907
G01 X41.4567 Y69.4622
G01 X41.4071 Y69.5292
G01 X41.3510 Y69.5910
G01 X41.2892 Y69.6471
G01 X41.2222 Y69.6967
G01 X41.1507 Y69.7396
G01 X41.0753 Y69.7753
G01 X40.9967 Y69.8034
G01 X40.9158 Y69.8237
G01 X40.8333 Y69.8359
G01 X40.7500 Y69.8400
G01 X40.6667 Y69.8359
G01 X40.5842 Y69.8237
G01 X40.5033 Y69.8034
G01 X40.4247 Y69.7753
G01 X40.3493 Y69.7396
G01 X40.2778 Y69.6967
G01 X40.2108 Y69.6471
G01 X40.1490 Y69.5910
G01 X40.0929 Y69.5292
G01 X40.0433 Y69.4622
G01 X40.0004 Y69.3907
G01 X39.9647 Y69.3153
G01 X39.9366 Y69.2367
G01 X39.9163 Y69.1558
G01 X39.9041 Y69.0733
G01 X39.9000 Y68.9900
G01 X39.9041 Y68.9067
G01 X39.9163 Y68.8242
G01 X39.9366 Y68.7433
G01 X39.9647 Y68.6647
G01 X40.0004 Y68.5893
G01 X40.0433 Y68.5178
G01 X40.0929 Y68.4508
G01 X40.1490 Y68.3890
G01 X40.2108 Y68.3329
G01 X40.2778 Y68.2833
G01 X40.3493 Y68.2404
G00 Z2.0000
G00 X40.3493 Y65.7004
G01 F60.00
G01 Z-0.1000
G01 F120.00
G01 X40.4247 Y65.6647
G01 X40.5033 Y65.6366
G01 X40.5842 Y65.6163
G01 X40.6667 Y65.6041
G01 X40.7500 Y65.6000
G01 X40.8333 Y65.6041
G01 X40.9158 Y65.6163
G01 X40.9967 Y65.6366
G01 X41.0753 Y65.6647
G01 X41.1507 Y65.7004
G01 X41.2222 Y65.7433
G01 X41.2892 Y65.7929
G01 X41.3510 Y65.8490
G01 X41.4071 Y65.9108
G01 X41.4567 Y65.9778
G01 X41.4996 Y66.0493
G01 X41.5353 Y66.1247
G01 X41.5634 Y66.2033
G01 X41.5837 Y66.2842
G01 X41.5959 Y66.3667
G01 X41.6000 Y66.4500
G01 X41.5959 Y66.5333
G01 X41.5837 Y66.6158
G01 X41.5634 Y66.6967
G01 X41.5353 Y66.7753
G01 X41.4996 Y66.8507
G01 X41.4567 Y66.9222
G01 X41.4071 Y66.9892
G01 X41.3510 Y67.0510
G01 X41.2892 Y67.1071
G01 X41.2222 Y67.1567
G01 X41.1507 Y67.1996
G01 X41.0753 Y67.2353
G01 X40.9967 Y67.2634
G01 X40.9158 Y67.2837
G01 X40.8333 Y67.2959
G01 X40.7500 Y67.3000
G01 X40.6667 Y67.2959
G01 X40.5842 Y67.2837
G01 X40.5033 Y67.2634
G01 X40.4247 Y67.2353
G01 X40.3493 Y67.1996
G01 X40.2778 Y67.1567
G01 X40.2108 Y67.1071
G01 X40.1490 Y67.0510
G01 X40.0929 Y66.9892
G01 X40.0433 Y66.9222
G01 X40.0004 Y66.8507
G01 X39.9647 Y66.7753
G01 X39.9366 Y66.6967
G01 X39.9163 Y66.6158
G01 X39.9041 Y66.5333
G01 X39.9000 Y66.4500
G01 X39.9041 Y66.3667
G01 X39.9163 Y66.2842
G01 X39.9366 Y66.2033
G01 X39.9647 Y66.1247
G01 X40.0004 Y66.0493
G01 X40.0433 Y65.9778
G01 X40.0929 Y65.9108
G01 X40.1490 Y65.8490
G01 X40.2108 Y65.7929
G01 X40.2778 Y65.7433
G01 X40.3493 Y65.7004
G00 Z2.0000
G00 X40.3493 Y63.1604
G01 F60.00
G01 Z-0.1000
G01 F120.00
G01 X40.4247 Y63.1247
G01 X40.5033 Y63.0966
G01 X40.5842 Y63.0763
G01 X40.6667 Y63.0641
G01 X40.7500 Y63.0600
G01 X40.8333 Y63.0641
G01 X40.9158 Y63.0763
G01 X40.9967 Y63.0966
G01 X41.0753 Y63.1247
G01 X41.1507 Y63.1604
G01 X41.2222 Y63.2033
G01 X41.2892 Y63.2529
G01 X41.3510 Y63.3090
G01 X41.4071 Y63.3708
G01 X41.4567 Y63.4378
G01 X41.4996 Y63.5093
G01 X41.5353 Y63.5847
G01 X41.5634 Y63.6633
G01 X41.5837 Y63.7442
G01 X41.5959 Y63.8267
G01 X41.6000 Y63.9100
G01 X41.5959 Y63.9933
G01 X41.5837 Y64.0758
G01 X41.5634 Y64.1567
G01 X41.5353 Y64.2353
G01 X41.4996 Y64.3107
G01 X41.4567 Y64.3822
G01 X41.4071 Y64.4492
G01 X41.3510 Y64.5110
G01 X41.2892 Y64.5671
G01 X41.2222 Y64.6167
G01 X41.1507 Y64.6596
G01 X41.0753 Y64.6953
G01 X40.9967 Y64.7234
G01 X40.9158 Y64.7437
G01 X40.8333 Y64.7559
G01 X40.7500 Y64.7600
G01 X40.6667 Y64.7559
G01 X40.5842 Y64.7437
G01 X40.5033 Y64.7234
G01 X40.4247 Y64.6953
G01 X40.3493 Y64.6596
G01 X40.2778 Y64.6167
G01 X40.2108 Y64.5671
G01 X40.1490 Y64.5110
G01 X40.0929 Y64.4492
G01 X40.0433 Y64.3822
G01 X40.0004 Y64.3107
G01 X39.9647 Y64.2353
G01 X39.9366 Y64.1567
G01 X39.9163 Y64.0758
G01 X39.9041 Y63.9933
G01 X39.9000 Y63.9100
G01 X39.9041 Y63.8267
G01 X39.9163 Y63.7442
G01 X39.9366 Y63.6633
G01 X39.9647 Y63.5847
G01 X40.0004 Y63.5093
G01 X40.0433 Y63.4378
G01 X40.0929 Y63.3708
G01 X40.1490 Y63.3090
G01 X40.2108 Y63.2529
G01 X40.2778 Y63.2033
G01 X40.3493 Y63.1604
G00 Z2.0000
G00 X40.3493 Y60.6204
G01 F60.00
G01 Z-0.1000
G01 F120.00
G01 X40.4247 Y60.5847
G01 X40.5033 Y60.5566
G01 X40.5842 Y60.5363
G01 X40.6667 Y60.5241
G01 X40.7500 Y60.5200
G01 X40.8333 Y60.5241
G01 X40.9158 Y60.5363
G01 X40.9967 Y60.5566
G01 X41.0753 Y60.5847
G01 X41.1507 Y60.6204
G01 X41.2222 Y60.6633
G01 X41.2892 Y60.7129
G01 X41.3510 Y60.7690
G01 X41.4071 Y60.8308
G01 X41.4567 Y60.8978
G01 X41.4996 Y60.9693
G01 X41.5353 Y61.0447
G01 X41.5634 Y61.1233
G01 X41.5837 Y61.2042
G01 X41.5959 Y61.2867
G01 X41.6000 Y61.3700
G01 X41.5959 Y61.4533
G01 X41.5837 Y61.5358
G01 X41.5634 Y61.6167
G01 X41.5353 Y61.6953
G01 X41.4996 Y61.7707
G01 X41.4567 Y61.8422
G01 X41.4071 Y61.9092
G01 X41.3510 Y61.9710
G01 X41.2892 Y62.0271
G01 X41.2222 Y62.0767
G01 X41.1507 Y62.1196
G01 X41.0753 Y62.1553
G01 X40.9967 Y62.1834
G01 X40.9158 Y62.2037
G01 X40.8333 Y62.2159
G01 X40.7500 Y62.2200
G01 X40.6667 Y62.2159
G01 X40.5842 Y62.2037
G01 X40.5033 Y62.1834
G01 X40.4247 Y62.1553
G01 X40.3493 Y62.1196
G01 X40.2778 Y62.0767
G01 X40.2108 Y62.0271
G01 X40.1490 Y61.9710
G01 X40.0929 Y61.9092
G01 X40.0433 Y61.8422
G01 X40.0004 Y61.7707
G01 X39.9647 Y61.6953
G01 X39.9366 Y61.6167
G01 X39.9163 Y61.5358
G01 X39.9041 Y61.4533
G01 X39.9000 Y61.3700
G01 X39.9041 Y61.2867
G01 X39.9163 Y61.2042
G01 X39.9366 Y61.1233
G01 X39.9647 Y61.0447
G01 X40.0004 Y60.9693
G01 X40.0433 Y60.8978
G01 X40.0929 Y60.8308
G01 X40.1490 Y60.7690
G01 X40.2108 Y60.7129
G01 X40.2778 Y60.6633
G01 X40.3493 Y60.6204
G00 Z2.0000
G00 X40.3504 Y58.0798
G01 F60.00
G01 Z-0.1000
G01 F120.00
G01 X40.4247 Y58.0447
G01 X40.5033 Y58.0166
G01 X40.5842 Y57.9963
G01 X40.6667 Y57.9841
G01 X40.7500 Y57.9800
G01 X40.8333 Y57.9841
G01 X40.9158 Y57.9963
G01 X40.9967 Y58.0166
G01 X41.0753 Y58.0447
G01 X41.1507 Y58.0804
G01 X41.2222 Y58.1233
G01 X41.2892 Y58.1729
G01 X41.3510 Y58.2290
G01 X41.4071 Y58.2908
G01 X41.4567 Y58.3578
G01 X41.4996 Y58.4293
G01 X41.5353 Y58.5047
G01 X41.5634 Y58.5833
G01 X41.5837 Y58.6642
G01 X41.5959 Y58.7467
G01 X41.6000 Y58.8300
G01 X41.5959 Y58.9133
G01 X41.5837 Y58.9958
G01 X41.5634 Y59.0767
G01 X41.5353 Y59.1553
G01 X41.4996 Y59.2307
G01 X41.4567 Y59.3022
G01 X41.4071 Y59.3692
G01 X41.3510 Y59.4310
G01 X41.2892 Y59.4871
G01 X41.2222 Y59.5367
G01 X41.1507 Y59.5796
G01 X41.0753 Y59.6153
G01 X40.9967 Y59.6434
G01 X40.9158 Y59.6637
G01 X40.8333 Y59.6759
G01 X40.7500 Y59.6800
G01 X40.6667 Y59.6759
G01 X40.5842 Y59.6637
G01 X40.5033 Y59.6434
G01 X40.4247 Y59.6153
G01 X40.3493 Y59.5796
G01 X40.2778 Y59.5367
G01 X40.2108 Y59.4871
G01 X40.1490 Y59.4310
G01 X40.0929 Y59.3692
G01 X40.0433 Y59.3022
G01 X40.0004 Y59.2307
G01 X39.9647 Y59.1553
G01 X39.9366 Y59.0767
G01 X39.9163 Y58.9958
G01 X39.9041 Y58.9133
G01 X39.9000 Y58.8300
G01 X39.9041 Y58.7467
G01 X39.9163 Y58.6642
G01 X39.9366 Y58.5833
G01 X39.9647 Y58.5047
G01 X40.0004 Y58.4293
G01 X40.0433 Y58.3578
G01 X40.0929 Y58.2908
G01 X40.1490 Y58.2290
G01 X40.2108 Y58.1729
G01 X40.2778 Y58.1233
G01 X40.3504 Y58.0798
G00 Z2.0000
G00 X40.3493 Y55.5404
G01 F60.00
G01 Z-0.1000
G01 F120.00
G01 X40.4247 Y55.5047
G01 X40.5033 Y55.4766
G01 X40.5842 Y55.4563
G01 X40.6667 Y55.4441
G01 X40.7500 Y55.4400
G01 X40.8333 Y55.4441
G01 X40.9158 Y55.4563
G01 X40.9967 Y55.4766
G01 X41.0753 Y55.5047
G01 X41.1507 Y55.5404
G01 X41.2222 Y55.5833
G01 X41.2892 Y55.6329
G01 X41.3510 Y55.6890
G01 X41.4071 Y55.7508
G01 X41.4567 Y55.8178
G01 X41.4996 Y55.8893
G01 X41.5353 Y55.9647
G01 X41.5634 Y56.0433
G01 X41.5837 Y56.1242
G01 X41.5959 Y56.2067
G01 X41.6000 Y56.2900
G01 X41.5959 Y56.3733
G01 X41.5837 Y56.4558
G01 X41.5634 Y56.5367
G01 X41.5353 Y56.6153
G01 X41.4996 Y56.6907
G01 X41.4567 Y56.7622
G01 X41.4071 Y56.8292
G01 X41.3510 Y56.8910
G01 X41.2892 Y56.9471
G01 X41.2222 Y56.9967
G01 X41.1507 Y57.0396
G01 X41.0753 Y57.0753
G01 X40.9967 Y57.1034
G01 X40.9158 Y57.1237
G01 X40.8333 Y57.1359
G01 X40.7500 Y57.1400
G01 X40.6667 Y57.1359
G01 X40.5842 Y57.1237
G01 X40.5033 Y57.1034
G01 X40.4247 Y57.0753
G01 X40.3493 Y57.0396
G01 X40.2778 Y56.9967
G01 X40.2108 Y56.9471
G01 X40.1490 Y56.8910
G01 X40.0929 Y56.8292
G01 X40.0433 Y56.7622
G01 X40.0004 Y56.6907
G01 X39.9647 Y56.6153
G01 X39.9366 Y56.5367
G01 X39.9163 Y56.4558
G01 X39.9041 Y56.3733
G01 X39.9000 Y56.2900
G01 X39.9041 Y56.2067
G01 X39.9163 Y56.1242
G01 X39.9366 Y56.0433
G01 X39.9647 Y55.9647
G01 X40.0004 Y55.8893
G01 X40.0433 Y55.8178
G01 X40.0929 Y55.7508
G01 X40.1490 Y55.6890
G01 X40.2108 Y55.6329
G01 X40.2778 Y55.5833
G01 X40.3493 Y55.5404
G00 Z2.0000
G00 X40.3493 Y53.0004
G01 F60.00
G01 Z-0.1000
G01 F120.00
G01 X40.4247 Y52.9647
G01 X40.5033 Y52.9366
G01 X40.5842 Y52.9163
G01 X40.6667 Y52.9041
G01 X40.7500 Y52.9000
G01 X40.8333 Y52.9041
G01 X40.9158 Y52.9163
G01 X40.9967 Y52.9366
G01 X41.0753 Y52.9647
G01 X41.1507 Y53.0004
G01 X41.2222 Y53.0433
G01 X41.2892 Y53.0929
G01 X41.3510 Y53.1490
G01 X41.4071 Y53.2108
G01 X41.4567 Y53.2778
G01 X41.4996 Y53.3493
G01 X41.5353 Y53.4247
G01 X41.5634 Y53.5033
G01 X41.5837 Y53.5842
G01 X41.5959 Y53.6667
G01 X41.6000 Y53.7500
G01 X41.5959 Y53.8333
G01 X41.5837 Y53.9158
G01 X41.5634 Y53.9967
G01 X41.5353 Y54.0753
G01 X41.4996 Y54.1507
G01 X41.4567 Y54.2222
G01 X41.4071 Y54.2892
G01 X41.3510 Y54.3510
G01 X41.2892 Y54.4071
G01 X41.2222 Y54.4567
G01 X41.1507 Y54.4996
G01 X41.0753 Y54.5353
G01 X40.9967 Y54.5634
G01 X40.9158 Y54.5837
G01 X40.8333 Y54.5959
G01 X40.7500 Y54.6000
G01 X40.6667 Y54.5959
G01 X40.5842 Y54.5837
G01 X40.5033 Y54.5634
G01 X40.4247 Y54.5353
G01 X40.3493 Y54.4996
G01 X40.2778 Y54.4567
G01 X40.2108 Y54.4071
G01 X40.1490 Y54.3510
G01 X40.0929 Y54.2892
G01 X40.0433 Y54.2222
G01 X40.0004 Y54.1507
G01 X39.9647 Y54.0753
G01 X39.9366 Y53.9967
G01 X39.9163 Y53.9158
G01 X39.9041 Y53.8333
G01 X39.9000 Y53.7500
G01 X39.9041 Y53.6667
G01 X39.9163 Y53.5842
G01 X39.9366 Y53.5033
G01 X39.9647 Y53.4247
G01 X40.0004 Y53.3493
G01 X40.0433 Y53.2778
G01 X40.0929 Y53.2108
G01 X40.1490 Y53.1490
G01 X40.2108 Y53.0929
G01 X40.2778 Y53.0433
G01 X40.3493 Y53.0004
G00 Z2.0000
G00 X40.3493 Y50.4604
G01 F60.00
G01 Z-0.1000
G01 F120.00
G01 X40.4247 Y50.4247
G01 X40.5033 Y50.3966
G01 X40.5842 Y50.3763
G01 X40.6667 Y50.3641
G01 X40.7500 Y50.3600
G01 X40.8333 Y50.3641
G01 X40.9158 Y50.3763
G01 X40.9967 Y50.3966
G01 X41.0753 Y50.4247
G01 X41.1507 Y50.4604
G01 X41.2222 Y50.5033
G01 X41.2892 Y50.5529
G01 X41.3510 Y50.6090
G01 X41.4071 Y50.6708
G01 X41.4567 Y50.7378
G01 X41.4996 Y50.8093
G01 X41.5353 Y50.8847
G01 X41.5634 Y50.9633
G01 X41.5837 Y51.0442
G01 X41.5959 Y51.1267
G01 X41.6000 Y51.2100
G01 X41.5959 Y51.2933
G01 X41.5837 Y51.3758
G01 X41.5634 Y51.4567
G01 X41.5353 Y51.5353
G01 X41.4996 Y51.6107
G01 X41.4567 Y51.6822
G01 X41.4071 Y51.7492
G01 X41.3510 Y51.8110
G01 X41.2892 Y51.8671
G01 X41.2222 Y51.9167
G01 X41.1507 Y51.9596
G01 X41.0753 Y51.9953
G01 X40.9967 Y52.0234
G01 X40.9158 Y52.0437
G01 X40.8333 Y52.0559
G01 X40.7500 Y52.0600
G01 X40.6667 Y52.0559
G01 X40.5842 Y52.0437
G01 X40.5033 Y52.0234
G01 X40.4247 Y51.9953
G01 X40.3493 Y51.9596
G01 X40.2778 Y51.9167
G01 X40.2108 Y51.8671
G01 X40.1490 Y51.8110
G01 X40.0929 Y51.7492
G01 X40.0433 Y51.6822
G01 X40.0004 Y51.6107
G01 X39.9647 Y51.5353
G01 X39.9366 Y51.4567
G01 X39.9163 Y51.3758
G01 X39.9041 Y51.2933
G01 X39.9000 Y51.2100
G01 X39.9041 Y51.1267
G01 X39.9163 Y51.0442
G01 X39.9366 Y50.9633
G01 X39.9647 Y50.8847
G01 X40.0004 Y50.8093
G01 X40.0433 Y50.7378
G01 X40.0929 Y50.6708
G01 X40.1490 Y50.6090
G01 X40.2108 Y50.5529
G01 X40.2778 Y50.5033
G01 X40.3493 Y50.4604
G00 Z2.0000
G00 X40.3493 Y47.9204
G01 F60.00
G01 Z-0.1000
G01 F120.00
G01 X40.4247 Y47.8847
G01 X40.5033 Y47.8566
G01 X40.5842 Y47.8363
G01 X40.6667 Y47.8241
G01 X40.7500 Y47.8200
G01 X40.8333 Y47.8241
G01 X40.9158 Y47.8363
G01 X40.9967 Y47.8566
G01 X41.0753 Y47.8847
G01 X41.1507 Y47.9204
G01 X41.2222 Y47.9633
G01 X41.2892 Y48.0129
G01 X41.3510 Y48.0690
G01 X41.4071 Y48.1308
G01 X41.4567 Y48.1978
G01 X41.4996 Y48.2693
G01 X41.5353 Y48.3447
G01 X41.5634 Y48.4233
G01 X41.5837 Y48.5042
G01 X41.5959 Y48.5867
G01 X41.6000 Y48.6700
G01 X41.5959 Y48.7533
G01 X41.5837 Y48.8358
G01 X41.5634 Y48.9167
G01 X41.5353 Y48.9953
G01 X41.4996 Y49.0707
G01 X41.4567 Y49.1422
G01 X41.4071 Y49.2092
G01 X41.3510 Y49.2710
G01 X41.2892 Y49.3271
G01 X41.2222 Y49.3767
G01 X41.1507 Y49.4196
G01 X41.0753 Y49.4553
G01 X40.9967 Y49.4834
G01 X40.9158 Y49.5037
G01 X40.8333 Y49.5159
G01 X40.7500 Y49.5200
G01 X40.6667 Y49.5159
G01 X40.5842 Y49.5037
G01 X40.5033 Y49.4834
G01 X40.4247 Y49.4553
G01 X40.3493 Y49.4196
G01 X40.2778 Y49.3767
G01 X40.2108 Y49.3271
G01 X40.1490 Y49.2710
G01 X40.0929 Y49.2092
G01 X40.0433 Y49.1422
G01 X40.0004 Y49.0707
G01 X39.9647 Y48.9953
G01 X39.9366 Y48.9167
G01 X39.9163 Y48.8358
G01 X39.9041 Y48.7533
G01 X39.9000 Y48.6700
G01 X39.9041 Y48.5867
G01 X39.9163 Y48.5042
G01 X39.9366 Y48.4233
G01 X39.9647 Y48.3447
G01 X40.0004 Y48.2693
G01 X40.0433 Y48.1978
G01 X40.0929 Y48.1308
G01 X40.1490 Y48.0690
G01 X40.2108 Y48.0129
G01 X40.2778 Y47.9633
G01 X40.3493 Y47.9204
G00 Z2.0000
G00 X40.3493 Y45.3804
G01 F60.00
G01 Z-0.1000
G01 F120.00
G01 X40.4247 Y45.3447
G01 X40.5033 Y45.3166
G01 X40.5842 Y45.2963
G01 X40.6667 Y45.2841
G01 X40.7500 Y45.2800
G01 X40.8333 Y45.2841
G01 X40.9158 Y45.2963
G01 X40.9967 Y45.3166
G01 X41.0753 Y45.3447
G01 X41.1507 Y45.3804
G01 X41.2222 Y45.4233
G01 X41.2892 Y45.4729
G01 X41.3510 Y45.5290
G01 X41.4071 Y45.5908
G01 X41.4567 Y45.6578
G01 X41.4996 Y45.7293
G01 X41.5353 Y45.8047
G01 X41.5634 Y45.8833
G01 X41.5837 Y45.9642
G01 X41.5959 Y46.0467
G01 X41.6000 Y46.1300
G01 X41.5959 Y46.2133
G01 X41.5837 Y46.2958
G01 X41.5634 Y46.3767
G01 X41.5353 Y46.4553
G01 X41.4996 Y46.5307
G01 X41.4567 Y46.6022
G01 X41.4071 Y46.6692
G01 X41.3510 Y46.7310
G01 X41.2892 Y46.7871
G01 X41.2222 Y46.8367
G01 X41.1507 Y46.8796
G01 X41.0753 Y46.9153
G01 X40.9967 Y46.9434
G01 X40.9158 Y46.9637
G01 X40.8333 Y46.9759
G01 X40.7500 Y46.9800
G01 X40.6667 Y46.9759
G01 X40.5842 Y46.9637
G01 X40.5033 Y46.9434
G01 X40.4247 Y46.9153
G01 X40.3493 Y46.8796
G01 X40.2778 Y46.8367
G01 X40.2108 Y46.7871
G01 X40.1490 Y46.7310
G01 X40.0929 Y46.6692
G01 X40.0433 Y46.6022
G01 X40.0004 Y46.5307
G01 X39.9647 Y46.4553
G01 X39.9366 Y46.3767
G01 X39.9163 Y46.2958
G01 X39.9041 Y46.2133
G01 X39.9000 Y46.1300
G01 X39.9041 Y46.0467
G01 X39.9163 Y45.9642
G01 X39.9366 Y45.8833
G01 X39.9647 Y45.8047
G01 X40.0004 Y45.7293
G01 X40.0433 Y45.6578
G01 X40.0929 Y45.5908
G01 X40.1490 Y45.5290
G01 X40.2108 Y45.4729
G01 X40.2778 Y45.4233
G01 X40.3493 Y45.3804
G00 Z2.0000
G00 X40.3493 Y42.8404
G01 F60.00
G01 Z-0.1000
G01 F120.00
G01 X40.4247 Y42.8047
G01 X40.5033 Y42.7766
G01 X40.5842 Y42.7563
G01 X40.6667 Y42.7441
G01 X40.7500 Y42.7400
G01 X40.8333 Y42.7441
G01 X40.9158 Y42.7563
G01 X40.9967 Y42.7766
G01 X41.0753 Y42.8047
G01 X41.1507 Y42.8404
G01 X41.2222 Y42.8833
G01 X41.2892 Y42.9329
G01 X41.3510 Y42.9890
G01 X41.4071 Y43.0508
G01 X41.4567 Y43.1178
G01 X41.4996 Y43.1893
G01 X41.5353 Y43.2647
G01 X41.5634 Y43.3433
G01 X41.5837 Y43.4242
G01 X41.5959 Y43.5067
G01 X41.6000 Y43.5900
G01 X41.5959 Y43.6733
G01 X41.5837 Y43.7558
G01 X41.5634 Y43.8367
G01 X41.5353 Y43.9153
G01 X41.4996 Y43.9907
G01 X41.4567 Y44.0622
G01 X41.4071 Y44.1292
G01 X41.3510 Y44.1910
G01 X41.2892 Y44.2471
G01 X41.2222 Y44.2967
G01 X41.1507 Y44.3396
G01 X41.0753 Y44.3753
G01 X40.9967 Y44.4034
G01 X40.9158 Y44.4237
G01 X40.8333 Y44.4359
G01 X40.7500 Y44.4400
G01 X40.6667 Y44.4359
G01 X40.5842 Y44.4237
G01 X40.5033 Y44.4034
G01 X40.4247 Y44.3753
G01 X40.3493 Y44.3396
G01 X40.2778 Y44.2967
G01 X40.2108 Y44.2471
G01 X40.1490 Y44.1910
G01 X40.0929 Y44.1292
G01 X40.0433 Y44.0622
G01 X40.0004 Y43.9907
G01 X39.9647 Y43.9153
G01 X39.9366 Y43.8367
G01 X39.9163 Y43.7558
G01 X39.9041 Y43.6733
G01 X39.9000 Y43.5900
G01 X39.9041 Y43.5067
G01 X39.9163 Y43.4242
G01 X39.9366 Y43.3433
G01 X39.9647 Y43.2647
G01 X40.0004 Y43.1893
G01 X40.0433 Y43.1178
G01 X40.0929 Y43.0508
G01 X40.1490 Y42.9890
G01 X40.2108 Y42.9329
G01 X40.2778 Y42.8833
G01 X40.3493 Y42.8404
G00 Z2.0000
G00 X40.3493 Y40.3004
G01 F60.00
G01 Z-0.1000
G01 F120.00
G01 X40.4247 Y40.2647
G01 X40.5033 Y40.2366
G01 X40.5842 Y40.2163
G01 X40.6667 Y40.2041
G01 X40.7500 Y40.2000
G01 X40.8333 Y40.2041
G01 X40.9158 Y40.2163
G01 X40.9967 Y40.2366
G01 X41.0753 Y40.2647
G01 X41.1507 Y40.3004
G01 X41.2222 Y40.3433
G01 X41.2892 Y40.3929
G01 X41.3510 Y40.4490
G01 X41.4071 Y40.5108
G01 X41.4567 Y40.5778
G01 X41.4996 Y40.6493
G01 X41.5353 Y40.7247
G01 X41.5634 Y40.8033
G01 X41.5837 Y40.8842
G01 X41.5959 Y40.9667
G01 X41.6000 Y41.0500
G01 X41.5959 Y41.1333
G01 X41.5837 Y41.2158
G01 X41.5634 Y41.2967
G01 X41.5353 Y41.3753
G01 X41.4996 Y41.4507
G01 X41.4567 Y41.5222
G01 X41.4071 Y41.5892
G01 X41.3510 Y41.6510
G01 X41.2892 Y41.7071
G01 X41.2222 Y41.7567
G01 X41.1507 Y41.7996
G01 X41.0753 Y41.8353
G01 X40.9967 Y41.8634
G01 X40.9158 Y41.8837
G01 X40.8333 Y41.8959
G01 X40.7500 Y41.9000
G01 X40.6667 Y41.8959
G01 X40.5842 Y41.8837
G01 X40.5033 Y41.8634
G01 X40.4247 Y41.8353
G01 X40.3493 Y41.7996
G01 X40.2778 Y41.7567
G01 X40.2108 Y41.7071
G01 X40.1490 Y41.6510
G01 X40.0929 Y41.5892
G01 X40.0433 Y41.5222
G01 X40.0004 Y41.4507
G01 X39.9647 Y41.3753
G01 X39.9366 Y41.2967
G01 X39.9163 Y41.2158
G01 X39.9041 Y41.1333
G01 X39.9000 Y41.0500
G01 X39.9041 Y40.9667
G01 X39.9163 Y40.8842
G01 X39.9366 Y40.8033
G01 X39.9647 Y40.7247
G01 X40.0004 Y40.6493
G01 X40.0433 Y40.5778
G01 X40.0929 Y40.5108
G01 X40.1490 Y40.4490
G01 X40.2108 Y40.3929
G01 X40.2778 Y40.3433
G01 X40.3493 Y40.3004
G00 Z2.0000
G00 X40.3504 Y37.7598
G01 F60.00
G01 Z-0.1000
G01 F120.00
G01 X40.4247 Y37.7247
G01 X40.5033 Y37.6966
G01 X40.5842 Y37.6763
G01 X40.6667 Y37.6641
G01 X40.7500 Y37.6600
G01 X40.8333 Y37.6641
G01 X40.9158 Y37.6763
G01 X40.9967 Y37.6966
G01 X41.0753 Y37.7247
G01 X41.1507 Y37.7604
G01 X41.2222 Y37.8033
G01 X41.2892 Y37.8529
G01 X41.3510 Y37.9090
G01 X41.4071 Y37.9708
G01 X41.4567 Y38.0378
G01 X41.4996 Y38.1093
G01 X41.5353 Y38.1847
G01 X41.5634 Y38.2633
G01 X41.5837 Y38.3442
G01 X41.5959 Y38.4267
G01 X41.6000 Y38.5100
G01 X41.5959 Y38.5933
G01 X41.5837 Y38.6758
G01 X41.5634 Y38.7567
G01 X41.5353 Y38.8353
G01 X41.4996 Y38.9107
G01 X41.4567 Y38.9822
G01 X41.4071 Y39.0492
G01 X41.3510 Y39.1110
G01 X41.2892 Y39.1671
G01 X41.2222 Y39.2167
G01 X41.1507 Y39.2596
G01 X41.0753 Y39.2953
G01 X40.9967 Y39.3234
G01 X40.9158 Y39.3437
G01 X40.8333 Y39.3559
G01 X40.7500 Y39.3600
G01 X40.6667 Y39.3559
G01 X40.5842 Y39.3437
G01 X40.5033 Y39.3234
G01 X40.4247 Y39.2953
G01 X40.3493 Y39.2596
G01 X40.2778 Y39.2167
G01 X40.2108 Y39.1671
G01 X40.1490 Y39.1110
G01 X40.0929 Y39.0492
G01 X40.0433 Y38.9822
G01 X40.0004 Y38.9107
G01 X39.9647 Y38.8353
G01 X39.9366 Y38.7567
G01 X39.9163 Y38.6758
G01 X39.9041 Y38.5933
G01 X39.9000 Y38.5100
G01 X39.9041 Y38.4267
G01 X39.9163 Y38.3442
G01 X39.9366 Y38.2633
G01 X39.9647 Y38.1847
G01 X40.0004 Y38.1093
G01 X40.0433 Y38.0378
G01 X40.0929 Y37.9708
G01 X40.1490 Y37.9090
G01 X40.2108 Y37.8529
G01 X40.2778 Y37.8033
G01 X40.3504 Y37.7598
G00 Z2.0000
G00 X40.3493 Y35.2204
G01 F60.00
G01 Z-0.1000
G01 F120.00
G01 X40.4247 Y35.1847
G01 X40.5033 Y35.1566
G01 X40.5842 Y35.1363
G01 X40.6667 Y35.1241
G01 X40.7500 Y35.1200
G01 X40.8333 Y35.1241
G01 X40.9158 Y35.1363
G01 X40.9967 Y35.1566
G01 X41.0753 Y35.1847
G01 X41.1507 Y35.2204
G01 X41.2222 Y35.2633
G01 X41.2892 Y35.3129
G01 X41.3510 Y35.3690
G01 X41.4071 Y35.4308
G01 X41.4567 Y35.4978
G01 X41.4996 Y35.5693
G01 X41.5353 Y35.6447
G01 X41.5634 Y35.7233
G01 X41.5837 Y35.8042
G01 X41.5959 Y35.8867
G01 X41.6000 Y35.9700
G01 X41.5959 Y36.0533
G01 X41.5837 Y36.1358
G01 X41.5634 Y36.2167
G01 X41.5353 Y36.2953
G01 X41.4996 Y36.3707
G01 X41.4567 Y36.4422
G01 X41.4071 Y36.5092
G01 X41.3510 Y36.5710
G01 X41.2892 Y36.6271
G01 X41.2222 Y36.6767
G01 X41.1507 Y36.7196
G01 X41.0753 Y36.7553
G01 X40.9967 Y36.7834
G01 X40.9158 Y36.8037
G01 X40.8333 Y36.8159
G01 X40.7500 Y36.8200
G01 X40.6667 Y36.8159
G01 X40.5842 Y36.8037
G01 X40.5033 Y36.7834
G01 X40.4247 Y36.7553
G01 X40.3493 Y36.7196
G01 X40.2778 Y36.6767
G01 X40.2108 Y36.6271
G01 X40.1490 Y36.5710
G01 X40.0929 Y36.5092
G01 X40.0433 Y36.4422
G01 X40.0004 Y36.3707
G01 X39.9647 Y36.2953
G01 X39.9366 Y36.2167
G01 X39.9163 Y36.1358
G01 X39.9041 Y36.0533
G01 X39.9000 Y35.9700
G01 X39.9041 Y35.8867
G01 X39.9163 Y35.8042
G01 X39.9366 Y35.7233
G01 X39.9647 Y35.6447
G01 X40.0004 Y35.5693
G01 X40.0433 Y35.4978
G01 X40.0929 Y35.4308
G01 X40.1490 Y35.3690
G01 X40.2108 Y35.3129
G01 X40.2778 Y35.2633
G01 X40.3493 Y35.2204
G00 Z2.0000
G00 X55.5893 Y35.2204
G01 F60.00
G01 Z-0.1000
G01 F120.00
G01 X55.6647 Y35.1847
G01 X55.7433 Y35.1566
G01 X55.8242 Y35.1363
G01 X55.9067 Y35.1241
G01 X55.9900 Y35.1200
G01 X56.0733 Y35.1241
G01 X56.1558 Y35.1363
G01 X56.2367 Y35.1566
G01 X56.3153 Y35.1847
G01 X56.3907 Y35.2204
G01 X56.4622 Y35.2633
G01 X56.5292 Y35.3129
G01 X56.5910 Y35.3690
G01 X56.6471 Y35.4308
G01 X56.6967 Y35.4978
G01 X56.7396 Y35.5693
G01 X56.7753 Y35.6447
G01 X56.8034 Y35.7233
G01 X56.8237 Y35.8042
G01 X56.8359 Y35.8867
G01 X56.8400 Y35.9700
G01 X56.8359 Y36.0533
G01 X56.8237 Y36.1358
G01 X56.8034 Y36.2167
G01 X56.7753 Y36.2953
G01 X56.7396 Y36.3707
G01 X56.6967 Y36.4422
G01 X56.6471 Y36.5092
G01 X56.5910 Y36.5710
G01 X56.5292 Y36.6271
G01 X56.4622 Y36.6767
G01 X56.3907 Y36.7196
G01 X56.3153 Y36.7553
G01 X56.2367 Y36.7834
G01 X56.1558 Y36.8037
G01 X56.0733 Y36.8159
G01 X55.9900 Y36.8200
G01 X55.9067 Y36.8159
G01 X55.8242 Y36.8037
G01 X55.7433 Y36.7834
G01 X55.6647 Y36.7553
G01 X55.5893 Y36.7196
G01 X55.5178 Y36.6767
G01 X55.4508 Y36.6271
G01 X55.3890 Y36.5710
G01 X55.3329 Y36.5092
G01 X55.2833 Y36.4422
G01 X55.2404 Y36.3707
G01 X55.2047 Y36.2953
G01 X55.1766 Y36.2167
G01 X55.1563 Y36.1358
G01 X55.1441 Y36.0533
G01 X55.1400 Y35.9700
G01 X55.1441 Y35.8867
G01 X55.1563 Y35.8042
G01 X55.1766 Y35.7233
G01 X55.2047 Y35.6447
G01 X55.2404 Y35.5693
G01 X55.2833 Y35.4978
G01 X55.3329 Y35.4308
G01 X55.3890 Y35.3690
G01 X55.4508 Y35.3129
G01 X55.5178 Y35.2633
G01 X55.5893 Y35.2204
G00 Z2.0000
G00 X55.5893 Y37.7604
G01 F60.00
G01 Z-0.1000
G01 F120.00
G01 X55.6647 Y37.7247
G01 X55.7433 Y37.6966
G01 X55.8242 Y37.6763
G01 X55.9067 Y37.6641
G01 X55.9900 Y37.6600
G01 X56.0733 Y37.6641
G01 X56.1558 Y37.6763
G01 X56.2367 Y37.6966
G01 X56.3153 Y37.7247
G01 X56.3907 Y37.7604
G01 X56.4622 Y37.8033
G01 X56.5292 Y37.8529
G01 X56.5910 Y37.9090
G01 X56.6471 Y37.9708
G01 X56.6967 Y38.0378
G01 X56.7396 Y38.1093
G01 X56.7753 Y38.1847
G01 X56.8034 Y38.2633
G01 X56.8237 Y38.3442
G01 X56.8359 Y38.4267
G01 X56.8400 Y38.5100
G01 X56.8359 Y38.5933
G01 X56.8237 Y38.6758
G01 X56.8034 Y38.7567
G01 X56.7753 Y38.8353
G01 X56.7396 Y38.9107
G01 X56.6967 Y38.9822
G01 X56.6471 Y39.0492
G01 X56.5910 Y39.1110
G01 X56.5292 Y39.1671
G01 X56.4622 Y39.2167
G01 X56.3907 Y39.2596
G01 X56.3153 Y39.2953
G01 X56.2367 Y39.3234
G01 X56.1558 Y39.3437
G01 X56.0733 Y39.3559
G01 X55.9900 Y39.3600
G01 X55.9067 Y39.3559
G01 X55.8242 Y39.3437
G01 X55.7433 Y39.3234
G01 X55.6647 Y39.2953
G01 X55.5893 Y39.2596
G01 X55.5178 Y39.2167
G01 X55.4508 Y39.1671
G01 X55.3890 Y39.1110
G01 X55.3329 Y39.0492
G01 X55.2833 Y38.9822
G01 X55.2404 Y38.9107
G01 X55.2047 Y38.8353
G01 X55.1766 Y38.7567
G01 X55.1563 Y38.6758
G01 X55.1441 Y38.5933
G01 X55.1400 Y38.5100
G01 X55.1441 Y38.4267
G01 X55.1563 Y38.3442
G01 X55.1766 Y38.2633
G01 X55.2047 Y38.1847
G01 X55.2404 Y38.1093
G01 X55.2833 Y38.0378
G01 X55.3329 Y37.9708
G01 X55.3890 Y37.9090
G01 X55.4508 Y37.8529
G01 X55.5178 Y37.8033
G01 X55.5893 Y37.7604
G00 Z2.0000
G00 X55.5893 Y40.3004
G01 F60.00
G01 Z-0.1000
G01 F120.00
G01 X55.6647 Y40.2647
G01 X55.7433 Y40.2366
G01 X55.8242 Y40.2163
G01 X55.9067 Y40.2041
G01 X55.9900 Y40.2000
G01 X56.0733 Y40.2041
G01 X56.1558 Y40.2163
G01 X56.2367 Y40.2366
G01 X56.3153 Y40.2647
G01 X56.3907 Y40.3004
G01 X56.4622 Y40.3433
G01 X56.5292 Y40.3929
G01 X56.5910 Y40.4490
G01 X56.6471 Y40.5108
G01 X56.6967 Y40.5778
G01 X56.7396 Y40.6493
G01 X56.7753 Y40.7247
G01 X56.8034 Y40.8033
G01 X56.8237 Y40.8842
G01 X56.8359 Y40.9667
G01 X56.8400 Y41.0500
G01 X56.8359 Y41.1333
G01 X56.8237 Y41.2158
G01 X56.8034 Y41.2967
G01 X56.7753 Y41.3753
G01 X56.7396 Y41.4507
G01 X56.6967 Y41.5222
G01 X56.6471 Y41.5892
G01 X56.5910 Y41.6510
G01 X56.5292 Y41.7071
G01 X56.4622 Y41.7567
G01 X56.3907 Y41.7996
G01 X56.3153 Y41.8353
G01 X56.2367 Y41.8634
G01 X56.1558 Y41.8837
G01 X56.0733 Y41.8959
G01 X55.9900 Y41.9000
G01 X55.9067 Y41.8959
G01 X55.8242 Y41.8837
G01 X55.7433 Y41.8634
G01 X55.6647 Y41.8353
G01 X55.5893 Y41.7996
G01 X55.5178 Y41.7567
G01 X55.4508 Y41.7071
G01 X55.3890 Y41.6510
G01 X55.3329 Y41.5892
G01 X55.2833 Y41.5222
G01 X55.2404 Y41.4507
G01 X55.2047 Y41.3753
G01 X55.1766 Y41.2967
G01 X55.1563 Y41.2158
G01 X55.1441 Y41.1333
G01 X55.1400 Y41.0500
G01 X55.1441 Y40.9667
G01 X55.1563 Y40.8842
G01 X55.1766 Y40.8033
G01 X55.2047 Y40.7247
G01 X55.2404 Y40.6493
G01 X55.2833 Y40.5778
G01 X55.3329 Y40.5108
G01 X55.3890 Y40.4490
G01 X55.4508 Y40.3929
G01 X55.5178 Y40.3433
G01 X55.5893 Y40.3004
G00 Z2.0000
G00 X55.5893 Y42.8404
G01 F60.00
G01 Z-0.1000
G01 F120.00
G01 X55.6647 Y42.8047
G01 X55.7433 Y42.7766
G01 X55.8242 Y42.7563
G01 X55.9067 Y42.7441
G01 X55.9900 Y42.7400
G01 X56.0733 Y42.7441
G01 X56.1558 Y42.7563
G01 X56.2367 Y42.7766
G01 X56.3153 Y42.8047
G01 X56.3907 Y42.8404
G01 X56.4622 Y42.8833
G01 X56.5292 Y42.9329
G01 X56.5910 Y42.9890
G01 X56.6471 Y43.0508
G01 X56.6967 Y43.1178
G01 X56.7396 Y43.1893
G01 X56.7753 Y43.2647
G01 X56.8034 Y43.3433
G01 X56.8237 Y43.4242
G01 X56.8359 Y43.5067
G01 X56.8400 Y43.5900
G01 X56.8359 Y43.6733
G01 X56.8237 Y43.7558
G01 X56.8034 Y43.8367
G01 X56.7753 Y43.9153
G01 X56.7396 Y43.9907
G01 X56.6967 Y44.0622
G01 X56.6471 Y44.1292
G01 X56.5910 Y44.1910
G01 X56.5292 Y44.2471
G01 X56.4622 Y44.2967
G01 X56.3907 Y44.3396
G01 X56.3153 Y44.3753
G01 X56.2367 Y44.4034
G01 X56.1558 Y44.4237
G01 X56.0733 Y44.4359
G01 X55.9900 Y44.4400
G01 X55.9067 Y44.4359
G01 X55.8242 Y44.4237
G01 X55.7433 Y44.4034
G01 X55.6647 Y44.3753
G01 X55.5893 Y44.3396
G01 X55.5178 Y44.2967
G01 X55.4508 Y44.2471
G01 X55.3890 Y44.1910
G01 X55.3329 Y44.1292
G01 X55.2833 Y44.0622
G01 X55.2404 Y43.9907
G01 X55.2047 Y43.9153
G01 X55.1766 Y43.8367
G01 X55.1563 Y43.7558
G01 X55.1441 Y43.6733
G01 X55.1400 Y43.5900
G01 X55.1441 Y43.5067
G01 X55.1563 Y43.4242
G01 X55.1766 Y43.3433
G01 X55.2047 Y43.2647
G01 X55.2404 Y43.1893
G01 X55.2833 Y43.1178
G01 X55.3329 Y43.0508
G01 X55.3890 Y42.9890
G01 X55.4508 Y42.9329
G01 X55.5178 Y42.8833
G01 X55.5893 Y42.8404
G00 Z2.0000
G00 X55.5893 Y45.3804
G01 F60.00
G01 Z-0.1000
G01 F120.00
G01 X55.6647 Y45.3447
G01 X55.7433 Y45.3166
G01 X55.8242 Y45.2963
G01 X55.9067 Y45.2841
G01 X55.9900 Y45.2800
G01 X56.0733 Y45.2841
G01 X56.1558 Y45.2963
G01 X56.2367 Y45.3166
G01 X56.3153 Y45.3447
G01 X56.3907 Y45.3804
G01 X56.4622 Y45.4233
G01 X56.5292 Y45.4729
G01 X56.5910 Y45.5290
G01 X56.6471 Y45.5908
G01 X56.6967 Y45.6578
G01 X56.7396 Y45.7293
G01 X56.7753 Y45.8047
G01 X56.8034 Y45.8833
G01 X56.8237 Y45.9642
G01 X56.8359 Y46.0467
G01 X56.8400 Y46.1300
G01 X56.8359 Y46.2133
G01 X56.8237 Y46.2958
G01 X56.8034 Y46.3767
G01 X56.7753 Y46.4553
G01 X56.7396 Y46.5307
G01 X56.6967 Y46.6022
G01 X56.6471 Y46.6692
G01 X56.5910 Y46.7310
G01 X56.5292 Y46.7871
G01 X56.4622 Y46.8367
G01 X56.3907 Y46.8796
G01 X56.3153 Y46.9153
G01 X56.2367 Y46.9434
G01 X56.1558 Y46.9637
G01 X56.0733 Y46.9759
G01 X55.9900 Y46.9800
G01 X55.9067 Y46.9759
G01 X55.8242 Y46.9637
G01 X55.7433 Y46.9434
G01 X55.6647 Y46.9153
G01 X55.5893 Y46.8796
G01 X55.5178 Y46.8367
G01 X55.4508 Y46.7871
G01 X55.3890 Y46.7310
G01 X55.3329 Y46.6692
G01 X55.2833 Y46.6022
G01 X55.2404 Y46.5307
G01 X55.2047 Y46.4553
G01 X55.1766 Y46.3767
G01 X55.1563 Y46.2958
G01 X55.1441 Y46.2133
G01 X55.1400 Y46.1300
G01 X55.1441 Y46.0467
G01 X55.1563 Y45.9642
G01 X55.1766 Y45.8833
G01 X55.2047 Y45.8047
G01 X55.2404 Y45.7293
G01 X55.2833 Y45.6578
G01 X55.3329 Y45.5908
G01 X55.3890 Y45.5290
G01 X55.4508 Y45.4729
G01 X55.5178 Y45.4233
G01 X55.5893 Y45.3804
G00 Z2.0000
G00 X55.5904 Y47.9198
G01 F60.00
G01 Z-0.1000
G01 F120.00
G01 X55.6647 Y47.8847
G01 X55.7433 Y47.8566
G01 X55.8242 Y47.8363
G01 X55.9067 Y47.8241
G01 X55.9900 Y47.8200
G01 X56.0733 Y47.8241
G01 X56.1558 Y47.8363
G01 X56.2367 Y47.8566
G01 X56.3153 Y47.8847
G01 X56.3907 Y47.9204
G01 X56.4622 Y47.9633
G01 X56.5292 Y48.0129
G01 X56.5910 Y48.0690
G01 X56.6471 Y48.1308
G01 X56.6967 Y48.1978
G01 X56.7396 Y48.2693
G01 X56.7753 Y48.3447
G01 X56.8034 Y48.4233
G01 X56.8237 Y48.5042
G01 X56.8359 Y48.5867
G01 X56.8400 Y48.6700
G01 X56.8359 Y48.7533
G01 X56.8237 Y48.8358
G01 X56.8034 Y48.9167
G01 X56.7753 Y48.9953
G01 X56.7396 Y49.0707
G01 X56.6967 Y49.1422
G01 X56.6471 Y49.2092
G01 X56.5910 Y49.2710
G01 X56.5292 Y49.3271
G01 X56.4622 Y49.3767
G01 X56.3907 Y49.4196
G01 X56.3153 Y49.4553
G01 X56.2367 Y49.4834
G01 X56.1558 Y49.5037
G01 X56.0733 Y49.5159
G01 X55.9900 Y49.5200
G01 X55.9067 Y49.5159
G01 X55.8242 Y49.5037
G01 X55.7433 Y49.4834
G01 X55.6647 Y49.4553
G01 X55.5893 Y49.4196
G01 X55.5178 Y49.3767
G01 X55.4508 Y49.3271
G01 X55.3890 Y49.2710
G01 X55.3329 Y49.2092
G01 X55.2833 Y49.1422
G01 X55.2404 Y49.0707
G01 X55.2047 Y48.9953
G01 X55.1766 Y48.9167
G01 X55.1563 Y48.8358
G01 X55.1441 Y48.7533
G01 X55.1400 Y48.6700
G01 X55.1441 Y48.5867
G01 X55.1563 Y48.5042
G01 X55.1766 Y48.4233
G01 X55.2047 Y48.3447
G01 X55.2404 Y48.2693
G01 X55.2833 Y48.1978
G01 X55.3329 Y48.1308
G01 X55.3890 Y48.0690
G01 X55.4508 Y48.0129
G01 X55.5178 Y47.9633
G01 X55.5904 Y47.9198
G00 Z2.0000
G00 X55.5893 Y50.4604
G01 F60.00
G01 Z-0.1000
G01 F120.00
G01 X55.6647 Y50.4247
G01 X55.7433 Y50.3966
G01 X55.8242 Y50.3763
G01 X55.9067 Y50.3641
G01 X55.9900 Y50.3600
G01 X56.0733 Y50.3641
G01 X56.1558 Y50.3763
G01 X56.2367 Y50.3966
G01 X56.3153 Y50.4247
G01 X56.3907 Y50.4604
G01 X56.4622 Y50.5033
G01 X56.5292 Y50.5529
G01 X56.5910 Y50.6090
G01 X56.6471 Y50.6708
G01 X56.6967 Y50.7378
G01 X56.7396 Y50.8093
G01 X56.7753 Y50.8847
G01 X56.8034 Y50.9633
G01 X56.8237 Y51.0442
G01 X56.8359 Y51.1267
G01 X56.8400 Y51.2100
G01 X56.8359 Y51.2933
G01 X56.8237 Y51.3758
G01 X56.8034 Y51.4567
G01 X56.7753 Y51.5353
G01 X56.7396 Y51.6107
G01 X56.6967 Y51.6822
G01 X56.6471 Y51.7492
G01 X56.5910 Y51.8110
G01 X56.5292 Y51.8671
G01 X56.4622 Y51.9167
G01 X56.3907 Y51.9596
G01 X56.3153 Y51.9953
G01 X56.2367 Y52.0234
G01 X56.1558 Y52.0437
G01 X56.0733 Y52.0559
G01 X55.9900 Y52.0600
G01 X55.9067 Y52.0559
G01 X55.8242 Y52.0437
G01 X55.7433 Y52.0234
G01 X55.6647 Y51.9953
G01 X55.5893 Y51.9596
G01 X55.5178 Y51.9167
G01 X55.4508 Y51.8671
G01 X55.3890 Y51.8110
G01 X55.3329 Y51.7492
G01 X55.2833 Y51.6822
G01 X55.2404 Y51.6107
G01 X55.2047 Y51.5353
G01 X55.1766 Y51.4567
G01 X55.1563 Y51.3758
G01 X55.1441 Y51.2933
G01 X55.1400 Y51.2100
G01 X55.1441 Y51.1267
G01 X55.1563 Y51.0442
G01 X55.1766 Y50.9633
G01 X55.2047 Y50.8847
G01 X55.2404 Y50.8093
G01 X55.2833 Y50.7378
G01 X55.3329 Y50.6708
G01 X55.3890 Y50.6090
G01 X55.4508 Y50.5529
G01 X55.5178 Y50.5033
G01 X55.5893 Y50.4604
G00 Z2.0000
G00 X55.5893 Y53.0004
G01 F60.00
G01 Z-0.1000
G01 F120.00
G01 X55.6647 Y52.9647
G01 X55.7433 Y52.9366
G01 X55.8242 Y52.9163
G01 X55.9067 Y52.9041
G01 X55.9900 Y52.9000
G01 X56.0733 Y52.9041
G01 X56.1558 Y52.9163
G01 X56.2367 Y52.9366
G01 X56.3153 Y52.9647
G01 X56.3907 Y53.0004
G01 X56.4622 Y53.0433
G01 X56.5292 Y53.0929
G01 X56.5910 Y53.1490
G01 X56.6471 Y53.2108
G01 X56.6967 Y53.2778
G01 X56.7396 Y53.3493
G01 X56.7753 Y53.4247
G01 X56.8034 Y53.5033
G01 X56.8237 Y53.5842
G01 X56.8359 Y53.6667
G01 X56.8400 Y53.7500
G01 X56.8359 Y53.8333
G01 X56.8237 Y53.9158
G01 X56.8034 Y53.9967
G01 X56.7753 Y54.0753
G01 X56.7396 Y54.1507
G01 X56.6967 Y54.2222
G01 X56.6471 Y54.2892
G01 X56.5910 Y54.3510
G01 X56.5292 Y54.4071
G01 X56.4622 Y54.4567
G01 X56.3907 Y54.4996
G01 X56.3153 Y54.5353
G01 X56.2367 Y54.5634
G01 X56.1558 Y54.5837
G01 X56.0733 Y54.5959
G01 X55.9900 Y54.6000
G01 X55.9067 Y54.5959
G01 X55.8242 Y54.5837
G01 X55.7433 Y54.5634
G01 X55.6647 Y54.5353
G01 X55.5893 Y54.4996
G01 X55.5178 Y54.4567
G01 X55.4508 Y54.4071
G01 X55.3890 Y54.3510
G01 X55.3329 Y54.2892
G01 X55.2833 Y54.2222
G01 X55.2404 Y54.1507
G01 X55.2047 Y54.0753
G01 X55.1766 Y53.9967
G01 X55.1563 Y53.9158
G01 X55.1441 Y53.8333
G01 X55.1400 Y53.7500
G01 X55.1441 Y53.6667
G01 X55.1563 Y53.5842
G01 X55.1766 Y53.5033
G01 X55.2047 Y53.4247
G01 X55.2404 Y53.3493
G01 X55.2833 Y53.2778
G01 X55.3329 Y53.2108
G01 X55.3890 Y53.1490
G01 X55.4508 Y53.0929
G01 X55.5178 Y53.0433
G01 X55.5893 Y53.0004
G00 Z2.0000
G00 X55.5893 Y55.5404
G01 F60.00
G01 Z-0.1000
G01 F120.00
G01 X55.6647 Y55.5047
G01 X55.7433 Y55.4766
G01 X55.8242 Y55.4563
G01 X55.9067 Y55.4441
G01 X55.9900 Y55.4400
G01 X56.0733 Y55.4441
G01 X56.1558 Y55.4563
G01 X56.2367 Y55.4766
G01 X56.3153 Y55.5047
G01 X56.3907 Y55.5404
G01 X56.4622 Y55.5833
G01 X56.5292 Y55.6329
G01 X56.5910 Y55.6890
G01 X56.6471 Y55.7508
G01 X56.6967 Y55.8178
G01 X56.7396 Y55.8893
G01 X56.7753 Y55.9647
G01 X56.8034 Y56.0433
G01 X56.8237 Y56.1242
G01 X56.8359 Y56.2067
G01 X56.8400 Y56.2900
G01 X56.8359 Y56.3733
G01 X56.8237 Y56.4558
G01 X56.8034 Y56.5367
G01 X56.7753 Y56.6153
G01 X56.7396 Y56.6907
G01 X56.6967 Y56.7622
G01 X56.6471 Y56.8292
G01 X56.5910 Y56.8910
G01 X56.5292 Y56.9471
G01 X56.4622 Y56.9967
G01 X56.3907 Y57.0396
G01 X56.3153 Y57.0753
G01 X56.2367 Y57.1034
G01 X56.1558 Y57.1237
G01 X56.0733 Y57.1359
G01 X55.9900 Y57.1400
G01 X55.9067 Y57.1359
G01 X55.8242 Y57.1237
G01 X55.7433 Y57.1034
G01 X55.6647 Y57.0753
G01 X55.5893 Y57.0396
G01 X55.5178 Y56.9967
G01 X55.4508 Y56.9471
G01 X55.3890 Y56.8910
G01 X55.3329 Y56.8292
G01 X55.2833 Y56.7622
G01 X55.2404 Y56.6907
G01 X55.2047 Y56.6153
G01 X55.1766 Y56.5367
G01 X55.1563 Y56.4558
G01 X55.1441 Y56.3733
G01 X55.1400 Y56.2900
G01 X55.1441 Y56.2067
G01 X55.1563 Y56.1242
G01 X55.1766 Y56.0433
G01 X55.2047 Y55.9647
G01 X55.2404 Y55.8893
G01 X55.2833 Y55.8178
G01 X55.3329 Y55.7508
G01 X55.3890 Y55.6890
G01 X55.4508 Y55.6329
G01 X55.5178 Y55.5833
G01 X55.5893 Y55.5404
G00 Z2.0000
G00 X55.5893 Y58.0804
G01 F60.00
G01 Z-0.1000
G01 F120.00
G01 X55.6647 Y58.0447
G01 X55.7433 Y58.0166
G01 X55.8242 Y57.9963
G01 X55.9067 Y57.9841
G01 X55.9900 Y57.9800
G01 X56.0733 Y57.9841
G01 X56.1558 Y57.9963
G01 X56.2367 Y58.0166
G01 X56.3153 Y58.0447
G01 X56.3907 Y58.0804
G01 X56.4622 Y58.1233
G01 X56.5292 Y58.1729
G01 X56.5910 Y58.2290
G01 X56.6471 Y58.2908
G01 X56.6967 Y58.3578
G01 X56.7396 Y58.4293
G01 X56.7753 Y58.5047
G01 X56.8034 Y58.5833
G01 X56.8237 Y58.6642
G01 X56.8359 Y58.7467
G01 X56.8400 Y58.8300
G01 X56.8359 Y58.9133
G01 X56.8237 Y58.9958
G01 X56.8034 Y59.0767
G01 X56.7753 Y59.1553
G01 X56.7396 Y59.2307
G01 X56.6967 Y59.3022
G01 X56.6471 Y59.3692
G01 X56.5910 Y59.4310
G01 X56.5292 Y59.4871
G01 X56.4622 Y59.5367
G01 X56.3907 Y59.5796
G01 X56.3153 Y59.6153
G01 X56.2367 Y59.6434
G01 X56.1558 Y59.6637
G01 X56.0733 Y59.6759
G01 X55.9900 Y59.6800
G01 X55.9067 Y59.6759
G01 X55.8242 Y59.6637
G01 X55.7433 Y59.6434
G01 X55.6647 Y59.6153
G01 X55.5893 Y59.5796
G01 X55.5178 Y59.5367
G01 X55.4508 Y59.4871
G01 X55.3890 Y59.4310
G01 X55.3329 Y59.3692
G01 X55.2833 Y59.3022
G01 X55.2404 Y59.2307
G01 X55.2047 Y59.1553
G01 X55.1766 Y59.0767
G01 X55.1563 Y58.9958
G01 X55.1441 Y58.9133
G01 X55.1400 Y58.8300
G01 X55.1441 Y58.7467
G01 X55.1563 Y58.6642
G01 X55.1766 Y58.5833
G01 X55.2047 Y58.5047
G01 X55.2404 Y58.4293
G01 X55.2833 Y58.3578
G01 X55.3329 Y58.2908
G01 X55.3890 Y58.2290
G01 X55.4508 Y58.1729
G01 X55.5178 Y58.1233
G01 X55.5893 Y58.0804
G00 Z2.0000
G00 X55.5893 Y60.6204
G01 F60.00
G01 Z-0.1000
G01 F120.00
G01 X55.6647 Y60.5847
G01 X55.7433 Y60.5566
G01 X55.8242 Y60.5363
G01 X55.9067 Y60.5241
G01 X55.9900 Y60.5200
G01 X56.0733 Y60.5241
G01 X56.1558 Y60.5363
G01 X56.2367 Y60.5566
G01 X56.3153 Y60.5847
G01 X56.3907 Y60.6204
G01 X56.4622 Y60.6633
G01 X56.5292 Y60.7129
G01 X56.5910 Y60.7690
G01 X56.6471 Y60.8308
G01 X56.6967 Y60.8978
G01 X56.7396 Y60.9693
G01 X56.7753 Y61.0447
G01 X56.8034 Y61.1233
G01 X56.8237 Y61.2042
G01 X56.8359 Y61.2867
G01 X56.8400 Y61.3700
G01 X56.8359 Y61.4533
G01 X56.8237 Y61.5358
G01 X56.8034 Y61.6167
G01 X56.7753 Y61.6953
G01 X56.7396 Y61.7707
G01 X56.6967 Y61.8422
G01 X56.6471 Y61.9092
G01 X56.5910 Y61.9710
G01 X56.5292 Y62.0271
G01 X56.4622 Y62.0767
G01 X56.3907 Y62.1196
G01 X56.3153 Y62.1553
G01 X56.2367 Y62.1834
G01 X56.1558 Y62.2037
G01 X56.0733 Y62.2159
G01 X55.9900 Y62.2200
G01 X55.9067 Y62.2159
G01 X55.8242 Y62.2037
G01 X55.7433 Y62.1834
G01 X55.6647 Y62.1553
G01 X55.5893 Y62.1196
G01 X55.5178 Y62.0767
G01 X55.4508 Y62.0271
G01 X55.3890 Y61.9710
G01 X55.3329 Y61.9092
G01 X55.2833 Y61.8422
G01 X55.2404 Y61.7707
G01 X55.2047 Y61.6953
G01 X55.1766 Y61.6167
G01 X55.1563 Y61.5358
G01 X55.1441 Y61.4533
G01 X55.1400 Y61.3700
G01 X55.1441 Y61.2867
G01 X55.1563 Y61.2042
G01 X55.1766 Y61.1233
G01 X55.2047 Y61.0447
G01 X55.2404 Y60.9693
G01 X55.2833 Y60.8978
G01 X55.3329 Y60.8308
G01 X55.3890 Y60.7690
G01 X55.4508 Y60.7129
G01 X55.5178 Y60.6633
G01 X55.5893 Y60.6204
G00 Z2.0000
G00 X55.5893 Y63.1604
G01 F60.00
G01 Z-0.1000
G01 F120.00
G01 X55.6647 Y63.1247
G01 X55.7433 Y63.0966
G01 X55.8242 Y63.0763
G01 X55.9067 Y63.0641
G01 X55.9900 Y63.0600
G01 X56.0733 Y63.0641
G01 X56.1558 Y63.0763
G01 X56.2367 Y63.0966
G01 X56.3153 Y63.1247
G01 X56.3907 Y63.1604
G01 X56.4622 Y63.2033
G01 X56.5292 Y63.2529
G01 X56.5910 Y63.3090
G01 X56.6471 Y63.3708
G01 X56.6967 Y63.4378
G01 X56.7396 Y63.5093
G01 X56.7753 Y63.5847
G01 X56.8034 Y63.6633
G01 X56.8237 Y63.7442
G01 X56.8359 Y63.8267
G01 X56.8400 Y63.9100
G01 X56.8359 Y63.9933
G01 X56.8237 Y64.0758
G01 X56.8034 Y64.1567
G01 X56.7753 Y64.2353
G01 X56.7396 Y64.3107
G01 X56.6967 Y64.3822
G01 X56.6471 Y64.4492
G01 X56.5910 Y64.5110
G01 X56.5292 Y64.5671
G01 X56.4622 Y64.6167
G01 X56.3907 Y64.6596
G01 X56.3153 Y64.6953
G01 X56.2367 Y64.7234
G01 X56.1558 Y64.7437
G01 X56.0733 Y64.7559
G01 X55.9900 Y64.7600
G01 X55.9067 Y64.7559
G01 X55.8242 Y64.7437
G01 X55.7433 Y64.7234
G01 X55.6647 Y64.6953
G01 X55.5893 Y64.6596
G01 X55.5178 Y64.6167
G01 X55.4508 Y64.5671
G01 X55.3890 Y64.5110
G01 X55.3329 Y64.4492
G01 X55.2833 Y64.3822
G01 X55.2404 Y64.3107
G01 X55.2047 Y64.2353
G01 X55.1766 Y64.1567
G01 X55.1563 Y64.0758
G01 X55.1441 Y63.9933
G01 X55.1400 Y63.9100
G01 X55.1441 Y63.8267
G01 X55.1563 Y63.7442
G01 X55.1766 Y63.6633
G01 X55.2047 Y63.5847
G01 X55.2404 Y63.5093
G01 X55.2833 Y63.4378
G01 X55.3329 Y63.3708
G01 X55.3890 Y63.3090
G01 X55.4508 Y63.2529
G01 X55.5178 Y63.2033
G01 X55.5893 Y63.1604
G00 Z2.0000
G00 X55.5893 Y65.7004
G01 F60.00
G01 Z-0.1000
G01 F120.00
G01 X55.6647 Y65.6647
G01 X55.7433 Y65.6366
G01 X55.8242 Y65.6163
G01 X55.9067 Y65.6041
G01 X55.9900 Y65.6000
G01 X56.0733 Y65.6041
G01 X56.1558 Y65.6163
G01 X56.2367 Y65.6366
G01 X56.3153 Y65.6647
G01 X56.3907 Y65.7004
G01 X56.4622 Y65.7433
G01 X56.5292 Y65.7929
G01 X56.5910 Y65.8490
G01 X56.6471 Y65.9108
G01 X56.6967 Y65.9778
G01 X56.7396 Y66.0493
G01 X56.7753 Y66.1247
G01 X56.8034 Y66.2033
G01 X56.8237 Y66.2842
G01 X56.8359 Y66.3667
G01 X56.8400 Y66.4500
G01 X56.8359 Y66.5333
G01 X56.8237 Y66.6158
G01 X56.8034 Y66.6967
G01 X56.7753 Y66.7753
G01 X56.7396 Y66.8507
G01 X56.6967 Y66.9222
G01 X56.6471 Y66.9892
G01 X56.5910 Y67.0510
G01 X56.5292 Y67.1071
G01 X56.4622 Y67.1567
G01 X56.3907 Y67.1996
G01 X56.3153 Y67.2353
G01 X56.2367 Y67.2634
G01 X56.1558 Y67.2837
G01 X56.0733 Y67.2959
G01 X55.9900 Y67.3000
G01 X55.9067 Y67.2959
G01 X55.8242 Y67.2837
G01 X55.7433 Y67.2634
G01 X55.6647 Y67.2353
G01 X55.5893 Y67.1996
G01 X55.5178 Y67.1567
G01 X55.4508 Y67.1071
G01 X55.3890 Y67.0510
G01 X55.3329 Y66.9892
G01 X55.2833 Y66.9222
G01 X55.2404 Y66.8507
G01 X55.2047 Y66.7753
G01 X55.1766 Y66.6967
G01 X55.1563 Y66.6158
G01 X55.1441 Y66.5333
G01 X55.1400 Y66.4500
G01 X55.1441 Y66.3667
G01 X55.1563 Y66.2842
G01 X55.1766 Y66.2033
G01 X55.2047 Y66.1247
G01 X55.2404 Y66.0493
G01 X55.2833 Y65.9778
G01 X55.3329 Y65.9108
G01 X55.3890 Y65.8490
G01 X55.4508 Y65.7929
G01 X55.5178 Y65.7433
G01 X55.5893 Y65.7004
G00 Z2.0000
G00 X55.5893 Y68.2404
G01 F60.00
G01 Z-0.1000
G01 F120.00
G01 X55.6647 Y68.2047
G01 X55.7433 Y68.1766
G01 X55.8242 Y68.1563
G01 X55.9067 Y68.1441
G01 X55.9900 Y68.1400
G01 X56.0733 Y68.1441
G01 X56.1558 Y68.1563
G01 X56.2367 Y68.1766
G01 X56.3153 Y68.2047
G01 X56.3907 Y68.2404
G01 X56.4622 Y68.2833
G01 X56.5292 Y68.3329
G01 X56.5910 Y68.3890
G01 X56.6471 Y68.4508
G01 X56.6967 Y68.5178
G01 X56.7396 Y68.5893
G01 X56.7753 Y68.6647
G01 X56.8034 Y68.7433
G01 X56.8237 Y68.8242
G01 X56.8359 Y68.9067
G01 X56.8400 Y68.9900
G01 X56.8359 Y69.0733
G01 X56.8237 Y69.1558
G01 X56.8034 Y69.2367
G01 X56.7753 Y69.3153
G01 X56.7396 Y69.3907
G01 X56.6967 Y69.4622
G01 X56.6471 Y69.5292
G01 X56.5910 Y69.5910
G01 X56.5292 Y69.6471
G01 X56.4622 Y69.6967
G01 X56.3907 Y69.7396
G01 X56.3153 Y69.7753
G01 X56.2367 Y69.8034
G01 X56.1558 Y69.8237
G01 X56.0733 Y69.8359
G01 X55.9900 Y69.8400
G01 X55.9067 Y69.8359
G01 X55.8242 Y69.8237
G01 X55.7433 Y69.8034
G01 X55.6647 Y69.7753
G01 X55.5893 Y69.7396
G01 X55.5178 Y69.6967
G01 X55.4508 Y69.6471
G01 X55.3890 Y69.5910
G01 X55.3329 Y69.5292
G01 X55.2833 Y69.4622
G01 X55.2404 Y69.3907
G01 X55.2047 Y69.3153
G01 X55.1766 Y69.2367
G01 X55.1563 Y69.1558
G01 X55.1441 Y69.0733
G01 X55.1400 Y68.9900
G01 X55.1441 Y68.9067
G01 X55.1563 Y68.8242
G01 X55.1766 Y68.7433
G01 X55.2047 Y68.6647
G01 X55.2404 Y68.5893
G01 X55.2833 Y68.5178
G01 X55.3329 Y68.4508
G01 X55.3890 Y68.3890
G01 X55.4508 Y68.3329
G01 X55.5178 Y68.2833
G01 X55.5893 Y68.2404
G00 Z2.0000
G00 X55.5904 Y70.7798
G01 F60.00
G01 Z-0.1000
G01 F120.00
G01 X55.6647 Y70.7447
G01 X55.7433 Y70.7166
G01 X55.8242 Y70.6963
G01 X55.9067 Y70.6841
G01 X55.9900 Y70.6800
G01 X56.0733 Y70.6841
G01 X56.1558 Y70.6963
G01 X56.2367 Y70.7166
G01 X56.3153 Y70.7447
G01 X56.3907 Y70.7804
G01 X56.4622 Y70.8233
G01 X56.5292 Y70.8729
G01 X56.5910 Y70.9290
G01 X56.6471 Y70.9908
G01 X56.6967 Y71.0578
G01 X56.7396 Y71.1293
G01 X56.7753 Y71.2047
G01 X56.8034 Y71.2833
G01 X56.8237 Y71.3642
G01 X56.8359 Y71.4467
G01 X56.8400 Y71.5300
G01 X56.8359 Y71.6133
G01 X56.8237 Y71.6958
G01 X56.8034 Y71.7767
G01 X56.7753 Y71.8553
G01 X56.7396 Y71.9307
G01 X56.6967 Y72.0022
G01 X56.6471 Y72.0692
G01 X56.5910 Y72.1310
G01 X56.5292 Y72.1871
G01 X56.4622 Y72.2367
G01 X56.3907 Y72.2796
G01 X56.3153 Y72.3153
G01 X56.2367 Y72.3434
G01 X56.1558 Y72.3637
G01 X56.0733 Y72.3759
G01 X55.9900 Y72.3800
G01 X55.9067 Y72.3759
G01 X55.8242 Y72.3637
G01 X55.7433 Y72.3434
G01 X55.6647 Y72.3153
G01 X55.5893 Y72.2796
G01 X55.5178 Y72.2367
G01 X55.4508 Y72.1871
G01 X55.3890 Y72.1310
G01 X55.3329 Y72.0692
G01 X55.2833 Y72.0022
G01 X55.2404 Y71.9307
G01 X55.2047 Y71.8553
G01 X55.1766 Y71.7767
G01 X55.1563 Y71.6958
G01 X55.1441 Y71.6133
G01 X55.1400 Y71.5300
G01 X55.1441 Y71.4467
G01 X55.1563 Y71.3642
G01 X55.1766 Y71.2833
G01 X55.2047 Y71.2047
G01 X55.2404 Y71.1293
G01 X55.2833 Y71.0578
G01 X55.3329 Y70.9908
G01 X55.3890 Y70.9290
G01 X55.4508 Y70.8729
G01 X55.5178 Y70.8233
G01 X55.5904 Y70.7798
G00 Z2.0000
G00 X70.3715 Y64.2807
G01 F60.00
G01 Z-0.1000
G01 F120.00
G01 X70.3800 Y64.2800
G01 X72.0800 Y64.2800
G01 X72.0898 Y64.2810
G01 X72.0991 Y64.2838
G01 X72.1078 Y64.2884
G01 X72.1154 Y64.2946
G01 X72.1216 Y64.3022
G01 X72.1262 Y64.3109
G01 X72.1290 Y64.3202
G01 X72.1300 Y64.3300
G01 X72.1300 Y66.0300
G01 X72.1290 Y66.0398
G01 X72.1262 Y66.0491
G01 X72.1216 Y66.0578
G01 X72.1154 Y66.0654
G01 X72.1078 Y66.0716
G01 X72.0991 Y66.0762
G01 X72.0898 Y66.0790
G01 X72.0800 Y66.0800
G01 X70.3800 Y66.0800
G01 X70.3702 Y66.0790
G01 X70.3609 Y66.0762
G01 X70.3522 Y66.0716
G01 X70.3446 Y66.0654
G01 X70.3384 Y66.0578
G01 X70.3338 Y66.0491
G01 X70.3310 Y66.0398
G01 X70.3300 Y66.0300
G01 X70.3300 Y64.3288
G01 X70.3310 Y64.3202
G01 X70.3334 Y64.3120
G01 X70.3371 Y64.3043
G01 X70.3421 Y64.2973
G01 X70.3483 Y64.2913
G01 X70.3554 Y64.2865
G01 X70.3632 Y64.2829
G01 X70.3715 Y64.2807
G00 Z2.0000
G00 X70.8068 Y61.8457
G01 F60.00
G01 Z-0.1000
G01 F120.00
G01 X70.8856 Y61.8085
G01 X70.9687 Y61.7788
G01 X71.0544 Y61.7573
G01 X71.1418 Y61.7443
G01 X71.2300 Y61.7400
G01 X71.3182 Y61.7443
G01 X71.4056 Y61.7573
G01 X71.4913 Y61.7788
G01 X71.5744 Y61.8085
G01 X71.6543 Y61.8463
G01 X71.7300 Y61.8917
G01 X71.8010 Y61.9443
G01 X71.8664 Y62.0036
G01 X71.9257 Y62.0690
G01 X71.9783 Y62.1400
G01 X72.0237 Y62.2157
G01 X72.0615 Y62.2956
G01 X72.0912 Y62.3787
G01 X72.1127 Y62.4644
G01 X72.1257 Y62.5518
G01 X72.1300 Y62.6400
G01 X72.1257 Y62.7282
G01 X72.1127 Y62.8156
G01 X72.0912 Y62.9013
G01 X72.0615 Y62.9844
G01 X72.0237 Y63.0643
G01 X71.9783 Y63.1400
G01 X71.9257 Y63.2110
G01 X71.8664 Y63.2764
G01 X71.8010 Y63.3357
G01 X71.7300 Y63.3883
G01 X71.6543 Y63.4337
G01 X71.5744 Y63.4715
G01 X71.4913 Y63.5012
G01 X71.4056 Y63.5227
G01 X71.3182 Y63.5357
G01 X71.2300 Y63.5400
G01 X71.1418 Y63.5357
G01 X71.0544 Y63.5227
G01 X70.9687 Y63.5012
G01 X70.8856 Y63.4715
G01 X70.8057 Y63.4337
G01 X70.7300 Y63.3883
G01 X70.6590 Y63.3357
G01 X70.5936 Y63.2764
G01 X70.5343 Y63.2110
G01 X70.4817 Y63.1400
G01 X70.4363 Y63.0643
G01 X70.3985 Y62.9844
G01 X70.3688 Y62.9013
G01 X70.3473 Y62.8156
G01 X70.3343 Y62.7282
G01 X70.3300 Y62.6400
G01 X70.3343 Y62.5518
G01 X70.3473 Y62.4644
G01 X70.3688 Y62.3787
G01 X70.3985 Y62.2956
G01 X70.4363 Y62.2157
G01 X70.4817 Y62.1400
G01 X70.5343 Y62.0690
G01 X70.5936 Y62.0036
G01 X70.6590 Y61.9443
G01 X70.7300 Y61.8917
G01 X70.8068 Y61.8457
G00 Z2.0000
G00 X70.7957 Y57.1963
G01 F60.00
G01 Z-0.1000
G01 F120.00
G01 X70.8756 Y57.1585
G01 X70.9587 Y57.1288
G01 X71.0444 Y57.1073
G01 X71.1318 Y57.0943
G01 X71.2200 Y57.0900
G01 X71.3082 Y57.0943
G01 X71.3956 Y57.1073
G01 X71.4813 Y57.1288
G01 X71.5644 Y57.1585
G01 X71.6443 Y57.1963
G01 X71.7200 Y57.2417
G01 X71.7910 Y57.2943
G01 X71.8564 Y57.3536
G01 X71.9157 Y57.4190
G01 X71.9683 Y57.4900
G01 X72.0137 Y57.5657
G01 X72.0515 Y57.6456
G01 X72.0812 Y57.7287
G01 X72.1027 Y57.8144
G01 X72.1157 Y57.9018
G01 X72.1200 Y57.9900
G01 X72.1157 Y58.0782
G01 X72.1027 Y58.1656
G01 X72.0812 Y58.2513
G01 X72.0515 Y58.3344
G01 X72.0137 Y58.4143
G01 X71.9683 Y58.4900
G01 X71.9157 Y58.5610
G01 X71.8564 Y58.6264
G01 X71.7910 Y58.6857
G01 X71.7200 Y58.7383
G01 X71.6443 Y58.7837
G01 X71.5644 Y58.8215
G01 X71.4813 Y58.8512
G01 X71.3956 Y58.8727
G01 X71.3082 Y58.8857
G01 X71.2200 Y58.8900
G01 X71.1318 Y58.8857
G01 X71.0444 Y58.8727
G01 X70.9587 Y58.8512
G01 X70.8756 Y58.8215
G01 X70.7957 Y58.7837
G01 X70.7200 Y58.7383
G01 X70.6490 Y58.6857
G01 X70.5836 Y58.6264
G01 X70.5243 Y58.5610
G01 X70.4717 Y58.4900
G01 X70.4263 Y58.4143
G01 X70.3885 Y58.3344
G01 X70.3588 Y58.2513
G01 X70.3373 Y58.1656
G01 X70.3243 Y58.0782
G01 X70.3200 Y57.9900
G01 X70.3243 Y57.9018
G01 X70.3373 Y57.8144
G01 X70.3588 Y57.7287
G01 X70.3885 Y57.6456
G01 X70.4263 Y57.5657
G01 X70.4717 Y57.4900
G01 X70.5243 Y57.4190
G01 X70.5836 Y57.3536
G01 X70.6490 Y57.2943
G01 X70.7200 Y57.2417
G01 X70.7957 Y57.1963
G00 Z2.0000
G00 X73.3357 Y57.1963
G01 F60.00
G01 Z-0.1000
G01 F120.00
G01 X73.4156 Y57.1585
G01 X73.4987 Y57.1288
G01 X73.5844 Y57.1073
G01 X73.6718 Y57.0943
G01 X73.7600 Y57.0900
G01 X73.8482 Y57.0943
G01 X73.9356 Y57.1073
G01 X74.0213 Y57.1288
G01 X74.1044 Y57.1585
G01 X74.1843 Y57.1963
G01 X74.2600 Y57.2417
G01 X74.3310 Y57.2943
G01 X74.3964 Y57.3536
G01 X74.4557 Y57.4190
G01 X74.5083 Y57.4900
G01 X74.5537 Y57.5657
G01 X74.5915 Y57.6456
G01 X74.6212 Y57.7287
G01 X74.6427 Y57.8144
G01 X74.6557 Y57.9018
G01 X74.6600 Y57.9900
G01 X74.6557 Y58.0782
G01 X74.6427 Y58.1656
G01 X74.6212 Y58.2513
G01 X74.5915 Y58.3344
G01 X74.5537 Y58.4143
G01 X74.5083 Y58.4900
G01 X74.4557 Y58.5610
G01 X74.3964 Y58.6264
G01 X74.3310 Y58.6857
G01 X74.2600 Y58.7383
G01 X74.1843 Y58.7837
G01 X74.1044 Y58.8215
G01 X74.0213 Y58.8512
G01 X73.9356 Y58.8727
G01 X73.8482 Y58.8857
G01 X73.7600 Y58.8900
G01 X73.6718 Y58.8857
G01 X73.5844 Y58.8727
G01 X73.4987 Y58.8512
G01 X73.4156 Y58.8215
G01 X73.3357 Y58.7837
G01 X73.2600 Y58.7383
G01 X73.1890 Y58.6857
G01 X73.1236 Y58.6264
G01 X73.0643 Y58.5610
G01 X73.0117 Y58.4900
G01 X72.9663 Y58.4143
G01 X72.9285 Y58.3344
G01 X72.8988 Y58.2513
G01 X72.8773 Y58.1656
G01 X72.8643 Y58.0782
G01 X72.8600 Y57.9900
G01 X72.8643 Y57.9018
G01 X72.8773 Y57.8144
G01 X72.8988 Y57.7287
G01 X72.9285 Y57.6456
G01 X72.9663 Y57.5657
G01 X73.0117 Y57.4900
G01 X73.0643 Y57.4190
G01 X73.1236 Y57.3536
G01 X73.1890 Y57.2943
G01 X73.2600 Y57.2417
G01 X73.3357 Y57.1963
G00 Z2.0000
G00 X75.8757 Y57.1963
G01 F60.00
G01 Z-0.1000
G01 F120.00
G01 X75.9556 Y57.1585
G01 X76.0387 Y57.1288
G01 X76.1244 Y57.1073
G01 X76.2118 Y57.0943
G01 X76.3000 Y57.0900
G01 X76.3882 Y57.0943
G01 X76.4756 Y57.1073
G01 X76.5613 Y57.1288
G01 X76.6444 Y57.1585
G01 X76.7243 Y57.1963
G01 X76.8000 Y57.2417
G01 X76.8710 Y57.2943
G01 X76.9364 Y57.3536
G01 X76.9957 Y57.4190
G01 X77.0483 Y57.4900
G01 X77.0937 Y57.5657
G01 X77.1315 Y57.6456
G01 X77.1612 Y57.7287
G01 X77.1827 Y57.8144
G01 X77.1957 Y57.9018
G01 X77.2000 Y57.9900
G01 X77.1957 Y58.0782
G01 X77.1827 Y58.1656
G01 X77.1612 Y58.2513
G01 X77.1315 Y58.3344
G01 X77.0937 Y58.4143
G01 X77.0483 Y58.4900
G01 X76.9957 Y58.5610
G01 X76.9364 Y58.6264
G01 X76.8710 Y58.6857
G01 X76.8000 Y58.7383
G01 X76.7243 Y58.7837
G01 X76.6444 Y58.8215
G01 X76.5613 Y58.8512
G01 X76.4756 Y58.8727
G01 X76.3882 Y58.8857
G01 X76.3000 Y58.8900
G01 X76.2118 Y58.8857
G01 X76.1244 Y58.8727
G01 X76.0387 Y58.8512
G01 X75.9556 Y58.8215
G01 X75.8757 Y58.7837
G01 X75.8000 Y58.7383
G01 X75.7290 Y58.6857
G01 X75.6636 Y58.6264
G01 X75.6043 Y58.5610
G01 X75.5517 Y58.4900
G01 X75.5063 Y58.4143
G01 X75.4685 Y58.3344
G01 X75.4388 Y58.2513
G01 X75.4173 Y58.1656
G01 X75.4043 Y58.0782
G01 X75.4000 Y57.9900
G01 X75.4043 Y57.9018
G01 X75.4173 Y57.8144
G01 X75.4388 Y57.7287
G01 X75.4685 Y57.6456
G01 X75.5063 Y57.5657
G01 X75.5517 Y57.4900
G01 X75.6043 Y57.4190
G01 X75.6636 Y57.3536
G01 X75.7290 Y57.2943
G01 X75.8000 Y57.2417
G01 X75.8757 Y57.1963
G00 Z2.0000
G00 X77.9815 Y57.0907
G01 F60.00
G01 Z-0.1000
G01 F120.00
G01 X77.9900 Y57.0900
G01 X79.6900 Y57.0900
G01 X79.6998 Y57.0910
G01 X79.7091 Y57.0938
G01 X79.7178 Y57.0984
G01 X79.7254 Y57.1046
G01 X79.7316 Y57.1122
G01 X79.7362 Y57.1209
G01 X79.7390 Y57.1302
G01 X79.7400 Y57.1400
G01 X79.7400 Y58.8400
G01 X79.7390 Y58.8498
G01 X79.7362 Y58.8591
G01 X79.7316 Y58.8678
G01 X79.7254 Y58.8754
G01 X79.7178 Y58.8816
G01 X79.7091 Y58.8862
G01 X79.6998 Y58.8890
G01 X79.6900 Y58.8900
G01 X77.9900 Y58.8900
G01 X77.9802 Y58.8890
G01 X77.9709 Y58.8862
G01 X77.9622 Y58.8816
G01 X77.9546 Y58.8754
G01 X77.9484 Y58.8678
G01 X77.9438 Y58.8591
G01 X77.9410 Y58.8498
G01 X77.9400 Y58.8400
G01 X77.9400 Y57.1388
G01 X77.9410 Y57.1302
G01 X77.9434 Y57.1220
G01 X77.9471 Y57.1143
G01 X77.9521 Y57.1073
G01 X77.9583 Y57.1013
G01 X77.9654 Y57.0965
G01 X77.9732 Y57.0929
G01 X77.9815 Y57.0907
G00 Z2.0000
G00 X81.8015 Y57.0907
G01 F60.00
G01 Z-0.1000
G01 F120.00
G01 X81.8100 Y57.0900
G01 X83.5100 Y57.0900
G01 X83.5198 Y57.0910
G01 X83.5291 Y57.0938
G01 X83.5378 Y57.0984
G01 X83.5454 Y57.1046
G01 X83.5516 Y57.1122
G01 X83.5562 Y57.1209
G01 X83.5590 Y57.1302
G01 X83.5600 Y57.1400
G01 X83.5600 Y58.8400
G01 X83.5590 Y58.8498
G01 X83.5562 Y58.8591
G01 X83.5516 Y58.8678
G01 X83.5454 Y58.8754
G01 X83.5378 Y58.8816
G01 X83.5291 Y58.8862
G01 X83.5198 Y58.8890
G01 X83.5100 Y58.8900
G01 X81.8100 Y58.8900
G01 X81.8002 Y58.8890
G01 X81.7909 Y58.8862
G01 X81.7822 Y58.8816
G01 X81.7746 Y58.8754
G01 X81.7684 Y58.8678
G01 X81.7638 Y58.8591
G01 X81.7610 Y58.8498
G01 X81.7600 Y58.8400
G01 X81.7600 Y57.1388
G01 X81.7610 Y57.1302
G01 X81.7634 Y57.1220
G01 X81.7671 Y57.1143
G01 X81.7721 Y57.1073
G01 X81.7783 Y57.1013
G01 X81.7854 Y57.0965
G01 X81.7932 Y57.0929
G01 X81.8015 Y57.0907
G00 Z2.0000
G00 X84.7757 Y57.1963
G01 F60.00
G01 Z-0.1000
G01 F120.00
G01 X84.8556 Y57.1585
G01 X84.9387 Y57.1288
G01 X85.0244 Y57.1073
G01 X85.1118 Y57.0943
G01 X85.2000 Y57.0900
G01 X85.2882 Y57.0943
G01 X85.3756 Y57.1073
G01 X85.4613 Y57.1288
G01 X85.5444 Y57.1585
G01 X85.6243 Y57.1963
G01 X85.7000 Y57.2417
G01 X85.7710 Y57.2943
G01 X85.8364 Y57.3536
G01 X85.8957 Y57.4190
G01 X85.9483 Y57.4900
G01 X85.9937 Y57.5657
G01 X86.0315 Y57.6456
G01 X86.0612 Y57.7287
G01 X86.0827 Y57.8144
G01 X86.0957 Y57.9018
G01 X86.1000 Y57.9900
G01 X86.0957 Y58.0782
G01 X86.0827 Y58.1656
G01 X86.0612 Y58.2513
G01 X86.0315 Y58.3344
G01 X85.9937 Y58.4143
G01 X85.9483 Y58.4900
G01 X85.8957 Y58.5610
G01 X85.8364 Y58.6264
G01 X85.7710 Y58.6857
G01 X85.7000 Y58.7383
G01 X85.6243 Y58.7837
G01 X85.5444 Y58.8215
G01 X85.4613 Y58.8512
G01 X85.3756 Y58.8727
G01 X85.2882 Y58.8857
G01 X85.2000 Y58.8900
G01 X85.1118 Y58.8857
G01 X85.0244 Y58.8727
G01 X84.9387 Y58.8512
G01 X84.8556 Y58.8215
G01 X84.7757 Y58.7837
G01 X84.7000 Y58.7383
G01 X84.6290 Y58.6857
G01 X84.5636 Y58.6264
G01 X84.5043 Y58.5610
G01 X84.4517 Y58.4900
G01 X84.4063 Y58.4143
G01 X84.3685 Y58.3344
G01 X84.3388 Y58.2513
G01 X84.3173 Y58.1656
G01 X84.3043 Y58.0782
G01 X84.3000 Y57.9900
G01 X84.3043 Y57.9018
G01 X84.3173 Y57.8144
G01 X84.3388 Y57.7287
G01 X84.3685 Y57.6456
G01 X84.4063 Y57.5657
G01 X84.4517 Y57.4900
G01 X84.5043 Y57.4190
G01 X84.5636 Y57.3536
G01 X84.6290 Y57.2943
G01 X84.7000 Y57.2417
G01 X84.7757 Y57.1963
G00 Z2.0000
G00 X87.3157 Y57.1963
G01 F60.00
G01 Z-0.1000
G01 F120.00
G01 X87.3956 Y57.1585
G01 X87.4787 Y57.1288
G01 X87.5644 Y57.1073
G01 X87.6518 Y57.0943
G01 X87.7400 Y57.0900
G01 X87.8282 Y57.0943
G01 X87.9156 Y57.1073
G01 X88.0013 Y57.1288
G01 X88.0844 Y57.1585
G01 X88.1643 Y57.1963
G01 X88.2400 Y57.2417
G01 X88.3110 Y57.2943
G01 X88.3764 Y57.3536
G01 X88.4357 Y57.4190
G01 X88.4883 Y57.4900
G01 X88.5337 Y57.5657
G01 X88.5715 Y57.6456
G01 X88.6012 Y57.7287
G01 X88.6227 Y57.8144
G01 X88.6357 Y57.9018
G01 X88.6400 Y57.9900
G01 X88.6357 Y58.0782
G01 X88.6227 Y58.1656
G01 X88.6012 Y58.2513
G01 X88.5715 Y58.3344
G01 X88.5337 Y58.4143
G01 X88.4883 Y58.4900
G01 X88.4357 Y58.5610
G01 X88.3764 Y58.6264
G01 X88.3110 Y58.6857
G01 X88.2400 Y58.7383
G01 X88.1643 Y58.7837
G01 X88.0844 Y58.8215
G01 X88.0013 Y58.8512
G01 X87.9156 Y58.8727
G01 X87.8282 Y58.8857
G01 X87.7400 Y58.8900
G01 X87.6518 Y58.8857
G01 X87.5644 Y58.8727
G01 X87.4787 Y58.8512
G01 X87.3956 Y58.8215
G01 X87.3157 Y58.7837
G01 X87.2400 Y58.7383
G01 X87.1690 Y58.6857
G01 X87.1036 Y58.6264
G01 X87.0443 Y58.5610
G01 X86.9917 Y58.4900
G01 X86.9463 Y58.4143
G01 X86.9085 Y58.3344
G01 X86.8788 Y58.2513
G01 X86.8573 Y58.1656
G01 X86.8443 Y58.0782
G01 X86.8400 Y57.9900
G01 X86.8443 Y57.9018
G01 X86.8573 Y57.8144
G01 X86.8788 Y57.7287
G01 X86.9085 Y57.6456
G01 X86.9463 Y57.5657
G01 X86.9917 Y57.4900
G01 X87.0443 Y57.4190
G01 X87.1036 Y57.3536
G01 X87.1690 Y57.2943
G01 X87.2400 Y57.2417
G01 X87.3157 Y57.1963
G00 Z2.0000
G00 X89.8557 Y57.1963
G01 F60.00
G01 Z-0.1000
G01 F120.00
G01 X89.9356 Y57.1585
G01 X90.0187 Y57.1288
G01 X90.1044 Y57.1073
G01 X90.1918 Y57.0943
G01 X90.2800 Y57.0900
G01 X90.3682 Y57.0943
G01 X90.4556 Y57.1073
G01 X90.5413 Y57.1288
G01 X90.6244 Y57.1585
G01 X90.7043 Y57.1963
G01 X90.7800 Y57.2417
G01 X90.8510 Y57.2943
G01 X90.9164 Y57.3536
G01 X90.9757 Y57.4190
G01 X91.0283 Y57.4900
G01 X91.0737 Y57.5657
G01 X91.1115 Y57.6456
G01 X91.1412 Y57.7287
G01 X91.1627 Y57.8144
G01 X91.1757 Y57.9018
G01 X91.1800 Y57.9900
G01 X91.1757 Y58.0782
G01 X91.1627 Y58.1656
G01 X91.1412 Y58.2513
G01 X91.1115 Y58.3344
G01 X91.0737 Y58.4143
G01 X91.0283 Y58.4900
G01 X90.9757 Y58.5610
G01 X90.9164 Y58.6264
G01 X90.8510 Y58.6857
G01 X90.7800 Y58.7383
G01 X90.7043 Y58.7837
G01 X90.6244 Y58.8215
G01 X90.5413 Y58.8512
G01 X90.4556 Y58.8727
G01 X90.3682 Y58.8857
G01 X90.2800 Y58.8900
G01 X90.1918 Y58.8857
G01 X90.1044 Y58.8727
G01 X90.0187 Y58.8512
G01 X89.9356 Y58.8215
G01 X89.8557 Y58.7837
