(G-CODE GENERATED BY FLATCAM v8.994 - www.flatcam.org - Version Date: 2020/11/7)

(Name: nanoRIghtAux-B_Cu.gbr_iso_combined_cnc)
(Type: G-code from Geometry)
(Units: MM)

(Created on Tuesday, 20 June 2023 at 20:46)

(This preprocessor is the default preprocessor used by FlatCAM.)
(It is made to work with MACH3 compatible motion controllers.)

(TOOL DIAMETER: 0.2 mm)
(Feedrate_XY: 120.0 mm/min)
(Feedrate_Z: 60.0 mm/min)
(Feedrate rapids 1500.0 mm/min)

(Z_Cut: -0.09999999999999892 mm)
(Z_Move: 2.0 mm)
(Z Start: None mm)
(Z End: 15.0 mm)
(X,Y End: None mm)
(Steps per circle: 64)
(Preprocessor Geometry: default)

(X range:   17.7905 ...  103.0795  mm)
(Y range:   19.3605 ...   88.1395  mm)

(Spindle Speed: 0.0 RPM)
G21
G90
G94

G01 F120.00

M5
G00 Z15.0000
G00 X0.0000 Y0.0000
T2
M6    
(MSG, Change to Tool Dia = 0.2000)
M0
G00 Z15.0000

M03
G01 F120.00
G00 X23.3029 Y22.2399
G01 F60.00
G01 Z-0.1000
G01 F120.00
G01 X23.4332 Y22.4785
G01 X23.5282 Y22.7332
G01 X23.5860 Y22.9988
G01 X23.6054 Y23.2700
G01 X23.5860 Y23.5412
G01 X23.5282 Y23.8068
G01 X23.4332 Y24.0615
G01 X23.3029 Y24.3001
G01 X23.1400 Y24.5178
G01 X22.9477 Y24.7100
G01 X22.7301 Y24.8729
G01 X22.4915 Y25.0032
G01 X22.2368 Y25.0982
G01 X21.9712 Y25.1560
G01 X21.7679 Y25.1705
G01 X21.6321 Y25.1705
G01 X21.4288 Y25.1560
G01 X21.1632 Y25.0982
G01 X20.9085 Y25.0032
G01 X20.6699 Y24.8729
G01 X20.4522 Y24.7100
G01 X20.2600 Y24.5177
G01 X20.0971 Y24.3001
G01 X19.9668 Y24.0615
G01 X19.8718 Y23.8068
G01 X19.8140 Y23.5412
G01 X19.7946 Y23.2700
G01 X19.8140 Y22.9988
G01 X19.8718 Y22.7332
G01 X19.9668 Y22.4785
G01 X20.0971 Y22.2399
G01 X20.2600 Y22.0223
G01 X20.4523 Y21.8300
G01 X20.6699 Y21.6671
G01 X20.9085 Y21.5368
G01 X21.1632 Y21.4418
G01 X21.4288 Y21.3840
G01 X21.6321 Y21.3695
G01 X21.7679 Y21.3695
G01 X21.9712 Y21.3840
G01 X22.2368 Y21.4418
G01 X22.4915 Y21.5368
G01 X22.7301 Y21.6671
G01 X22.9478 Y21.8300
G01 X23.1400 Y22.0223
G01 X23.3029 Y22.2399
G00 Z2.0000
G00 X26.3413 Y32.4001
G01 F60.00
G01 Z-0.1000
G01 F120.00
G01 X26.3367 Y32.3914
G01 X26.3179 Y32.3516
G01 X26.3029 Y32.3099
G01 X26.3000 Y32.3005
G01 X26.2894 Y32.2576
G01 X26.2828 Y32.2139
G01 X26.2818 Y32.2041
G01 X26.2798 Y32.1600
G01 X26.2798 Y28.3500
G01 X26.2822 Y28.3010
G01 X26.2894 Y28.2524
G01 X26.3013 Y28.2048
G01 X26.3179 Y28.1586
G01 X26.3389 Y28.1142
G01 X26.3641 Y28.0721
G01 X26.3933 Y28.0327
G01 X26.4263 Y27.9963
G01 X28.9681 Y25.4546
G01 X29.0027 Y25.4233
G01 X29.0421 Y25.3941
G01 X29.0842 Y25.3689
G01 X29.1286 Y25.3479
G01 X29.1748 Y25.3313
G01 X29.2224 Y25.3194
G01 X29.2710 Y25.3122
G01 X29.3151 Y25.3099
G01 X84.3934 Y25.3098
G01 X84.4115 Y25.2802
G01 X84.4641 Y25.2092
G01 X84.5249 Y25.1418
G01 X84.5300 Y25.1365
G01 X84.5973 Y25.0756
G01 X84.6682 Y25.0229
G01 X84.6764 Y25.0175
G01 X84.7543 Y24.9711
G01 X84.8365 Y24.9323
G01 X84.9196 Y24.9024
G01 X84.9290 Y24.8996
G01 X85.0147 Y24.8783
G01 X85.1020 Y24.8652
G01 X85.1118 Y24.8642
G01 X85.2000 Y24.8600
G01 X85.2882 Y24.8642
G01 X85.2980 Y24.8652
G01 X85.3805 Y24.8774
G01 X85.3901 Y24.8793
G01 X85.4758 Y24.9009
G01 X85.5635 Y24.9323
G01 X85.6478 Y24.9722
G01 X85.7236 Y25.0175
G01 X85.7318 Y25.0229
G01 X85.7988 Y25.0726
G01 X85.8064 Y25.0788
G01 X85.8718 Y25.1382
G01 X85.9344 Y25.2073
G01 X85.9899 Y25.2822
G01 X86.0354 Y25.3579
G01 X86.0400 Y25.3666
G01 X86.0757 Y25.4420
G01 X86.0795 Y25.4510
G01 X86.1091 Y25.5342
G01 X86.1317 Y25.6247
G01 X86.1448 Y25.7120
G01 X86.1458 Y25.7218
G01 X86.1500 Y25.8100
G01 X86.1458 Y25.8982
G01 X86.1448 Y25.9080
G01 X86.1317 Y25.9953
G01 X86.1104 Y26.0810
G01 X86.1076 Y26.0904
G01 X86.0777 Y26.1735
G01 X86.0378 Y26.2578
G01 X85.9899 Y26.3378
G01 X85.9359 Y26.4108
G01 X85.9312 Y26.4164
G01 X85.8718 Y26.4818
G01 X85.8046 Y26.5428
G01 X85.7988 Y26.5474
G01 X85.7298 Y26.5985
G01 X85.7006 Y26.6163
G01 X85.7003 Y26.8729
G01 X87.9472 Y29.1198
G01 X94.0900 Y29.1198
G01 X94.1341 Y29.1218
G01 X94.1439 Y29.1228
G01 X94.1876 Y29.1294
G01 X94.2305 Y29.1400
G01 X94.2399 Y29.1429
G01 X94.2814 Y29.1579
G01 X94.3258 Y29.1789
G01 X94.3679 Y29.2041
G01 X94.4035 Y29.2303
G01 X94.4110 Y29.2365
G01 X94.4437 Y29.2663
G01 X95.7154 Y30.5381
G01 X95.7467 Y30.5727
G01 X95.7731 Y30.6081
G01 X95.7785 Y30.6163
G01 X95.8011 Y30.6542
G01 X95.8221 Y30.6984
G01 X95.8371 Y30.7401
G01 X95.8400 Y30.7495
G01 X95.8506 Y30.7924
G01 X95.8578 Y30.8410
G01 X95.8602 Y30.8900
G01 X95.8602 Y38.9734
G01 X95.8898 Y38.9915
G01 X95.9608 Y39.0441
G01 X96.0282 Y39.1049
G01 X96.0335 Y39.1100
G01 X96.0912 Y39.1736
G01 X96.0974 Y39.1812
G01 X96.1499 Y39.2522
G01 X96.1966 Y39.3300
G01 X96.2000 Y39.3366
G01 X96.2377 Y39.4165
G01 X96.2676 Y39.4996
G01 X96.2704 Y39.5090
G01 X96.2917 Y39.5947
G01 X96.3048 Y39.6820
G01 X96.3058 Y39.6918
G01 X96.3100 Y39.7775
G01 X96.3099 Y39.7849
G01 X96.3054 Y39.8731
G01 X96.2926 Y39.9605
G01 X96.2907 Y39.9701
G01 X96.2691 Y40.0558
G01 X96.2395 Y40.1390
G01 X96.2357 Y40.1480
G01 X96.1966 Y40.2300
G01 X96.1525 Y40.3036
G01 X96.1471 Y40.3118
G01 X96.0944 Y40.3827
G01 X96.0335 Y40.4500
G01 X95.9664 Y40.5112
G01 X95.9608 Y40.5159
G01 X95.8898 Y40.5685
G01 X95.8606 Y40.5863
G01 X95.8602 Y41.0501
G01 X95.8575 Y41.1015
G01 X95.8506 Y41.1476
G01 X95.8400 Y41.1905
G01 X95.8371 Y41.1999
G01 X95.8221 Y41.2414
G01 X95.8033 Y41.2814
G01 X95.7987 Y41.2901
G01 X95.7772 Y41.3258
G01 X95.7467 Y41.3673
G01 X95.7137 Y41.4037
G01 X94.6052 Y42.5122
G01 X94.6052 Y42.7834
G01 X94.6348 Y42.8015
G01 X94.7058 Y42.8541
G01 X94.7732 Y42.9149
G01 X94.7785 Y42.9200
G01 X94.8362 Y42.9836
G01 X94.8424 Y42.9912
G01 X94.8949 Y43.0622
G01 X94.9416 Y43.1400
G01 X94.9450 Y43.1466
G01 X94.9827 Y43.2265
G01 X95.0126 Y43.3096
G01 X95.0154 Y43.3190
G01 X95.0367 Y43.4047
G01 X95.0498 Y43.4920
G01 X95.0508 Y43.5018
G01 X95.0550 Y43.5875
G01 X95.0549 Y43.5949
G01 X95.0504 Y43.6831
G01 X95.0376 Y43.7705
G01 X95.0357 Y43.7801
G01 X95.0141 Y43.8658
G01 X94.9845 Y43.9490
G01 X94.9807 Y43.9580
G01 X94.9416 Y44.0400
G01 X94.8975 Y44.1136
G01 X94.8921 Y44.1218
G01 X94.8394 Y44.1927
G01 X94.7785 Y44.2600
G01 X94.7114 Y44.3212
G01 X94.7058 Y44.3259
G01 X94.6348 Y44.3785
G01 X94.6057 Y44.3963
G01 X94.6052 Y46.6024
G01 X94.6198 Y46.6115
G01 X94.6927 Y46.6656
G01 X94.7582 Y46.7249
G01 X94.7651 Y46.7318
G01 X94.8244 Y46.7973
G01 X94.8771 Y46.8682
G01 X94.8825 Y46.8764
G01 X94.9278 Y46.9521
G01 X94.9677 Y47.0365
G01 X94.9976 Y47.1196
G01 X95.0004 Y47.1290
G01 X95.0217 Y47.2147
G01 X95.0348 Y47.3020
G01 X95.0358 Y47.3118
G01 X95.0400 Y47.3975
G01 X95.0399 Y47.4049
G01 X95.0354 Y47.4931
G01 X95.0226 Y47.5805
G01 X95.0207 Y47.5901
G01 X94.9991 Y47.6758
G01 X94.9695 Y47.7590
G01 X94.9657 Y47.7680
G01 X94.9278 Y47.8478
G01 X94.8825 Y47.9236
G01 X94.8771 Y47.9318
G01 X94.8244 Y48.0027
G01 X94.7651 Y48.0682
G01 X94.7582 Y48.0751
G01 X94.6927 Y48.1344
G01 X94.6198 Y48.1885
G01 X94.6052 Y48.1976
G01 X94.6052 Y50.4034
G01 X94.6348 Y50.4215
G01 X94.7058 Y50.4741
G01 X94.7732 Y50.5349
G01 X94.7785 Y50.5400
G01 X94.8362 Y50.6036
G01 X94.8424 Y50.6112
G01 X94.8949 Y50.6822
G01 X94.9416 Y50.7600
G01 X94.9450 Y50.7666
G01 X94.9827 Y50.8465
G01 X95.0126 Y50.9296
G01 X95.0154 Y50.9390
G01 X95.0367 Y51.0247
G01 X95.0498 Y51.1120
G01 X95.0508 Y51.1218
G01 X95.0550 Y51.2075
G01 X95.0549 Y51.2149
G01 X95.0504 Y51.3031
G01 X95.0376 Y51.3905
G01 X95.0357 Y51.4001
G01 X95.0141 Y51.4858
G01 X94.9845 Y51.5690
G01 X94.9807 Y51.5780
G01 X94.9416 Y51.6600
G01 X94.8975 Y51.7336
G01 X94.8921 Y51.7418
G01 X94.8394 Y51.8127
G01 X94.7785 Y51.8800
G01 X94.7114 Y51.9412
G01 X94.7058 Y51.9459
G01 X94.6348 Y51.9985
G01 X94.6057 Y52.0163
G01 X94.6052 Y54.2134
G01 X94.6348 Y54.2315
G01 X94.7058 Y54.2841
G01 X94.7732 Y54.3449
G01 X94.7785 Y54.3500
G01 X94.8362 Y54.4136
G01 X94.8424 Y54.4212
G01 X94.8949 Y54.4922
G01 X94.9416 Y54.5700
G01 X94.9450 Y54.5766
G01 X94.9827 Y54.6565
G01 X95.0126 Y54.7396
G01 X95.0154 Y54.7490
G01 X95.0367 Y54.8347
G01 X95.0498 Y54.9220
G01 X95.0508 Y54.9318
G01 X95.0550 Y55.0175
G01 X95.0549 Y55.0249
G01 X95.0504 Y55.1131
G01 X95.0376 Y55.2005
G01 X95.0357 Y55.2101
G01 X95.0141 Y55.2958
G01 X94.9845 Y55.3790
G01 X94.9807 Y55.3880
G01 X94.9416 Y55.4700
G01 X94.8975 Y55.5436
G01 X94.8921 Y55.5518
G01 X94.8394 Y55.6227
G01 X94.7785 Y55.6900
G01 X94.7114 Y55.7512
G01 X94.7058 Y55.7559
G01 X94.6348 Y55.8085
G01 X94.6057 Y55.8263
G01 X94.6052 Y58.0324
G01 X94.6198 Y58.0415
G01 X94.6927 Y58.0956
G01 X94.7582 Y58.1549
G01 X94.7651 Y58.1618
G01 X94.8244 Y58.2273
G01 X94.8771 Y58.2982
G01 X94.8825 Y58.3064
G01 X94.9278 Y58.3821
G01 X94.9677 Y58.4665
G01 X94.9976 Y58.5496
G01 X95.0004 Y58.5590
G01 X95.0217 Y58.6447
G01 X95.0348 Y58.7320
G01 X95.0358 Y58.7418
G01 X95.0400 Y58.8275
G01 X95.0399 Y58.8349
G01 X95.0354 Y58.9231
G01 X95.0226 Y59.0105
G01 X95.0207 Y59.0201
G01 X94.9991 Y59.1058
G01 X94.9695 Y59.1890
G01 X94.9657 Y59.1980
G01 X94.9278 Y59.2778
G01 X94.8825 Y59.3536
G01 X94.8771 Y59.3618
G01 X94.8244 Y59.4327
G01 X94.7651 Y59.4982
G01 X94.7582 Y59.5051
G01 X94.6927 Y59.5644
G01 X94.6198 Y59.6185
G01 X94.6052 Y59.6276
G01 X94.6052 Y60.5724
G01 X94.6198 Y60.5815
G01 X94.6927 Y60.6356
G01 X94.7582 Y60.6949
G01 X94.7651 Y60.7018
G01 X94.8244 Y60.7673
G01 X94.8771 Y60.8382
G01 X94.8825 Y60.8464
G01 X94.9278 Y60.9221
G01 X94.9677 Y61.0065
G01 X94.9976 Y61.0896
G01 X95.0004 Y61.0990
G01 X95.0217 Y61.1847
G01 X95.0348 Y61.2720
G01 X95.0358 Y61.2818
G01 X95.0399 Y61.3651
G01 X95.0399 Y61.3749
G01 X95.0354 Y61.4631
G01 X95.0226 Y61.5505
G01 X95.0207 Y61.5601
G01 X94.9991 Y61.6458
G01 X94.9695 Y61.7290
G01 X94.9657 Y61.7380
G01 X94.9278 Y61.8178
G01 X94.8825 Y61.8936
G01 X94.8771 Y61.9018
G01 X94.8244 Y61.9727
G01 X94.7651 Y62.0382
G01 X94.7582 Y62.0451
G01 X94.6927 Y62.1044
G01 X94.6198 Y62.1585
G01 X94.6052 Y62.1676
G01 X94.6052 Y64.3784
G01 X94.6348 Y64.3965
G01 X94.7058 Y64.4491
G01 X94.7114 Y64.4538
G01 X94.7750 Y64.5115
G01 X94.7801 Y64.5168
G01 X94.8394 Y64.5823
G01 X94.8921 Y64.6532
G01 X94.8962 Y64.6593
G01 X94.9404 Y64.7329
G01 X94.9450 Y64.7416
G01 X94.9827 Y64.8215
G01 X95.0126 Y64.9046
G01 X95.0154 Y64.9140
G01 X95.0367 Y64.9997
G01 X95.0498 Y65.0870
G01 X95.0508 Y65.0968
G01 X95.0550 Y65.1850
G01 X95.0508 Y65.2732
G01 X95.0498 Y65.2830
G01 X95.0367 Y65.3703
G01 X95.0154 Y65.4560
G01 X95.0126 Y65.4654
G01 X94.9827 Y65.5485
G01 X94.9440 Y65.6306
G01 X94.8975 Y65.7086
G01 X94.8921 Y65.7168
G01 X94.8394 Y65.7877
G01 X94.7785 Y65.8550
G01 X94.7114 Y65.9162
G01 X94.7058 Y65.9209
G01 X94.6348 Y65.9735
G01 X94.6057 Y65.9913
G01 X94.6052 Y66.9184
G01 X94.6348 Y66.9365
G01 X94.7058 Y66.9891
G01 X94.7114 Y66.9938
G01 X94.7750 Y67.0515
G01 X94.7801 Y67.0568
G01 X94.8394 Y67.1223
G01 X94.8935 Y67.1952
G01 X94.8975 Y67.2014
G01 X94.9428 Y67.2771
G01 X94.9827 Y67.3615
G01 X95.0141 Y67.4492
G01 X95.0357 Y67.5349
G01 X95.0376 Y67.5445
G01 X95.0504 Y67.6319
G01 X95.0550 Y67.7250
G01 X95.0504 Y67.8181
G01 X95.0376 Y67.9055
G01 X95.0357 Y67.9151
G01 X95.0154 Y67.9960
G01 X95.0126 Y68.0054
G01 X94.9827 Y68.0885
G01 X94.9428 Y68.1728
G01 X94.8949 Y68.2528
G01 X94.8424 Y68.3238
G01 X94.8362 Y68.3314
G01 X94.7801 Y68.3932
G01 X94.7732 Y68.4001
G01 X94.7077 Y68.4594
G01 X94.6328 Y68.5149
G01 X94.5529 Y68.5628
G01 X94.4730 Y68.6007
G01 X94.4640 Y68.6045
G01 X94.3854 Y68.6326
G01 X94.3760 Y68.6354
G01 X94.2903 Y68.6567
G01 X94.1981 Y68.6704
G01 X94.1050 Y68.6750
G01 X94.0168 Y68.6708
G01 X94.0070 Y68.6698
G01 X93.9245 Y68.6576
G01 X93.9149 Y68.6557
G01 X93.8292 Y68.6341
G01 X93.7415 Y68.6027
G01 X93.6572 Y68.5628
G01 X93.5814 Y68.5175
G01 X93.5732 Y68.5121
G01 X93.5062 Y68.4624
G01 X93.4986 Y68.4562
G01 X93.4332 Y68.3968
G01 X93.3706 Y68.3277
G01 X93.3151 Y68.2528
G01 X93.2696 Y68.1771
G01 X93.2650 Y68.1684
G01 X93.2293 Y68.0930
G01 X93.2255 Y68.0840
G01 X93.1959 Y68.0008
G01 X93.1733 Y67.9103
G01 X93.1596 Y67.8181
G01 X93.1550 Y67.7275
G01 X93.1551 Y67.7201
G01 X93.1596 Y67.6319
G01 X93.1724 Y67.5445
G01 X93.1743 Y67.5349
G01 X93.1959 Y67.4492
G01 X93.2255 Y67.3660
G01 X93.2293 Y67.3570
G01 X93.2684 Y67.2750
G01 X93.3125 Y67.2014
G01 X93.3179 Y67.1932
G01 X93.3706 Y67.1223
G01 X93.4315 Y67.0550
G01 X93.4986 Y66.9938
G01 X93.5042 Y66.9891
G01 X93.5752 Y66.9365
G01 X93.6043 Y66.9187
G01 X93.6048 Y65.9916
G01 X93.5752 Y65.9735
G01 X93.5042 Y65.9209
G01 X93.4368 Y65.8601
G01 X93.4315 Y65.8550
G01 X93.3738 Y65.7914
G01 X93.3676 Y65.7838
G01 X93.3151 Y65.7128
G01 X93.2684 Y65.6350
G01 X93.2650 Y65.6284
G01 X93.2273 Y65.5485
G01 X93.1974 Y65.4654
G01 X93.1946 Y65.4560
G01 X93.1733 Y65.3703
G01 X93.1602 Y65.2830
G01 X93.1592 Y65.2732
G01 X93.1550 Y65.1875
G01 X93.1551 Y65.1801
G01 X93.1596 Y65.0919
G01 X93.1724 Y65.0045
G01 X93.1743 Y64.9949
G01 X93.1959 Y64.9092
G01 X93.2255 Y64.8260
G01 X93.2293 Y64.8170
G01 X93.2684 Y64.7350
G01 X93.3125 Y64.6614
G01 X93.3179 Y64.6532
G01 X93.3706 Y64.5823
G01 X93.4315 Y64.5150
G01 X93.4986 Y64.4538
G01 X93.5042 Y64.4491
G01 X93.5752 Y64.3965
G01 X93.6043 Y64.3787
G01 X93.6048 Y62.1856
G01 X93.5602 Y62.1585
G01 X93.4892 Y62.1059
G01 X93.4218 Y62.0451
G01 X93.4165 Y62.0400
G01 X93.3588 Y61.9764
G01 X93.3526 Y61.9688
G01 X93.3001 Y61.8978
G01 X93.2534 Y61.8200
G01 X93.2500 Y61.8134
G01 X93.2123 Y61.7335
G01 X93.1824 Y61.6504
G01 X93.1796 Y61.6410
G01 X93.1583 Y61.5553
G01 X93.1452 Y61.4680
G01 X93.1442 Y61.4582
G01 X93.1400 Y61.3725
G01 X93.1401 Y61.3651
G01 X93.1446 Y61.2769
G01 X93.1574 Y61.1895
G01 X93.1593 Y61.1799
G01 X93.1809 Y61.0942
G01 X93.2105 Y61.0110
G01 X93.2143 Y61.0020
G01 X93.2534 Y60.9200
G01 X93.2975 Y60.8464
G01 X93.3029 Y60.8382
G01 X93.3556 Y60.7673
G01 X93.4165 Y60.7000
G01 X93.4836 Y60.6388
G01 X93.4892 Y60.6341
G01 X93.5602 Y60.5815
G01 X93.6048 Y60.5544
G01 X93.6048 Y59.6456
G01 X93.5602 Y59.6185
G01 X93.4892 Y59.5659
G01 X93.4218 Y59.5051
G01 X93.4165 Y59.5000
G01 X93.3588 Y59.4364
G01 X93.3526 Y59.4288
G01 X93.3001 Y59.3578
G01 X93.2534 Y59.2800
G01 X93.2500 Y59.2734
G01 X93.2123 Y59.1935
G01 X93.1824 Y59.1104
G01 X93.1796 Y59.1010
G01 X93.1583 Y59.0153
G01 X93.1452 Y58.9280
G01 X93.1442 Y58.9182
G01 X93.1400 Y58.8300
G01 X93.1442 Y58.7418
G01 X93.1452 Y58.7320
G01 X93.1583 Y58.6447
G01 X93.1796 Y58.5590
G01 X93.1824 Y58.5496
G01 X93.2123 Y58.4665
G01 X93.2500 Y58.3866
G01 X93.2534 Y58.3800
G01 X93.2975 Y58.3064
G01 X93.3029 Y58.2982
G01 X93.3556 Y58.2273
G01 X93.4165 Y58.1600
G01 X93.4836 Y58.0988
G01 X93.4892 Y58.0941
G01 X93.5602 Y58.0415
G01 X93.6048 Y58.0144
G01 X93.6048 Y55.8266
G01 X93.5752 Y55.8085
G01 X93.5042 Y55.7559
G01 X93.4368 Y55.6951
G01 X93.4315 Y55.6900
G01 X93.3738 Y55.6264
G01 X93.3676 Y55.6188
G01 X93.3151 Y55.5478
G01 X93.2684 Y55.4700
G01 X93.2650 Y55.4634
G01 X93.2273 Y55.3835
G01 X93.1974 Y55.3004
G01 X93.1946 Y55.2910
G01 X93.1733 Y55.2053
G01 X93.1602 Y55.1180
G01 X93.1592 Y55.1082
G01 X93.1550 Y55.0200
G01 X93.1592 Y54.9318
G01 X93.1602 Y54.9220
G01 X93.1733 Y54.8347
G01 X93.1946 Y54.7490
G01 X93.1974 Y54.7396
G01 X93.2273 Y54.6565
G01 X93.2650 Y54.5766
G01 X93.2684 Y54.5700
G01 X93.3125 Y54.4964
G01 X93.3179 Y54.4882
G01 X93.3706 Y54.4173
G01 X93.4315 Y54.3500
G01 X93.4986 Y54.2888
G01 X93.5042 Y54.2841
G01 X93.5752 Y54.2315
G01 X93.6043 Y54.2137
G01 X93.6048 Y52.0166
G01 X93.5752 Y51.9985
G01 X93.5042 Y51.9459
G01 X93.4368 Y51.8851
G01 X93.4315 Y51.8800
G01 X93.3738 Y51.8164
G01 X93.3676 Y51.8088
G01 X93.3151 Y51.7378
G01 X93.2684 Y51.6600
G01 X93.2650 Y51.6534
G01 X93.2273 Y51.5735
G01 X93.1974 Y51.4904
G01 X93.1946 Y51.4810
G01 X93.1733 Y51.3953
G01 X93.1602 Y51.3080
G01 X93.1592 Y51.2982
G01 X93.1550 Y51.2100
G01 X93.1592 Y51.1218
G01 X93.1602 Y51.1120
G01 X93.1733 Y51.0247
G01 X93.1946 Y50.9390
G01 X93.1974 Y50.9296
G01 X93.2273 Y50.8465
G01 X93.2650 Y50.7666
G01 X93.2684 Y50.7600
G01 X93.3125 Y50.6864
G01 X93.3179 Y50.6782
G01 X93.3706 Y50.6073
G01 X93.4315 Y50.5400
G01 X93.4986 Y50.4788
G01 X93.5042 Y50.4741
G01 X93.5752 Y50.4215
G01 X93.6043 Y50.4037
G01 X93.6048 Y48.2156
G01 X93.5602 Y48.1885
G01 X93.4892 Y48.1359
G01 X93.4218 Y48.0751
G01 X93.4165 Y48.0700
G01 X93.3588 Y48.0064
G01 X93.3526 Y47.9988
G01 X93.3001 Y47.9278
G01 X93.2534 Y47.8500
G01 X93.2500 Y47.8434
G01 X93.2123 Y47.7635
G01 X93.1824 Y47.6804
G01 X93.1796 Y47.6710
G01 X93.1583 Y47.5853
G01 X93.1452 Y47.4980
G01 X93.1442 Y47.4882
G01 X93.1400 Y47.4000
G01 X93.1442 Y47.3118
G01 X93.1452 Y47.3020
G01 X93.1583 Y47.2147
G01 X93.1796 Y47.1290
G01 X93.1824 Y47.1196
G01 X93.2123 Y47.0365
G01 X93.2500 Y46.9566
G01 X93.2534 Y46.9500
G01 X93.2975 Y46.8764
G01 X93.3029 Y46.8682
G01 X93.3556 Y46.7973
G01 X93.4165 Y46.7300
G01 X93.4836 Y46.6688
G01 X93.4892 Y46.6641
G01 X93.5602 Y46.6115
G01 X93.6048 Y46.5844
G01 X93.6048 Y44.3966
G01 X93.5752 Y44.3785
G01 X93.5042 Y44.3259
G01 X93.4368 Y44.2651
G01 X93.4315 Y44.2600
G01 X93.3706 Y44.1927
G01 X93.3179 Y44.1218
G01 X93.3125 Y44.1136
G01 X93.2661 Y44.0357
G01 X93.2273 Y43.9535
G01 X93.1974 Y43.8704
G01 X93.1946 Y43.8610
G01 X93.1733 Y43.7753
G01 X93.1602 Y43.6880
G01 X93.1592 Y43.6782
G01 X93.1550 Y43.5900
G01 X93.1594 Y43.4993
G01 X93.1602 Y43.4920
G01 X93.1733 Y43.4047
G01 X93.1946 Y43.3190
G01 X93.1974 Y43.3096
G01 X93.2273 Y43.2265
G01 X93.2650 Y43.1466
G01 X93.2696 Y43.1379
G01 X93.3138 Y43.0643
G01 X93.3179 Y43.0582
G01 X93.3706 Y42.9873
G01 X93.4299 Y42.9218
G01 X93.4350 Y42.9165
G01 X93.4986 Y42.8588
G01 X93.5042 Y42.8541
G01 X93.5752 Y42.8015
G01 X93.6044 Y42.7837
G01 X93.6048 Y42.3049
G01 X93.6072 Y42.2560
G01 X93.6144 Y42.2074
G01 X93.6250 Y42.1645
G01 X93.6279 Y42.1551
G01 X93.6429 Y42.1136
G01 X93.6617 Y42.0736
G01 X93.6663 Y42.0649
G01 X93.6878 Y42.0292
G01 X93.7183 Y41.9877
G01 X93.7513 Y41.9513
G01 X94.8598 Y40.8428
G01 X94.8598 Y40.5866
G01 X94.8302 Y40.5685
G01 X94.7592 Y40.5159
G01 X94.6918 Y40.4551
G01 X94.6865 Y40.4500
G01 X94.6288 Y40.3864
G01 X94.6226 Y40.3788
G01 X94.5701 Y40.3078
G01 X94.5234 Y40.2300
G01 X94.5200 Y40.2234
G01 X94.4823 Y40.1435
G01 X94.4524 Y40.0604
G01 X94.4496 Y40.0510
G01 X94.4283 Y39.9653
G01 X94.4152 Y39.8780
G01 X94.4142 Y39.8682
G01 X94.4100 Y39.7800
G01 X94.4142 Y39.6918
G01 X94.4152 Y39.6820
G01 X94.4283 Y39.5947
G01 X94.4496 Y39.5090
G01 X94.4524 Y39.4996
G01 X94.4823 Y39.4165
G01 X94.5200 Y39.3366
G01 X94.5234 Y39.3300
G01 X94.5675 Y39.2564
G01 X94.5729 Y39.2482
G01 X94.6256 Y39.1773
G01 X94.6865 Y39.1100
G01 X94.7536 Y39.0488
G01 X94.7592 Y39.0441
G01 X94.8302 Y38.9915
G01 X94.8593 Y38.9737
G01 X94.8598 Y31.0972
G01 X93.8828 Y30.1202
G01 X87.7400 Y30.1202
G01 X87.6910 Y30.1178
G01 X87.6424 Y30.1106
G01 X87.5948 Y30.0987
G01 X87.5486 Y30.0821
G01 X87.5042 Y30.0611
G01 X87.4621 Y30.0359
G01 X87.4227 Y30.0067
G01 X87.3863 Y29.9737
G01 X84.8463 Y27.4337
G01 X84.8133 Y27.3973
G01 X84.7869 Y27.3619
G01 X84.7815 Y27.3537
G01 X84.7589 Y27.3158
G01 X84.7379 Y27.2716
G01 X84.7229 Y27.2299
G01 X84.7200 Y27.2205
G01 X84.7094 Y27.1776
G01 X84.7028 Y27.1339
G01 X84.7018 Y27.1241
G01 X84.6998 Y27.0800
G01 X84.6998 Y26.6166
G01 X84.6702 Y26.5985
G01 X84.5992 Y26.5459
G01 X84.5936 Y26.5412
G01 X84.5282 Y26.4818
G01 X84.4688 Y26.4164
G01 X84.4641 Y26.4108
G01 X84.4115 Y26.3398
G01 X84.3937 Y26.3107
G01 X29.5272 Y26.3102
G01 X27.2802 Y28.5572
G01 X27.2802 Y31.9528
G01 X29.6737 Y34.3463
G01 X29.7067 Y34.3827
G01 X29.7359 Y34.4221
G01 X29.7611 Y34.4642
G01 X29.7821 Y34.5084
G01 X29.7987 Y34.5548
G01 X29.8106 Y34.6024
G01 X29.8178 Y34.6510
G01 X29.8202 Y34.6975
G01 X29.8202 Y36.4918
G01 X29.8871 Y36.5413
G01 X29.8947 Y36.5475
G01 X29.9564 Y36.6036
G01 X30.0125 Y36.6653
G01 X30.0187 Y36.6729
G01 X30.0683 Y36.7400
G01 X30.1137 Y36.8157
G01 X30.1495 Y36.8911
G01 X30.1533 Y36.9002
G01 X30.1812 Y36.9787
G01 X30.2016 Y37.0596
G01 X30.2035 Y37.0693
G01 X30.2157 Y37.1518
G01 X30.2200 Y37.2400
G01 X30.2157 Y37.3282
G01 X30.2035 Y37.4107
G01 X30.2016 Y37.4204
G01 X30.1812 Y37.5013
G01 X30.1533 Y37.5798
G01 X30.1495 Y37.5889
G01 X30.1137 Y37.6643
G01 X30.0709 Y37.7359
G01 X30.0655 Y37.7440
G01 X30.0157 Y37.8110
G01 X29.9598 Y37.8728
G01 X29.9528 Y37.8798
G01 X29.8910 Y37.9357
G01 X29.8240 Y37.9855
G01 X29.8180 Y37.9897
G01 X29.7443 Y38.0337
G01 X29.6644 Y38.0715
G01 X29.5813 Y38.1012
G01 X29.4956 Y38.1227
G01 X29.4082 Y38.1357
G01 X29.3200 Y38.1400
G01 X29.2318 Y38.1357
G01 X29.1444 Y38.1227
G01 X29.0587 Y38.1012
G01 X28.9756 Y38.0715
G01 X28.8957 Y38.0337
G01 X28.8200 Y37.9883
G01 X28.7490 Y37.9357
G01 X28.6836 Y37.8764
G01 X28.6243 Y37.8110
G01 X28.5745 Y37.7440
G01 X28.5703 Y37.7380
G01 X28.5263 Y37.6643
G01 X28.4885 Y37.5844
G01 X28.4588 Y37.5013
G01 X28.4384 Y37.4204
G01 X28.4365 Y37.4107
G01 X28.4249 Y37.3331
G01 X28.4240 Y37.3233
G01 X28.4200 Y37.2400
G01 X28.4243 Y37.1518
G01 X28.4373 Y37.0644
G01 X28.4588 Y36.9787
G01 X28.4885 Y36.8956
G01 X28.5241 Y36.8201
G01 X28.5287 Y36.8115
G01 X28.5717 Y36.7400
G01 X28.6213 Y36.6729
G01 X28.6275 Y36.6653
G01 X28.6802 Y36.6072
G01 X28.6872 Y36.6002
G01 X28.7490 Y36.5443
G01 X28.8198 Y36.4918
G01 X28.8198 Y34.9072
G01 X26.4263 Y32.5137
G01 X26.3965 Y32.4810
G01 X26.3903 Y32.4735
G01 X26.3641 Y32.4379
G01 X26.3413 Y32.4001
G00 Z2.0000
G00 X29.8015 Y31.8498
G01 F60.00
G01 Z-0.1000
G01 F120.00
G01 X29.7975 Y31.8436
G01 X29.7522 Y31.7679
G01 X29.7123 Y31.6835
G01 X29.6809 Y31.5958
G01 X29.6583 Y31.5053
G01 X29.6446 Y31.4131
G01 X29.6400 Y31.3200
G01 X29.6446 Y31.2269
G01 X29.6583 Y31.1347
G01 X29.6809 Y31.0442
G01 X29.7123 Y30.9565
G01 X29.7522 Y30.8722
G01 X29.8001 Y30.7922
G01 X29.8556 Y30.7173
G01 X29.9182 Y30.6482
G01 X29.9873 Y30.5856
G01 X30.0622 Y30.5301
G01 X30.1421 Y30.4822
G01 X30.2265 Y30.4423
G01 X30.3142 Y30.4109
G01 X30.4047 Y30.3883
G01 X30.4969 Y30.3746
G01 X30.5900 Y30.3700
G01 X30.6831 Y30.3746
G01 X30.7753 Y30.3883
G01 X30.8658 Y30.4109
G01 X30.9535 Y30.4423
G01 X31.0378 Y30.4822
G01 X31.1178 Y30.5301
G01 X31.1927 Y30.5856
G01 X31.2618 Y30.6482
G01 X31.3244 Y30.7173
G01 X31.3799 Y30.7922
G01 X31.4278 Y30.8721
G01 X31.4657 Y30.9520
G01 X31.4695 Y30.9610
G01 X31.4976 Y31.0396
G01 X31.5004 Y31.0490
G01 X31.5217 Y31.1347
G01 X31.5354 Y31.2269
G01 X31.5400 Y31.3200
G01 X31.5356 Y31.4107
G01 X31.5348 Y31.4180
G01 X31.5217 Y31.5053
G01 X31.5004 Y31.5910
G01 X31.4976 Y31.6004
G01 X31.4677 Y31.6835
G01 X31.4300 Y31.7634
G01 X31.4254 Y31.7721
G01 X31.3812 Y31.8457
G01 X31.3771 Y31.8518
G01 X31.3244 Y31.9227
G01 X31.2651 Y31.9882
G01 X31.2600 Y31.9935
G01 X31.1964 Y32.0512
G01 X31.1908 Y32.0559
G01 X31.1198 Y32.1085
G01 X31.0907 Y32.1263
G01 X31.0902 Y34.4928
G01 X32.2137 Y35.6163
G01 X32.2467 Y35.6527
G01 X32.2759 Y35.6921
G01 X32.2987 Y35.7299
G01 X32.3033 Y35.7386
G01 X32.3221 Y35.7786
G01 X32.3371 Y35.8201
G01 X32.3400 Y35.8295
G01 X32.3506 Y35.8724
G01 X32.3578 Y35.9210
G01 X32.3602 Y35.9700
G01 X32.3602 Y36.4918
G01 X32.4310 Y36.5443
G01 X32.4964 Y36.6036
G01 X32.5557 Y36.6690
G01 X32.6055 Y36.7360
G01 X32.6109 Y36.7441
G01 X32.6513 Y36.8115
G01 X32.6559 Y36.8201
G01 X32.6915 Y36.8956
G01 X32.7212 Y36.9787
G01 X32.7427 Y37.0644
G01 X32.7557 Y37.1518
G01 X32.7600 Y37.2400
G01 X32.7557 Y37.3282
G01 X32.7427 Y37.4156
G01 X32.7212 Y37.5013
G01 X32.6915 Y37.5844
G01 X32.6559 Y37.6599
G01 X32.6513 Y37.6685
G01 X32.6083 Y37.7400
G01 X32.5587 Y37.8071
G01 X32.5525 Y37.8147
G01 X32.4998 Y37.8728
G01 X32.4928 Y37.8798
G01 X32.4310 Y37.9357
G01 X32.3600 Y37.9883
G01 X32.2843 Y38.0337
G01 X32.2089 Y38.0695
G01 X32.2021 Y38.0724
G01 X32.1213 Y38.1012
G01 X32.0356 Y38.1227
G01 X31.9482 Y38.1357
G01 X31.8600 Y38.1400
G01 X31.7718 Y38.1357
G01 X31.6844 Y38.1227
G01 X31.5987 Y38.1012
G01 X31.5156 Y38.0715
G01 X31.4357 Y38.0337
G01 X31.3600 Y37.9883
G01 X31.2890 Y37.9357
G01 X31.2236 Y37.8764
G01 X31.1643 Y37.8110
G01 X31.1117 Y37.7400
G01 X31.0663 Y37.6643
G01 X31.0305 Y37.5889
G01 X31.0276 Y37.5821
G01 X30.9988 Y37.5013
G01 X30.9784 Y37.4204
G01 X30.9765 Y37.4107
G01 X30.9643 Y37.3282
G01 X30.9600 Y37.2400
G01 X30.9640 Y37.1567
G01 X30.9649 Y37.1469
G01 X30.9778 Y37.0620
G01 X30.9988 Y36.9787
G01 X31.0285 Y36.8956
G01 X31.0663 Y36.8157
G01 X31.1117 Y36.7400
G01 X31.1643 Y36.6690
G01 X31.2236 Y36.6036
G01 X31.2890 Y36.5443
G01 X31.3598 Y36.4918
G01 X31.3598 Y36.1772
G01 X30.2346 Y35.0519
G01 X30.2033 Y35.0173
G01 X30.1741 Y34.9779
G01 X30.1489 Y34.9358
G01 X30.1299 Y34.8959
G01 X30.1261 Y34.8868
G01 X30.1113 Y34.8452
G01 X30.0994 Y34.7976
G01 X30.0922 Y34.7490
G01 X30.0898 Y34.7025
G01 X30.0898 Y32.1266
G01 X30.0602 Y32.1085
G01 X29.9892 Y32.0559
G01 X29.9836 Y32.0512
G01 X29.9200 Y31.9935
G01 X29.9149 Y31.9882
G01 X29.8556 Y31.9227
G01 X29.8015 Y31.8498
G00 Z2.0000
G00 X32.3429 Y31.8518
G01 F60.00
G01 Z-0.1000
G01 F120.00
G01 X32.3375 Y31.8436
G01 X32.2922 Y31.7679
G01 X32.2523 Y31.6835
G01 X32.2209 Y31.5958
G01 X32.1983 Y31.5053
G01 X32.1846 Y31.4131
G01 X32.1800 Y31.3200
G01 X32.1846 Y31.2269
G01 X32.1983 Y31.1347
G01 X32.2209 Y31.0442
G01 X32.2523 Y30.9565
G01 X32.2922 Y30.8722
G01 X32.3401 Y30.7922
G01 X32.3956 Y30.7173
G01 X32.4582 Y30.6482
G01 X32.5273 Y30.5856
G01 X32.6022 Y30.5301
G01 X32.6821 Y30.4822
G01 X32.7665 Y30.4423
G01 X32.8542 Y30.4109
G01 X32.9447 Y30.3883
G01 X33.0369 Y30.3746
G01 X33.1300 Y30.3700
G01 X33.2231 Y30.3746
G01 X33.3153 Y30.3883
G01 X33.4058 Y30.4109
G01 X33.4935 Y30.4423
G01 X33.5778 Y30.4822
G01 X33.6578 Y30.5301
G01 X33.7327 Y30.5856
G01 X33.8018 Y30.6482
G01 X33.8644 Y30.7173
G01 X33.9199 Y30.7922
G01 X33.9678 Y30.8721
G01 X34.0057 Y30.9520
G01 X34.0095 Y30.9610
G01 X34.0376 Y31.0396
G01 X34.0404 Y31.0490
G01 X34.0617 Y31.1347
G01 X34.0754 Y31.2269
G01 X34.0800 Y31.3200
G01 X34.0756 Y31.4107
G01 X34.0748 Y31.4180
G01 X34.0617 Y31.5053
G01 X34.0404 Y31.5910
G01 X34.0376 Y31.6004
G01 X34.0077 Y31.6835
G01 X33.9700 Y31.7634
G01 X33.9654 Y31.7721
G01 X33.9212 Y31.8457
G01 X33.9171 Y31.8518
G01 X33.8644 Y31.9227
G01 X33.8051 Y31.9882
G01 X33.8000 Y31.9935
G01 X33.7364 Y32.0512
G01 X33.7308 Y32.0559
G01 X33.6598 Y32.1085
G01 X33.6307 Y32.1263
G01 X33.6302 Y34.4928
G01 X34.7537 Y35.6163
G01 X34.7867 Y35.6527
G01 X34.8159 Y35.6921
G01 X34.8387 Y35.7299
G01 X34.8433 Y35.7386
G01 X34.8621 Y35.7786
G01 X34.8771 Y35.8201
G01 X34.8800 Y35.8295
G01 X34.8906 Y35.8724
G01 X34.8978 Y35.9210
G01 X34.9002 Y35.9700
G01 X34.9002 Y36.4918
G01 X34.9710 Y36.5443
G01 X35.0364 Y36.6036
G01 X35.0957 Y36.6690
G01 X35.1455 Y36.7360
G01 X35.1509 Y36.7441
G01 X35.1913 Y36.8115
G01 X35.1959 Y36.8201
G01 X35.2315 Y36.8956
G01 X35.2612 Y36.9787
G01 X35.2827 Y37.0644
G01 X35.2957 Y37.1518
G01 X35.3000 Y37.2400
G01 X35.2957 Y37.3282
G01 X35.2827 Y37.4156
G01 X35.2612 Y37.5013
G01 X35.2315 Y37.5844
G01 X35.1959 Y37.6599
G01 X35.1913 Y37.6685
G01 X35.1483 Y37.7400
G01 X35.0987 Y37.8071
G01 X35.0925 Y37.8147
G01 X35.0398 Y37.8728
G01 X35.0328 Y37.8798
G01 X34.9710 Y37.9357
G01 X34.9000 Y37.9883
G01 X34.8243 Y38.0337
G01 X34.7489 Y38.0695
G01 X34.7421 Y38.0724
G01 X34.6613 Y38.1012
G01 X34.5756 Y38.1227
G01 X34.4882 Y38.1357
G01 X34.4000 Y38.1400
G01 X34.3118 Y38.1357
G01 X34.2244 Y38.1227
G01 X34.1387 Y38.1012
G01 X34.0556 Y38.0715
G01 X33.9757 Y38.0337
G01 X33.9000 Y37.9883
G01 X33.8290 Y37.9357
G01 X33.7636 Y37.8764
G01 X33.7043 Y37.8110
G01 X33.6517 Y37.7400
G01 X33.6063 Y37.6643
G01 X33.5705 Y37.5889
G01 X33.5676 Y37.5821
G01 X33.5388 Y37.5013
G01 X33.5184 Y37.4204
G01 X33.5165 Y37.4107
G01 X33.5043 Y37.3282
G01 X33.5000 Y37.2400
G01 X33.5040 Y37.1567
G01 X33.5049 Y37.1469
G01 X33.5178 Y37.0620
G01 X33.5388 Y36.9787
G01 X33.5685 Y36.8956
G01 X33.6063 Y36.8157
G01 X33.6517 Y36.7400
G01 X33.7043 Y36.6690
G01 X33.7636 Y36.6036
G01 X33.8290 Y36.5443
G01 X33.8998 Y36.4918
G01 X33.8998 Y36.1772
G01 X32.7746 Y35.0519
G01 X32.7433 Y35.0173
G01 X32.7141 Y34.9779
G01 X32.6889 Y34.9358
G01 X32.6699 Y34.8959
G01 X32.6661 Y34.8868
G01 X32.6513 Y34.8452
G01 X32.6394 Y34.7976
G01 X32.6322 Y34.7490
G01 X32.6298 Y34.7025
G01 X32.6298 Y32.1266
G01 X32.6002 Y32.1085
G01 X32.5292 Y32.0559
G01 X32.5236 Y32.0512
G01 X32.4600 Y31.9935
G01 X32.4549 Y31.9882
G01 X32.3956 Y31.9227
G01 X32.3429 Y31.8518
G00 Z2.0000
G00 X34.8815 Y31.8498
G01 F60.00
G01 Z-0.1000
G01 F120.00
G01 X34.8775 Y31.8436
G01 X34.8322 Y31.7679
G01 X34.7923 Y31.6835
G01 X34.7609 Y31.5958
G01 X34.7383 Y31.5053
G01 X34.7246 Y31.4131
G01 X34.7200 Y31.3200
G01 X34.7246 Y31.2269
G01 X34.7383 Y31.1347
G01 X34.7609 Y31.0442
G01 X34.7923 Y30.9565
G01 X34.8322 Y30.8722
G01 X34.8801 Y30.7922
G01 X34.9356 Y30.7173
G01 X34.9982 Y30.6482
G01 X35.0673 Y30.5856
G01 X35.1422 Y30.5301
G01 X35.2221 Y30.4822
G01 X35.3065 Y30.4423
G01 X35.3942 Y30.4109
G01 X35.4847 Y30.3883
G01 X35.5769 Y30.3746
G01 X35.6700 Y30.3700
G01 X35.7631 Y30.3746
G01 X35.8553 Y30.3883
G01 X35.9458 Y30.4109
G01 X36.0335 Y30.4423
G01 X36.1178 Y30.4822
G01 X36.1978 Y30.5301
G01 X36.2727 Y30.5856
G01 X36.3418 Y30.6482
G01 X36.4044 Y30.7173
G01 X36.4599 Y30.7922
G01 X36.5078 Y30.8721
G01 X36.5457 Y30.9520
G01 X36.5495 Y30.9610
G01 X36.5776 Y31.0396
G01 X36.5804 Y31.0490
G01 X36.6017 Y31.1347
G01 X36.6154 Y31.2269
G01 X36.6200 Y31.3200
G01 X36.6156 Y31.4107
G01 X36.6148 Y31.4180
G01 X36.6017 Y31.5053
G01 X36.5804 Y31.5910
G01 X36.5776 Y31.6004
G01 X36.5477 Y31.6835
G01 X36.5100 Y31.7634
G01 X36.5054 Y31.7721
G01 X36.4612 Y31.8457
G01 X36.4571 Y31.8518
G01 X36.4044 Y31.9227
G01 X36.3451 Y31.9882
G01 X36.3400 Y31.9935
G01 X36.2764 Y32.0512
G01 X36.2708 Y32.0559
G01 X36.1998 Y32.1085
G01 X36.1707 Y32.1263
G01 X36.1702 Y34.4928
G01 X37.2937 Y35.6163
G01 X37.3267 Y35.6527
G01 X37.3559 Y35.6921
G01 X37.3787 Y35.7299
G01 X37.3833 Y35.7386
G01 X37.4021 Y35.7786
G01 X37.4171 Y35.8201
G01 X37.4200 Y35.8295
G01 X37.4306 Y35.8724
G01 X37.4378 Y35.9210
G01 X37.4402 Y35.9700
G01 X37.4402 Y36.4918
G01 X37.5110 Y36.5443
G01 X37.5764 Y36.6036
G01 X37.6357 Y36.6690
G01 X37.6855 Y36.7360
G01 X37.6909 Y36.7441
G01 X37.7313 Y36.8115
G01 X37.7359 Y36.8201
G01 X37.7715 Y36.8956
G01 X37.8012 Y36.9787
G01 X37.8227 Y37.0644
G01 X37.8357 Y37.1518
G01 X37.8400 Y37.2400
G01 X37.8357 Y37.3282
G01 X37.8227 Y37.4156
G01 X37.8012 Y37.5013
G01 X37.7715 Y37.5844
G01 X37.7359 Y37.6599
G01 X37.7313 Y37.6685
G01 X37.6883 Y37.7400
G01 X37.6387 Y37.8071
G01 X37.6325 Y37.8147
G01 X37.5798 Y37.8728
G01 X37.5728 Y37.8798
G01 X37.5110 Y37.9357
G01 X37.4400 Y37.9883
G01 X37.3643 Y38.0337
G01 X37.2889 Y38.0695
G01 X37.2821 Y38.0724
G01 X37.2013 Y38.1012
G01 X37.1156 Y38.1227
G01 X37.0282 Y38.1357
G01 X36.9400 Y38.1400
G01 X36.8518 Y38.1357
G01 X36.7644 Y38.1227
G01 X36.6787 Y38.1012
G01 X36.5956 Y38.0715
G01 X36.5157 Y38.0337
G01 X36.4400 Y37.9883
G01 X36.3690 Y37.9357
G01 X36.3036 Y37.8764
G01 X36.2443 Y37.8110
G01 X36.1917 Y37.7400
G01 X36.1463 Y37.6643
G01 X36.1105 Y37.5889
G01 X36.1076 Y37.5821
G01 X36.0788 Y37.5013
G01 X36.0584 Y37.4204
G01 X36.0565 Y37.4107
G01 X36.0443 Y37.3282
G01 X36.0400 Y37.2400
G01 X36.0440 Y37.1567
G01 X36.0449 Y37.1469
G01 X36.0578 Y37.0620
G01 X36.0788 Y36.9787
G01 X36.1085 Y36.8956
G01 X36.1463 Y36.8157
G01 X36.1917 Y36.7400
G01 X36.2443 Y36.6690
G01 X36.3036 Y36.6036
G01 X36.3690 Y36.5443
G01 X36.4398 Y36.4918
G01 X36.4398 Y36.1772
G01 X35.3146 Y35.0519
G01 X35.2833 Y35.0173
G01 X35.2541 Y34.9779
G01 X35.2289 Y34.9358
G01 X35.2099 Y34.8959
G01 X35.2061 Y34.8868
G01 X35.1913 Y34.8452
G01 X35.1794 Y34.7976
G01 X35.1722 Y34.7490
G01 X35.1698 Y34.7025
G01 X35.1698 Y32.1266
G01 X35.1402 Y32.1085
G01 X35.0692 Y32.0559
G01 X35.0636 Y32.0512
G01 X35.0000 Y31.9935
G01 X34.9949 Y31.9882
G01 X34.9356 Y31.9227
G01 X34.8815 Y31.8498
G00 Z2.0000
G00 X38.9072 Y36.5459
G01 F60.00
G01 Z-0.1000
G01 F120.00
G01 X38.9129 Y36.5413
G01 X38.9798 Y36.4918
G01 X38.9798 Y36.1772
G01 X37.8546 Y35.0519
G01 X37.8265 Y35.0210
G01 X37.8203 Y35.0135
G01 X37.7941 Y34.9779
G01 X37.7713 Y34.9401
G01 X37.7667 Y34.9314
G01 X37.7479 Y34.8914
G01 X37.7329 Y34.8499
G01 X37.7300 Y34.8405
G01 X37.7194 Y34.7976
G01 X37.7128 Y34.7539
G01 X37.7118 Y34.7441
G01 X37.7098 Y34.7000
G01 X37.7098 Y32.2700
G01 X37.3600 Y32.2700
G01 X37.3502 Y32.2695
G01 X37.3405 Y32.2681
G01 X37.3333 Y32.2664
G01 X37.3263 Y32.2642
G01 X37.3195 Y32.2614
G01 X37.3107 Y32.2570
G01 X37.3044 Y32.2531
G01 X37.2966 Y32.2473
G01 X37.2910 Y32.2424
G01 X37.2859 Y32.2372
G01 X37.2812 Y32.2315
G01 X37.2769 Y32.2256
G01 X37.2730 Y32.2193
G01 X37.2686 Y32.2105
G01 X37.2658 Y32.2037
G01 X37.2630 Y32.1943
G01 X37.2615 Y32.1871
G01 X37.2605 Y32.1798
G01 X37.2600 Y32.1700
G01 X37.2601 Y30.4651
G01 X37.2608 Y30.4578
G01 X37.2624 Y30.4481
G01 X37.2643 Y30.4410
G01 X37.2667 Y30.4340
G01 X37.2696 Y30.4272
G01 X37.2730 Y30.4207
G01 X37.2769 Y30.4144
G01 X37.2827 Y30.4066
G01 X37.2876 Y30.4010
G01 X37.2928 Y30.3959
G01 X37.3004 Y30.3897
G01 X37.3065 Y30.3855
G01 X37.3129 Y30.3818
G01 X37.3195 Y30.3786
G01 X37.3263 Y30.3758
G01 X37.3357 Y30.3730
G01 X37.3478 Y30.3708
G01 X37.3600 Y30.3700
G01 X39.0625 Y30.3700
G01 X39.0698 Y30.3705
G01 X39.0771 Y30.3715
G01 X39.0843 Y30.3730
G01 X39.0914 Y30.3750
G01 X39.0983 Y30.3776
G01 X39.1050 Y30.3807
G01 X39.1114 Y30.3842
G01 X39.1176 Y30.3882
G01 X39.1234 Y30.3927
G01 X39.1290 Y30.3976
G01 X39.1341 Y30.4028
G01 X39.1388 Y30.4085
G01 X39.1431 Y30.4144
G01 X39.1470 Y30.4207
G01 X39.1514 Y30.4295
G01 X39.1542 Y30.4363
G01 X39.1570 Y30.4457
G01 X39.1585 Y30.4529
G01 X39.1595 Y30.4602
G01 X39.1600 Y30.4700
G01 X39.1600 Y32.1700
G01 X39.1592 Y32.1822
G01 X39.1570 Y32.1943
G01 X39.1533 Y32.2060
G01 X39.1504 Y32.2128
G01 X39.1470 Y32.2193
G01 X39.1431 Y32.2256
G01 X39.1388 Y32.2315
G01 X39.1341 Y32.2372
G01 X39.1290 Y32.2424
G01 X39.1234 Y32.2473
G01 X39.1176 Y32.2518
G01 X39.1114 Y32.2558
G01 X39.1050 Y32.2593
G01 X39.0983 Y32.2624
G01 X39.0914 Y32.2650
G01 X39.0843 Y32.2670
G01 X39.0771 Y32.2685
G01 X39.0674 Y32.2697
G01 X39.0600 Y32.2700
G01 X38.7102 Y32.2700
G01 X38.7102 Y34.4928
G01 X39.8354 Y35.6181
G01 X39.8667 Y35.6527
G01 X39.8959 Y35.6921
G01 X39.9211 Y35.7342
G01 X39.9430 Y35.7809
G01 X39.9587 Y35.8248
G01 X39.9695 Y35.8676
G01 X39.9714 Y35.8773
G01 X39.9772 Y35.9161
G01 X39.9782 Y35.9259
G01 X39.9802 Y35.9700
G01 X39.9802 Y36.4918
G01 X40.0510 Y36.5443
G01 X40.1128 Y36.6002
G01 X40.1198 Y36.6072
G01 X40.1725 Y36.6653
G01 X40.1787 Y36.6729
G01 X40.2283 Y36.7400
G01 X40.2713 Y36.8115
G01 X40.2759 Y36.8201
G01 X40.3115 Y36.8956
G01 X40.3412 Y36.9787
G01 X40.3627 Y37.0644
G01 X40.3751 Y37.1469
G01 X40.3760 Y37.1567
G01 X40.3799 Y37.2351
G01 X40.3799 Y37.2449
G01 X40.3757 Y37.3282
G01 X40.3635 Y37.4107
G01 X40.3616 Y37.4204
G01 X40.3412 Y37.5013
G01 X40.3115 Y37.5844
G01 X40.2759 Y37.6599
G01 X40.2713 Y37.6685
G01 X40.2283 Y37.7400
G01 X40.1787 Y37.8071
G01 X40.1725 Y37.8147
G01 X40.1164 Y37.8764
G01 X40.0510 Y37.9357
G01 X39.9800 Y37.9883
G01 X39.9043 Y38.0337
G01 X39.8244 Y38.0715
G01 X39.7413 Y38.1012
G01 X39.6556 Y38.1227
G01 X39.5682 Y38.1357
G01 X39.4800 Y38.1400
G01 X39.3918 Y38.1357
G01 X39.3044 Y38.1227
G01 X39.2187 Y38.1012
G01 X39.1356 Y38.0715
G01 X39.0557 Y38.0337
G01 X38.9800 Y37.9883
G01 X38.9090 Y37.9357
G01 X38.8436 Y37.8764
G01 X38.7843 Y37.8110
G01 X38.7317 Y37.7400
G01 X38.6863 Y37.6643
G01 X38.6485 Y37.5844
G01 X38.6188 Y37.5013
G01 X38.5973 Y37.4156
G01 X38.5843 Y37.3282
G01 X38.5800 Y37.2400
G01 X38.5843 Y37.1518
G01 X38.5973 Y37.0644
G01 X38.6188 Y36.9787
G01 X38.6485 Y36.8956
G01 X38.6863 Y36.8157
G01 X38.7317 Y36.7400
G01 X38.7843 Y36.6690
G01 X38.8436 Y36.6036
G01 X38.9072 Y36.5459
G00 Z2.0000
G00 X41.4490 Y36.5443
G01 F60.00
G01 Z-0.1000
G01 F120.00
G01 X41.5198 Y36.4918
G01 X41.5198 Y32.2700
G01 X41.1700 Y32.2700
G01 X41.1602 Y32.2695
G01 X41.1529 Y32.2685
G01 X41.1457 Y32.2670
G01 X41.1386 Y32.2650
G01 X41.1317 Y32.2624
G01 X41.1250 Y32.2593
G01 X41.1186 Y32.2558
G01 X41.1124 Y32.2518
G01 X41.1066 Y32.2473
G01 X41.1010 Y32.2424
G01 X41.0959 Y32.2372
G01 X41.0912 Y32.2315
G01 X41.0869 Y32.2256
G01 X41.0830 Y32.2193
G01 X41.0776 Y32.2083
G01 X41.0750 Y32.2014
G01 X41.0730 Y32.1943
G01 X41.0708 Y32.1822
G01 X41.0700 Y32.1700
G01 X41.0700 Y30.4700
G01 X41.0708 Y30.4578
G01 X41.0724 Y30.4481
G01 X41.0743 Y30.4410
G01 X41.0776 Y30.4317
G01 X41.0807 Y30.4250
G01 X41.0842 Y30.4186
G01 X41.0882 Y30.4124
G01 X41.0927 Y30.4066
G01 X41.0993 Y30.3993
G01 X41.1047 Y30.3943
G01 X41.1104 Y30.3897
G01 X41.1186 Y30.3842
G01 X41.1250 Y30.3807
G01 X41.1340 Y30.3767
G01 X41.1433 Y30.3736
G01 X41.1505 Y30.3719
G01 X41.1578 Y30.3708
G01 X41.1651 Y30.3701
G01 X42.8700 Y30.3700
G01 X42.8822 Y30.3708
G01 X42.8919 Y30.3724
G01 X42.8990 Y30.3743
G01 X42.9083 Y30.3776
G01 X42.9171 Y30.3818
G01 X42.9235 Y30.3855
G01 X42.9296 Y30.3897
G01 X42.9372 Y30.3959
G01 X42.9424 Y30.4010
G01 X42.9473 Y30.4066
G01 X42.9518 Y30.4124
G01 X42.9570 Y30.4207
G01 X42.9604 Y30.4272
G01 X42.9633 Y30.4340
G01 X42.9657 Y30.4410
G01 X42.9681 Y30.4505
G01 X42.9692 Y30.4578
G01 X42.9699 Y30.4651
G01 X42.9700 Y32.1700
G01 X42.9695 Y32.1798
G01 X42.9681 Y32.1895
G01 X42.9664 Y32.1967
G01 X42.9642 Y32.2037
G01 X42.9604 Y32.2128
G01 X42.9570 Y32.2193
G01 X42.9531 Y32.2256
G01 X42.9488 Y32.2315
G01 X42.9441 Y32.2372
G01 X42.9390 Y32.2424
G01 X42.9334 Y32.2473
G01 X42.9276 Y32.2518
G01 X42.9214 Y32.2558
G01 X42.9150 Y32.2593
G01 X42.9083 Y32.2624
G01 X42.9014 Y32.2650
G01 X42.8943 Y32.2670
G01 X42.8871 Y32.2685
G01 X42.8774 Y32.2697
G01 X42.8700 Y32.2700
G01 X42.5202 Y32.2700
G01 X42.5202 Y36.4918
G01 X42.5871 Y36.5413
G01 X42.5947 Y36.5475
G01 X42.6564 Y36.6036
G01 X42.7125 Y36.6653
G01 X42.7187 Y36.6729
G01 X42.7683 Y36.7400
G01 X42.8137 Y36.8157
G01 X42.8495 Y36.8911
G01 X42.8533 Y36.9002
G01 X42.8812 Y36.9787
G01 X42.9016 Y37.0596
G01 X42.9035 Y37.0693
G01 X42.9157 Y37.1518
G01 X42.9199 Y37.2351
G01 X42.9199 Y37.2449
G01 X42.9157 Y37.3282
G01 X42.9035 Y37.4107
G01 X42.9016 Y37.4204
G01 X42.8826 Y37.4965
G01 X42.8797 Y37.5059
G01 X42.8515 Y37.5844
G01 X42.8159 Y37.6599
G01 X42.8113 Y37.6685
G01 X42.7683 Y37.7400
G01 X42.7157 Y37.8110
G01 X42.6564 Y37.8764
G01 X42.5910 Y37.9357
G01 X42.5200 Y37.9883
G01 X42.4443 Y38.0337
G01 X42.3644 Y38.0715
G01 X42.2813 Y38.1012
G01 X42.1956 Y38.1227
G01 X42.1082 Y38.1357
G01 X42.0200 Y38.1400
G01 X41.9318 Y38.1357
G01 X41.8444 Y38.1227
G01 X41.7587 Y38.1012
G01 X41.6756 Y38.0715
G01 X41.5957 Y38.0337
G01 X41.5200 Y37.9883
G01 X41.4490 Y37.9357
G01 X41.3836 Y37.8764
G01 X41.3243 Y37.8110
G01 X41.2717 Y37.7400
G01 X41.2263 Y37.6643
G01 X41.1885 Y37.5844
G01 X41.1588 Y37.5013
G01 X41.1373 Y37.4156
G01 X41.1243 Y37.3282
G01 X41.1200 Y37.2400
G01 X41.1243 Y37.1518
G01 X41.1373 Y37.0644
G01 X41.1588 Y36.9787
G01 X41.1885 Y36.8956
G01 X41.2263 Y36.8157
G01 X41.2717 Y36.7400
G01 X41.3243 Y36.6690
G01 X41.3836 Y36.6036
G01 X41.4490 Y36.5443
G00 Z2.0000
G00 X43.7729 Y31.8518
G01 F60.00
G01 Z-0.1000
G01 F120.00
G01 X43.7675 Y31.8436
G01 X43.7222 Y31.7679
G01 X43.6823 Y31.6835
G01 X43.6509 Y31.5958
G01 X43.6283 Y31.5053
G01 X43.6146 Y31.4131
G01 X43.6100 Y31.3200
G01 X43.6146 Y31.2269
G01 X43.6283 Y31.1347
G01 X43.6509 Y31.0442
G01 X43.6823 Y30.9565
G01 X43.7222 Y30.8722
G01 X43.7701 Y30.7922
G01 X43.8256 Y30.7173
G01 X43.8882 Y30.6482
G01 X43.9573 Y30.5856
G01 X44.0322 Y30.5301
G01 X44.1121 Y30.4822
G01 X44.1965 Y30.4423
G01 X44.2842 Y30.4109
G01 X44.3747 Y30.3883
G01 X44.4669 Y30.3746
G01 X44.5600 Y30.3700
G01 X44.6531 Y30.3746
G01 X44.7453 Y30.3883
G01 X44.8358 Y30.4109
G01 X44.9235 Y30.4423
G01 X45.0078 Y30.4822
G01 X45.0878 Y30.5301
G01 X45.1627 Y30.5856
G01 X45.2318 Y30.6482
G01 X45.2944 Y30.7173
G01 X45.3499 Y30.7922
G01 X45.3978 Y30.8721
G01 X45.4377 Y30.9565
G01 X45.4691 Y31.0442
G01 X45.4917 Y31.1347
G01 X45.5054 Y31.2269
G01 X45.5100 Y31.3200
G01 X45.5054 Y31.4131
G01 X45.4926 Y31.5005
G01 X45.4912 Y31.5077
G01 X45.4691 Y31.5958
G01 X45.4377 Y31.6835
G01 X45.3978 Y31.7678
G01 X45.3525 Y31.8436
G01 X45.3485 Y31.8498
G01 X45.2944 Y31.9227
G01 X45.2351 Y31.9882
G01 X45.2300 Y31.9935
G01 X45.1664 Y32.0512
G01 X45.1608 Y32.0559
G01 X45.0898 Y32.1085
G01 X45.0607 Y32.1263
G01 X45.0602 Y36.4918
G01 X45.1310 Y36.5443
G01 X45.1928 Y36.6002
G01 X45.1998 Y36.6072
G01 X45.2557 Y36.6690
G01 X45.3055 Y36.7360
G01 X45.3109 Y36.7441
G01 X45.3537 Y36.8157
G01 X45.3895 Y36.8911
G01 X45.3933 Y36.9002
G01 X45.4212 Y36.9787
G01 X45.4416 Y37.0596
G01 X45.4435 Y37.0693
G01 X45.4557 Y37.1518
G01 X45.4599 Y37.2351
G01 X45.4599 Y37.2449
G01 X45.4557 Y37.3282
G01 X45.4427 Y37.4156
G01 X45.4212 Y37.5013
G01 X45.3915 Y37.5844
G01 X45.3559 Y37.6599
G01 X45.3513 Y37.6685
G01 X45.3109 Y37.7359
G01 X45.3055 Y37.7440
G01 X45.2557 Y37.8110
G01 X45.1964 Y37.8764
G01 X45.1310 Y37.9357
G01 X45.0640 Y37.9855
G01 X45.0559 Y37.9909
G01 X44.9885 Y38.0313
G01 X44.9799 Y38.0359
G01 X44.9044 Y38.0715
G01 X44.8213 Y38.1012
G01 X44.7356 Y38.1227
G01 X44.6531 Y38.1351
G01 X44.6433 Y38.1360
G01 X44.5600 Y38.1400
G01 X44.4718 Y38.1357
G01 X44.3844 Y38.1227
G01 X44.2987 Y38.1012
G01 X44.2156 Y38.0715
G01 X44.1357 Y38.0337
G01 X44.0600 Y37.9883
G01 X43.9890 Y37.9357
G01 X43.9236 Y37.8764
G01 X43.8643 Y37.8110
G01 X43.8117 Y37.7400
G01 X43.7663 Y37.6643
G01 X43.7285 Y37.5844
G01 X43.6988 Y37.5013
G01 X43.6773 Y37.4156
G01 X43.6649 Y37.3331
G01 X43.6640 Y37.3233
G01 X43.6600 Y37.2400
G01 X43.6640 Y37.1567
G01 X43.6649 Y37.1469
G01 X43.6773 Y37.0644
G01 X43.6974 Y36.9835
G01 X43.7003 Y36.9741
G01 X43.7267 Y36.9002
G01 X43.7305 Y36.8911
G01 X43.7663 Y36.8157
G01 X43.8091 Y36.7441
G01 X43.8145 Y36.7360
G01 X43.8643 Y36.6690
G01 X43.9202 Y36.6072
G01 X43.9272 Y36.6002
G01 X43.9890 Y36.5443
G01 X44.0598 Y36.4918
G01 X44.0598 Y32.1266
G01 X44.0302 Y32.1085
G01 X43.9592 Y32.0559
G01 X43.9536 Y32.0512
G01 X43.8900 Y31.9935
G01 X43.8849 Y31.9882
G01 X43.8256 Y31.9227
G01 X43.7729 Y31.8518
G00 Z2.0000
G00 X46.3129 Y31.8518
G01 F60.00
G01 Z-0.1000
G01 F120.00
G01 X46.3075 Y31.8436
G01 X46.2622 Y31.7679
G01 X46.2223 Y31.6835
G01 X46.1909 Y31.5958
G01 X46.1683 Y31.5053
G01 X46.1546 Y31.4131
G01 X46.1500 Y31.3200
G01 X46.1546 Y31.2269
G01 X46.1683 Y31.1347
G01 X46.1909 Y31.0442
G01 X46.2223 Y30.9565
G01 X46.2622 Y30.8722
G01 X46.3101 Y30.7922
G01 X46.3656 Y30.7173
G01 X46.4282 Y30.6482
G01 X46.4973 Y30.5856
G01 X46.5722 Y30.5301
G01 X46.6521 Y30.4822
G01 X46.7365 Y30.4423
G01 X46.8242 Y30.4109
G01 X46.9147 Y30.3883
G01 X47.0069 Y30.3746
G01 X47.1000 Y30.3700
G01 X47.1931 Y30.3746
G01 X47.2853 Y30.3883
G01 X47.3758 Y30.4109
G01 X47.4635 Y30.4423
G01 X47.5478 Y30.4822
G01 X47.6278 Y30.5301
G01 X47.7027 Y30.5856
G01 X47.7718 Y30.6482
G01 X47.8344 Y30.7173
G01 X47.8899 Y30.7922
G01 X47.9378 Y30.8721
G01 X47.9777 Y30.9565
G01 X48.0091 Y31.0442
G01 X48.0317 Y31.1347
G01 X48.0454 Y31.2269
G01 X48.0500 Y31.3200
G01 X48.0454 Y31.4131
G01 X48.0326 Y31.5005
G01 X48.0312 Y31.5077
G01 X48.0091 Y31.5958
G01 X47.9777 Y31.6835
G01 X47.9378 Y31.7678
G01 X47.8925 Y31.8436
G01 X47.8885 Y31.8498
G01 X47.8344 Y31.9227
G01 X47.7751 Y31.9882
G01 X47.7700 Y31.9935
G01 X47.7064 Y32.0512
G01 X47.7008 Y32.0559
G01 X47.6298 Y32.1085
G01 X47.6007 Y32.1263
G01 X47.6002 Y36.4918
G01 X47.6710 Y36.5443
G01 X47.7328 Y36.6002
G01 X47.7398 Y36.6072
G01 X47.7957 Y36.6690
G01 X47.8455 Y36.7360
G01 X47.8509 Y36.7441
G01 X47.8937 Y36.8157
G01 X47.9295 Y36.8911
G01 X47.9333 Y36.9002
G01 X47.9612 Y36.9787
G01 X47.9816 Y37.0596
G01 X47.9835 Y37.0693
G01 X47.9957 Y37.1518
G01 X47.9999 Y37.2351
G01 X47.9999 Y37.2449
G01 X47.9957 Y37.3282
G01 X47.9827 Y37.4156
G01 X47.9612 Y37.5013
G01 X47.9315 Y37.5844
G01 X47.8959 Y37.6599
G01 X47.8913 Y37.6685
G01 X47.8509 Y37.7359
G01 X47.8455 Y37.7440
G01 X47.7957 Y37.8110
G01 X47.7364 Y37.8764
G01 X47.6710 Y37.9357
G01 X47.6040 Y37.9855
G01 X47.5959 Y37.9909
G01 X47.5285 Y38.0313
G01 X47.5199 Y38.0359
G01 X47.4444 Y38.0715
G01 X47.3613 Y38.1012
G01 X47.2756 Y38.1227
G01 X47.1931 Y38.1351
G01 X47.1833 Y38.1360
G01 X47.1000 Y38.1400
G01 X47.0118 Y38.1357
G01 X46.9244 Y38.1227
G01 X46.8387 Y38.1012
G01 X46.7556 Y38.0715
G01 X46.6757 Y38.0337
G01 X46.6000 Y37.9883
G01 X46.5290 Y37.9357
G01 X46.4636 Y37.8764
G01 X46.4043 Y37.8110
G01 X46.3517 Y37.7400
G01 X46.3063 Y37.6643
G01 X46.2685 Y37.5844
G01 X46.2388 Y37.5013
G01 X46.2173 Y37.4156
G01 X46.2049 Y37.3331
G01 X46.2040 Y37.3233
G01 X46.2000 Y37.2400
G01 X46.2040 Y37.1567
G01 X46.2049 Y37.1469
G01 X46.2173 Y37.0644
G01 X46.2374 Y36.9835
G01 X46.2403 Y36.9741
G01 X46.2667 Y36.9002
G01 X46.2705 Y36.8911
G01 X46.3063 Y36.8157
G01 X46.3491 Y36.7441
G01 X46.3545 Y36.7360
G01 X46.4043 Y36.6690
G01 X46.4602 Y36.6072
G01 X46.4672 Y36.6002
G01 X46.5290 Y36.5443
G01 X46.5998 Y36.4918
G01 X46.5998 Y32.1266
G01 X46.5702 Y32.1085
G01 X46.4992 Y32.0559
G01 X46.4936 Y32.0512
G01 X46.4300 Y31.9935
G01 X46.4249 Y31.9882
G01 X46.3656 Y31.9227
G01 X46.3129 Y31.8518
G00 Z2.0000
G00 X48.8529 Y31.8518
G01 F60.00
G01 Z-0.1000
G01 F120.00
G01 X48.8475 Y31.8436
G01 X48.8022 Y31.7679
G01 X48.7623 Y31.6835
G01 X48.7309 Y31.5958
G01 X48.7083 Y31.5053
G01 X48.6946 Y31.4131
G01 X48.6900 Y31.3200
G01 X48.6946 Y31.2269
G01 X48.7083 Y31.1347
G01 X48.7309 Y31.0442
G01 X48.7623 Y30.9565
G01 X48.8022 Y30.8722
G01 X48.8501 Y30.7922
G01 X48.9056 Y30.7173
G01 X48.9682 Y30.6482
G01 X49.0373 Y30.5856
G01 X49.1122 Y30.5301
G01 X49.1921 Y30.4822
G01 X49.2765 Y30.4423
G01 X49.3642 Y30.4109
G01 X49.4547 Y30.3883
G01 X49.5469 Y30.3746
G01 X49.6400 Y30.3700
G01 X49.7331 Y30.3746
G01 X49.8253 Y30.3883
G01 X49.9158 Y30.4109
G01 X50.0035 Y30.4423
G01 X50.0878 Y30.4822
G01 X50.1678 Y30.5301
G01 X50.2427 Y30.5856
G01 X50.3118 Y30.6482
G01 X50.3744 Y30.7173
G01 X50.4299 Y30.7922
G01 X50.4778 Y30.8721
G01 X50.5177 Y30.9565
G01 X50.5491 Y31.0442
G01 X50.5717 Y31.1347
G01 X50.5854 Y31.2269
G01 X50.5900 Y31.3200
G01 X50.5854 Y31.4131
G01 X50.5726 Y31.5005
G01 X50.5712 Y31.5077
G01 X50.5491 Y31.5958
G01 X50.5177 Y31.6835
G01 X50.4778 Y31.7678
G01 X50.4325 Y31.8436
G01 X50.4285 Y31.8498
G01 X50.3744 Y31.9227
G01 X50.3151 Y31.9882
G01 X50.3100 Y31.9935
G01 X50.2464 Y32.0512
G01 X50.2408 Y32.0559
G01 X50.1698 Y32.1085
G01 X50.1407 Y32.1263
G01 X50.1402 Y36.4918
G01 X50.2110 Y36.5443
G01 X50.2728 Y36.6002
G01 X50.2798 Y36.6072
G01 X50.3357 Y36.6690
G01 X50.3855 Y36.7360
G01 X50.3909 Y36.7441
G01 X50.4337 Y36.8157
G01 X50.4695 Y36.8911
G01 X50.4733 Y36.9002
G01 X50.5012 Y36.9787
G01 X50.5216 Y37.0596
G01 X50.5235 Y37.0693
G01 X50.5357 Y37.1518
G01 X50.5399 Y37.2351
G01 X50.5399 Y37.2449
G01 X50.5357 Y37.3282
G01 X50.5227 Y37.4156
G01 X50.5012 Y37.5013
G01 X50.4715 Y37.5844
G01 X50.4359 Y37.6599
G01 X50.4313 Y37.6685
G01 X50.3909 Y37.7359
G01 X50.3855 Y37.7440
G01 X50.3357 Y37.8110
G01 X50.2764 Y37.8764
G01 X50.2110 Y37.9357
G01 X50.1440 Y37.9855
G01 X50.1359 Y37.9909
G01 X50.0685 Y38.0313
G01 X50.0599 Y38.0359
G01 X49.9844 Y38.0715
G01 X49.9013 Y38.1012
G01 X49.8156 Y38.1227
G01 X49.7331 Y38.1351
G01 X49.7233 Y38.1360
G01 X49.6400 Y38.1400
G01 X49.5518 Y38.1357
G01 X49.4644 Y38.1227
G01 X49.3787 Y38.1012
G01 X49.2956 Y38.0715
G01 X49.2157 Y38.0337
G01 X49.1400 Y37.9883
G01 X49.0690 Y37.9357
G01 X49.0036 Y37.8764
G01 X48.9443 Y37.8110
G01 X48.8917 Y37.7400
G01 X48.8463 Y37.6643
G01 X48.8085 Y37.5844
G01 X48.7788 Y37.5013
G01 X48.7573 Y37.4156
G01 X48.7449 Y37.3331
G01 X48.7440 Y37.3233
G01 X48.7400 Y37.2400
G01 X48.7440 Y37.1567
G01 X48.7449 Y37.1469
G01 X48.7573 Y37.0644
G01 X48.7774 Y36.9835
G01 X48.7803 Y36.9741
G01 X48.8067 Y36.9002
G01 X48.8105 Y36.8911
G01 X48.8463 Y36.8157
G01 X48.8891 Y36.7441
G01 X48.8945 Y36.7360
G01 X48.9443 Y36.6690
G01 X49.0002 Y36.6072
G01 X49.0072 Y36.6002
G01 X49.0690 Y36.5443
G01 X49.1398 Y36.4918
G01 X49.1398 Y32.1266
G01 X49.1102 Y32.1085
G01 X49.0392 Y32.0559
G01 X49.0336 Y32.0512
G01 X48.9700 Y31.9935
G01 X48.9649 Y31.9882
G01 X48.9056 Y31.9227
G01 X48.8529 Y31.8518
G00 Z2.0000
G00 X51.6090 Y36.5443
G01 F60.00
G01 Z-0.1000
G01 F120.00
G01 X51.6798 Y36.4918
G01 X51.6798 Y35.9700
G01 X51.6825 Y35.9185
G01 X51.6894 Y35.8724
G01 X51.7000 Y35.8295
G01 X51.7029 Y35.8201
G01 X51.7179 Y35.7786
G01 X51.7367 Y35.7386
G01 X51.7413 Y35.7299
G01 X51.7641 Y35.6921
G01 X51.7918 Y35.6546
G01 X51.8263 Y35.6163
G01 X53.0963 Y34.3463
G01 X53.1308 Y34.3149
G01 X53.1721 Y34.2841
G01 X53.2099 Y34.2613
G01 X53.2186 Y34.2567
G01 X53.2541 Y34.2399
G01 X53.2632 Y34.2361
G01 X53.3048 Y34.2213
G01 X53.3524 Y34.2094
G01 X53.4010 Y34.2022
G01 X53.4451 Y34.1999
G01 X63.6100 Y34.1998
G01 X63.6541 Y34.2018
G01 X63.6639 Y34.2028
G01 X63.7076 Y34.2094
G01 X63.7505 Y34.2200
G01 X63.7599 Y34.2229
G01 X63.8014 Y34.2379
G01 X63.8458 Y34.2589
G01 X63.8837 Y34.2815
G01 X63.8919 Y34.2869
G01 X63.9292 Y34.3149
G01 X63.9637 Y34.3463
G01 X64.7046 Y35.0873
G01 X64.7918 Y35.0743
G01 X64.8751 Y35.0701
G01 X64.8849 Y35.0701
G01 X64.9682 Y35.0743
G01 X65.0507 Y35.0865
G01 X65.0604 Y35.0884
G01 X65.1365 Y35.1074
G01 X65.1459 Y35.1103
G01 X65.2244 Y35.1385
G01 X65.3043 Y35.1763
G01 X65.3800 Y35.2217
G01 X65.4510 Y35.2743
G01 X65.5164 Y35.3336
G01 X65.5757 Y35.3990
G01 X65.6283 Y35.4700
G01 X65.6713 Y35.5415
G01 X65.6759 Y35.5501
G01 X65.7115 Y35.6256
G01 X65.7397 Y35.7041
G01 X65.7426 Y35.7135
G01 X65.7616 Y35.7896
G01 X65.7635 Y35.7993
G01 X65.7757 Y35.8818
G01 X65.7799 Y35.9651
G01 X65.7799 Y35.9749
G01 X65.7757 Y36.0582
G01 X65.7627 Y36.1456
G01 X65.7412 Y36.2313
G01 X65.7115 Y36.3144
G01 X65.6737 Y36.3943
G01 X65.6283 Y36.4700
G01 X65.5757 Y36.5410
G01 X65.5198 Y36.6028
G01 X65.5128 Y36.6098
G01 X65.4547 Y36.6625
G01 X65.4471 Y36.6687
G01 X65.3800 Y36.7183
G01 X65.3085 Y36.7613
G01 X65.2999 Y36.7659
G01 X65.2244 Y36.8015
G01 X65.1459 Y36.8297
G01 X65.1365 Y36.8326
G01 X65.0556 Y36.8527
G01 X64.9682 Y36.8657
G01 X64.8800 Y36.8700
G01 X64.7942 Y36.8659
G01 X64.7869 Y36.8651
G01 X64.7044 Y36.8527
G01 X64.6187 Y36.8312
G01 X64.5356 Y36.8015
G01 X64.4557 Y36.7637
G01 X64.3800 Y36.7183
G01 X64.3090 Y36.6657
G01 X64.2436 Y36.6064
G01 X64.1843 Y36.5410
G01 X64.1317 Y36.4700
G01 X64.0863 Y36.3943
G01 X64.0485 Y36.3144
G01 X64.0203 Y36.2359
G01 X64.0174 Y36.2265
G01 X63.9984 Y36.1504
G01 X63.9965 Y36.1407
G01 X63.9843 Y36.0582
G01 X63.9801 Y35.9749
G01 X63.9801 Y35.9651
G01 X63.9843 Y35.8818
G01 X63.9973 Y35.7946
G01 X63.4028 Y35.2002
G01 X53.6572 Y35.2002
G01 X52.6802 Y36.1772
G01 X52.6802 Y36.4918
G01 X52.7510 Y36.5443
G01 X52.8164 Y36.6036
G01 X52.8757 Y36.6690
G01 X52.9283 Y36.7400
G01 X52.9737 Y36.8157
G01 X53.0115 Y36.8956
G01 X53.0412 Y36.9787
G01 X53.0627 Y37.0644
G01 X53.0757 Y37.1518
G01 X53.0799 Y37.2351
G01 X53.0799 Y37.2449
G01 X53.0760 Y37.3233
G01 X53.0751 Y37.3331
G01 X53.0627 Y37.4156
G01 X53.0412 Y37.5013
G01 X53.0115 Y37.5844
G01 X52.9749 Y37.6621
G01 X52.9309 Y37.7359
G01 X52.9255 Y37.7440
G01 X52.8757 Y37.8110
G01 X52.8198 Y37.8728
G01 X52.8128 Y37.8798
G01 X52.7510 Y37.9357
G01 X52.6840 Y37.9855
G01 X52.6759 Y37.9909
G01 X52.6043 Y38.0337
G01 X52.5289 Y38.0695
G01 X52.5198 Y38.0733
G01 X52.4413 Y38.1012
G01 X52.3604 Y38.1216
G01 X52.3507 Y38.1235
G01 X52.2682 Y38.1357
G01 X52.1849 Y38.1399
G01 X52.1751 Y38.1399
G01 X52.0967 Y38.1360
G01 X52.0869 Y38.1351
G01 X52.0044 Y38.1227
G01 X51.9187 Y38.1012
G01 X51.8356 Y38.0715
G01 X51.7601 Y38.0359
G01 X51.7515 Y38.0313
G01 X51.6800 Y37.9883
G01 X51.6090 Y37.9357
G01 X51.5472 Y37.8798
G01 X51.5402 Y37.8728
G01 X51.4843 Y37.8110
G01 X51.4317 Y37.7400
G01 X51.3887 Y37.6685
G01 X51.3841 Y37.6599
G01 X51.3505 Y37.5889
G01 X51.3467 Y37.5798
G01 X51.3188 Y37.5013
G01 X51.2973 Y37.4156
G01 X51.2843 Y37.3282
G01 X51.2801 Y37.2449
G01 X51.2801 Y37.2351
G01 X51.2840 Y37.1567
G01 X51.2849 Y37.1469
G01 X51.2973 Y37.0644
G01 X51.3174 Y36.9835
G01 X51.3203 Y36.9741
G01 X51.3467 Y36.9002
G01 X51.3505 Y36.8911
G01 X51.3863 Y36.8157
G01 X51.4317 Y36.7400
G01 X51.4843 Y36.6690
G01 X51.5402 Y36.6072
G01 X51.5472 Y36.6002
G01 X51.6090 Y36.5443
G00 Z2.0000
G00 X53.0835 Y36.4322
G01 F60.00
G01 Z-0.1000
G01 F120.00
G01 X53.0797 Y36.4196
G01 X53.0607 Y36.3761
G01 X53.0574 Y36.3667
G01 X53.0550 Y36.3571
G01 X53.0537 Y36.3473
G01 X53.0533 Y36.3373
G01 X53.0538 Y36.3274
G01 X53.0660 Y36.2511
G01 X53.0682 Y36.2418
G01 X53.0704 Y36.2349
G01 X53.0752 Y36.2239
G01 X53.0799 Y36.2156
G01 X53.1113 Y36.1714
G01 X53.1179 Y36.1642
G01 X53.7194 Y35.5628
G01 X53.7268 Y35.5568
G01 X53.7367 Y35.5502
G01 X53.8001 Y35.5156
G01 X53.8089 Y35.5113
G01 X53.8181 Y35.5079
G01 X53.8300 Y35.5050
G01 X53.8663 Y35.5008
G01 X53.8744 Y35.5005
G01 X63.1856 Y35.5005
G01 X63.1928 Y35.5008
G01 X63.1999 Y35.5015
G01 X63.2115 Y35.5039
G01 X63.2832 Y35.5250
G01 X63.2924 Y35.5284
G01 X63.2990 Y35.5316
G01 X63.3075 Y35.5365
G01 X63.3135 Y35.5408
G01 X63.3361 Y35.5590
G01 X63.3421 Y35.5642
G01 X63.6119 Y35.8340
G01 X63.6196 Y35.8431
G01 X63.6262 Y35.8531
G01 X63.6620 Y35.9187
G01 X63.6661 Y35.9277
G01 X63.6699 Y35.9396
G01 X63.6715 Y35.9469
G01 X63.6746 Y35.9670
G01 X63.6932 Y36.1793
G01 X63.7476 Y36.3822
G01 X63.8364 Y36.5725
G01 X63.9569 Y36.7446
G01 X64.1054 Y36.8931
G01 X64.2775 Y37.0136
G01 X64.3297 Y37.0380
G01 X64.3360 Y37.0414
G01 X64.3420 Y37.0453
G01 X64.3514 Y37.0526
G01 X64.4038 Y37.0987
G01 X64.4109 Y37.1057
G01 X64.4173 Y37.1133
G01 X64.4229 Y37.1214
G01 X64.4277 Y37.1302
G01 X64.4316 Y37.1393
G01 X64.4339 Y37.1464
G01 X64.4530 Y37.2136
G01 X64.4557 Y37.2257
G01 X64.4567 Y37.2356
G01 X64.4566 Y37.2480
G01 X64.4554 Y37.2578
G01 X64.4526 Y37.2699
G01 X64.4300 Y37.3437
G01 X64.4260 Y37.3527
G01 X64.4212 Y37.3612
G01 X64.4171 Y37.3673
G01 X64.4109 Y37.3749
G01 X64.4021 Y37.3834
G01 X64.3508 Y37.4280
G01 X64.3428 Y37.4342
G01 X64.3365 Y37.4383
G01 X64.3298 Y37.4419
G01 X64.2775 Y37.4664
G01 X64.1054 Y37.5869
G01 X63.9569 Y37.7354
G01 X63.8364 Y37.9075
G01 X63.7476 Y38.0978
G01 X63.6932 Y38.3007
G01 X63.6749 Y38.5100
G01 X63.6932 Y38.7193
G01 X63.7448 Y38.9119
G01 X63.7476 Y38.9222
G01 X63.8364 Y39.1125
G01 X63.9569 Y39.2846
G01 X64.1054 Y39.4331
G01 X64.2775 Y39.5536
G01 X64.3297 Y39.5780
G01 X64.3360 Y39.5814
G01 X64.3420 Y39.5853
G01 X64.3514 Y39.5926
G01 X64.4038 Y39.6387
G01 X64.4109 Y39.6457
G01 X64.4173 Y39.6533
G01 X64.4229 Y39.6614
G01 X64.4277 Y39.6702
G01 X64.4316 Y39.6793
G01 X64.4339 Y39.6864
G01 X64.4530 Y39.7536
G01 X64.4553 Y39.7632
G01 X64.4567 Y39.7756
G01 X64.4566 Y39.7880
G01 X64.4550 Y39.8003
G01 X64.4526 Y39.8099
G01 X64.4300 Y39.8837
G01 X64.4260 Y39.8927
G01 X64.4212 Y39.9012
G01 X64.4171 Y39.9073
G01 X64.4109 Y39.9149
G01 X64.4021 Y39.9234
G01 X64.3508 Y39.9680
G01 X64.3428 Y39.9742
G01 X64.3365 Y39.9783
G01 X64.3298 Y39.9819
G01 X64.2775 Y40.0064
G01 X64.1054 Y40.1269
G01 X63.9569 Y40.2754
G01 X63.8364 Y40.4475
G01 X63.7476 Y40.6378
G01 X63.6932 Y40.8407
G01 X63.6749 Y41.0500
G01 X63.6932 Y41.2593
G01 X63.7476 Y41.4622
G01 X63.8364 Y41.6525
G01 X63.9569 Y41.8246
G01 X64.1054 Y41.9731
G01 X64.2775 Y42.0936
G01 X64.3297 Y42.1180
G01 X64.3360 Y42.1214
G01 X64.3420 Y42.1253
G01 X64.3514 Y42.1326
G01 X64.4038 Y42.1787
G01 X64.4109 Y42.1857
G01 X64.4173 Y42.1933
G01 X64.4229 Y42.2015
G01 X64.4266 Y42.2079
G01 X64.4298 Y42.2147
G01 X64.4332 Y42.2240
G01 X64.4537 Y42.2960
G01 X64.4557 Y42.3057
G01 X64.4568 Y42.3181
G01 X64.4568 Y42.3255
G01 X64.4562 Y42.3329
G01 X64.4550 Y42.3403
G01 X64.4533 Y42.3475
G01 X64.4316 Y42.4191
G01 X64.4281 Y42.4283
G01 X64.4249 Y42.4349
G01 X64.4199 Y42.4433
G01 X64.4156 Y42.4492
G01 X64.4109 Y42.4549
G01 X64.4058 Y42.4601
G01 X64.3508 Y42.5080
G01 X64.3407 Y42.5156
G01 X64.3298 Y42.5219
G01 X64.2775 Y42.5464
G01 X64.0938 Y42.6750
G01 X64.0876 Y42.6790
G01 X64.0811 Y42.6825
G01 X64.0744 Y42.6856
G01 X64.0675 Y42.6881
G01 X64.0596 Y42.6903
G01 X64.0138 Y42.7102
G01 X64.0044 Y42.7133
G01 X63.9947 Y42.7154
G01 X63.9823 Y42.7167
G01 X63.9724 Y42.7166
G01 X63.9625 Y42.7155
G01 X63.8935 Y42.7045
G01 X63.8842 Y42.7025
G01 X63.8773 Y42.7004
G01 X63.8705 Y42.6979
G01 X63.8640 Y42.6948
G01 X63.8577 Y42.6913
G01 X63.8133 Y42.6602
G01 X63.8042 Y42.6521
G01 X60.4231 Y39.2710
G01 X60.4051 Y39.2504
G01 X60.3982 Y39.2414
G01 X60.3544 Y39.2020
G01 X60.3364 Y39.1843
G01 X60.3169 Y39.1683
G01 X60.2731 Y39.1288
G01 X60.2656 Y39.1243
G01 X60.2474 Y39.1119
G01 X60.2384 Y39.1049
G01 X60.1807 Y39.0754
G01 X60.1274 Y39.0447
G01 X60.1167 Y39.0409
G01 X60.0963 Y39.0324
G01 X60.0885 Y39.0286
G01 X60.0290 Y39.0126
G01 X59.9674 Y38.9927
G01 X59.9561 Y38.9912
G01 X59.9344 Y38.9871
G01 X59.9259 Y38.9850
G01 X59.8670 Y38.9819
G01 X59.8419 Y38.9795
G01 X59.8167 Y38.9793
G01 X59.7579 Y38.9762
G01 X59.7466 Y38.9777
G01 X59.7194 Y38.9795
G01 X56.4120 Y38.9795
G01 X56.4001 Y38.9785
G01 X56.3885 Y38.9761
G01 X56.3191 Y38.9558
G01 X56.3099 Y38.9525
G01 X56.3010 Y38.9484
G01 X56.2905 Y38.9421
G01 X56.2619 Y38.9193
G01 X56.2560 Y38.9139
G01 X56.1499 Y38.8078
G01 X56.1420 Y38.7989
G01 X56.1378 Y38.7931
G01 X56.1340 Y38.7871
G01 X56.0982 Y38.7215
G01 X56.0950 Y38.7147
G01 X56.0924 Y38.7078
G01 X56.0891 Y38.6958
G01 X56.0876 Y38.6860
G01 X56.0871 Y38.6736
G01 X56.0923 Y38.5989
G01 X56.0931 Y38.5915
G01 X56.0945 Y38.5842
G01 X56.0964 Y38.5770
G01 X56.0988 Y38.5700
G01 X56.1029 Y38.5609
G01 X56.1091 Y38.5502
G01 X56.1539 Y38.4902
G01 X56.1586 Y38.4844
G01 X56.1637 Y38.4790
G01 X56.1692 Y38.4739
G01 X56.1750 Y38.4693
G01 X56.1855 Y38.4627
G01 X56.1944 Y38.4583
G01 X56.2645 Y38.4320
G01 X56.2716 Y38.4297
G01 X56.2813 Y38.4274
G01 X56.2887 Y38.4263
G01 X56.2962 Y38.4258
G01 X56.3037 Y38.4258
G01 X56.3112 Y38.4264
G01 X56.3499 Y38.4319
G01 X56.3584 Y38.4327
G01 X56.3695 Y38.4348
G01 X56.4175 Y38.4400
G01 X56.9100 Y38.4400
G01 X56.9100 Y38.1400
G01 X56.4600 Y38.1400
G01 X56.4478 Y38.1392
G01 X56.4405 Y38.1381
G01 X56.4333 Y38.1364
G01 X56.4263 Y38.1342
G01 X56.4195 Y38.1314
G01 X56.4129 Y38.1282
G01 X56.4065 Y38.1245
G01 X56.4004 Y38.1203
G01 X56.3947 Y38.1157
G01 X56.3893 Y38.1107
G01 X56.3843 Y38.1053
G01 X56.3797 Y38.0996
G01 X56.3755 Y38.0935
G01 X56.3718 Y38.0871
G01 X56.3686 Y38.0805
G01 X56.3658 Y38.0737
G01 X56.3636 Y38.0667
G01 X56.3611 Y38.0547
G01 X56.3603 Y38.0474
G01 X56.3600 Y38.0400
G01 X56.3600 Y36.4400
G01 X56.3603 Y36.4326
G01 X56.3615 Y36.4229
G01 X56.3636 Y36.4133
G01 X56.3658 Y36.4063
G01 X56.3686 Y36.3995
G01 X56.3730 Y36.3907
G01 X56.3782 Y36.3824
G01 X56.3827 Y36.3766
G01 X56.3876 Y36.3710
G01 X56.3947 Y36.3643
G01 X56.4024 Y36.3582
G01 X56.4107 Y36.3530
G01 X56.4172 Y36.3496
G01 X56.4263 Y36.3458
G01 X56.4333 Y36.3436
G01 X56.4429 Y36.3415
G01 X56.4526 Y36.3403
G01 X56.4600 Y36.3400
G01 X56.9100 Y36.3400
G01 X56.9100 Y36.0400
G01 X56.4175 Y36.0400
G01 X56.3758 Y36.0445
G01 X56.2663 Y36.0853
G01 X56.1743 Y36.1542
G01 X56.1053 Y36.2463
G01 X56.0645 Y36.3558
G01 X56.0610 Y36.3860
G01 X56.0595 Y36.3930
G01 X56.0567 Y36.4020
G01 X56.0272 Y36.4733
G01 X56.0215 Y36.4843
G01 X56.0145 Y36.4945
G01 X56.0062 Y36.5038
G01 X55.9969 Y36.5120
G01 X55.9313 Y36.5575
G01 X55.9227 Y36.5623
G01 X55.9112 Y36.5671
G01 X55.9017 Y36.5699
G01 X55.8894 Y36.5720
G01 X55.8820 Y36.5726
G01 X55.8097 Y36.5751
G01 X55.7973 Y36.5745
G01 X55.7851 Y36.5723
G01 X55.7732 Y36.5686
G01 X55.7619 Y36.5635
G01 X55.6953 Y36.5241
G01 X55.6851 Y36.5167
G01 X55.6794 Y36.5117
G01 X55.6741 Y36.5062
G01 X55.6585 Y36.4872
G01 X55.6432 Y36.4654
G01 X55.4946 Y36.3169
G01 X55.3225 Y36.1964
G01 X55.1322 Y36.1076
G01 X54.9293 Y36.0532
G01 X54.7200 Y36.0349
G01 X54.5107 Y36.0532
G01 X54.3078 Y36.1076
G01 X54.1175 Y36.1964
G01 X53.9454 Y36.3169
G01 X53.7969 Y36.4654
G01 X53.6764 Y36.6375
G01 X53.6520 Y36.6897
G01 X53.6486 Y36.6960
G01 X53.6447 Y36.7020
G01 X53.6374 Y36.7114
G01 X53.5913 Y36.7638
G01 X53.5861 Y36.7692
G01 X53.5787 Y36.7758
G01 X53.5707 Y36.7816
G01 X53.5621 Y36.7866
G01 X53.5530 Y36.7907
G01 X53.5436 Y36.7939
G01 X53.4716 Y36.8143
G01 X53.4594 Y36.8163
G01 X53.4470 Y36.8168
G01 X53.4346 Y36.8158
G01 X53.4273 Y36.8145
G01 X53.4201 Y36.8126
G01 X53.3532 Y36.7924
G01 X53.3440 Y36.7891
G01 X53.3351 Y36.7849
G01 X53.3267 Y36.7799
G01 X53.3188 Y36.7741
G01 X53.3116 Y36.7675
G01 X53.2620 Y36.7108
G01 X53.2544 Y36.7007
G01 X53.2481 Y36.6898
G01 X53.2236 Y36.6375
G01 X53.0950 Y36.4538
G01 X53.0886 Y36.4433
G01 X53.0835 Y36.4322
G00 Z2.0000
G00 X54.2222 Y38.5590
G01 F60.00
G01 Z-0.1000
G01 F120.00
G01 X54.2198 Y38.5100
G01 X54.2198 Y37.9882
G01 X54.1490 Y37.9357
G01 X54.0836 Y37.8764
G01 X54.0243 Y37.8110
G01 X53.9717 Y37.7400
G01 X53.9263 Y37.6643
G01 X53.8885 Y37.5844
G01 X53.8588 Y37.5013
G01 X53.8373 Y37.4156
G01 X53.8243 Y37.3282
G01 X53.8201 Y37.2449
G01 X53.8201 Y37.2351
G01 X53.8243 Y37.1518
G01 X53.8365 Y37.0693
G01 X53.8384 Y37.0596
G01 X53.8588 Y36.9787
G01 X53.8876 Y36.8979
G01 X53.8905 Y36.8911
G01 X53.9263 Y36.8157
G01 X53.9717 Y36.7400
G01 X54.0243 Y36.6690
G01 X54.0836 Y36.6036
G01 X54.1490 Y36.5443
G01 X54.2200 Y36.4917
G01 X54.2957 Y36.4463
G01 X54.3756 Y36.4085
G01 X54.4587 Y36.3788
G01 X54.5444 Y36.3573
G01 X54.6318 Y36.3443
G01 X54.7200 Y36.3400
G01 X54.8082 Y36.3443
G01 X54.8956 Y36.3573
G01 X54.9813 Y36.3788
G01 X55.0621 Y36.4076
G01 X55.1399 Y36.4441
G01 X55.1485 Y36.4487
G01 X55.2200 Y36.4917
G01 X55.2871 Y36.5413
G01 X55.2947 Y36.5475
G01 X55.3564 Y36.6036
G01 X55.4125 Y36.6653
G01 X55.4187 Y36.6729
G01 X55.4683 Y36.7400
G01 X55.5113 Y36.8115
G01 X55.5159 Y36.8201
G01 X55.5515 Y36.8956
G01 X55.5812 Y36.9787
G01 X55.6016 Y37.0596
G01 X55.6035 Y37.0693
G01 X55.6159 Y37.1542
G01 X55.6200 Y37.2400
G01 X55.6160 Y37.3233
G01 X55.6151 Y37.3331
G01 X55.6027 Y37.4156
G01 X55.5826 Y37.4965
G01 X55.5797 Y37.5059
G01 X55.5515 Y37.5844
G01 X55.5159 Y37.6599
G01 X55.5113 Y37.6685
G01 X55.4683 Y37.7400
G01 X55.4187 Y37.8071
G01 X55.4125 Y37.8147
G01 X55.3564 Y37.8764
G01 X55.2947 Y37.9325
G01 X55.2871 Y37.9387
G01 X55.2202 Y37.9882
G01 X55.2202 Y38.3028
G01 X56.1972 Y39.2798
G01 X59.8025 Y39.2798
G01 X59.8441 Y39.2818
G01 X59.8539 Y39.2828
G01 X59.8976 Y39.2894
G01 X59.9405 Y39.3000
G01 X59.9499 Y39.3029
G01 X59.9914 Y39.3179
G01 X60.0336 Y39.3377
G01 X60.0737 Y39.3615
G01 X60.0819 Y39.3669
G01 X60.1173 Y39.3933
G01 X60.1537 Y39.4263
G01 X63.8172 Y43.0898
G01 X64.1318 Y43.0898
G01 X64.1843 Y43.0190
G01 X64.2436 Y42.9536
G01 X64.3090 Y42.8943
G01 X64.3760 Y42.8445
G01 X64.3841 Y42.8391
G01 X64.4515 Y42.7987
G01 X64.4601 Y42.7941
G01 X64.5356 Y42.7585
G01 X64.6141 Y42.7303
G01 X64.6235 Y42.7274
G01 X64.7044 Y42.7073
G01 X64.7893 Y42.6946
G01 X64.7967 Y42.6940
G01 X64.8800 Y42.6900
G01 X64.9682 Y42.6943
G01 X65.0556 Y42.7073
G01 X65.1413 Y42.7288
G01 X65.2244 Y42.7585
G01 X65.3043 Y42.7963
G01 X65.3800 Y42.8417
G01 X65.4510 Y42.8943
G01 X65.5164 Y42.9536
G01 X65.5725 Y43.0153
G01 X65.5787 Y43.0229
G01 X65.6255 Y43.0860
G01 X65.6309 Y43.0941
G01 X65.6737 Y43.1657
G01 X65.7115 Y43.2456
G01 X65.7412 Y43.3287
G01 X65.7616 Y43.4096
G01 X65.7635 Y43.4193
G01 X65.7751 Y43.4969
G01 X65.7760 Y43.5067
G01 X65.7800 Y43.5900
G01 X65.7757 Y43.6782
G01 X65.7627 Y43.7656
G01 X65.7426 Y43.8465
G01 X65.7397 Y43.8559
G01 X65.7133 Y43.9298
G01 X65.7095 Y43.9389
G01 X65.6737 Y44.0143
G01 X65.6309 Y44.0859
G01 X65.6255 Y44.0940
G01 X65.5757 Y44.1610
G01 X65.5198 Y44.2228
G01 X65.5128 Y44.2298
G01 X65.4510 Y44.2857
G01 X65.3800 Y44.3383
G01 X65.3085 Y44.3813
G01 X65.2999 Y44.3859
G01 X65.2244 Y44.4215
G01 X65.1413 Y44.4512
G01 X65.0604 Y44.4716
G01 X65.0507 Y44.4735
G01 X64.9682 Y44.4857
G01 X64.8849 Y44.4899
G01 X64.8751 Y44.4899
G01 X64.7918 Y44.4857
G01 X64.7093 Y44.4735
G01 X64.6996 Y44.4716
G01 X64.6187 Y44.4512
G01 X64.5402 Y44.4233
G01 X64.5311 Y44.4195
G01 X64.4557 Y44.3837
G01 X64.3800 Y44.3383
G01 X64.3129 Y44.2887
G01 X64.3053 Y44.2825
G01 X64.2436 Y44.2264
G01 X64.1875 Y44.1647
G01 X64.1813 Y44.1571
G01 X64.1318 Y44.0902
G01 X63.6100 Y44.0902
G01 X63.5659 Y44.0882
G01 X63.5561 Y44.0872
G01 X63.5173 Y44.0814
G01 X63.5076 Y44.0795
G01 X63.4648 Y44.0687
G01 X63.4232 Y44.0539
G01 X63.4141 Y44.0501
G01 X63.3742 Y44.0311
G01 X63.3321 Y44.0059
G01 X63.2927 Y43.9767
G01 X63.2563 Y43.9437
G01 X59.5928 Y40.2802
G01 X55.9900 Y40.2802
G01 X55.9410 Y40.2778
G01 X55.8973 Y40.2714
G01 X55.8876 Y40.2695
G01 X55.8425 Y40.2579
G01 X55.8032 Y40.2439
G01 X55.7941 Y40.2401
G01 X55.7542 Y40.2211
G01 X55.7163 Y40.1985
G01 X55.7081 Y40.1931
G01 X55.6727 Y40.1667
G01 X55.6381 Y40.1354
G01 X54.3646 Y38.8619
G01 X54.3333 Y38.8273
G01 X54.3041 Y38.7879
G01 X54.2789 Y38.7458
G01 X54.2599 Y38.7059
G01 X54.2561 Y38.6968
G01 X54.2429 Y38.6599
G01 X54.2400 Y38.6505
G01 X54.2294 Y38.6076
G01 X54.2222 Y38.5590
G00 Z2.0000
G00 X58.3458 Y38.3258
G01 F60.00
G01 Z-0.1000
G01 F120.00
G01 X58.2537 Y38.3947
G01 X58.1442 Y38.4355
G01 X58.1025 Y38.4400
G01 X57.6100 Y38.4400
G01 X57.6100 Y38.1400
G01 X58.0600 Y38.1400
G01 X58.0698 Y38.1395
G01 X58.0795 Y38.1381
G01 X58.0914 Y38.1350
G01 X58.1028 Y38.1304
G01 X58.1114 Y38.1258
G01 X58.1196 Y38.1203
G01 X58.1290 Y38.1124
G01 X58.1373 Y38.1034
G01 X58.1445 Y38.0935
G01 X58.1482 Y38.0871
G01 X58.1514 Y38.0805
G01 X58.1557 Y38.0690
G01 X58.1585 Y38.0571
G01 X58.1595 Y38.0498
G01 X58.1600 Y38.0425
G01 X58.1600 Y37.5900
G01 X58.4600 Y37.5900
G01 X58.4600 Y38.0825
G01 X58.4555 Y38.1242
G01 X58.4147 Y38.2337
G01 X58.3458 Y38.3258
G00 Z2.0000
G00 X58.3458 Y36.1543
G01 F60.00
G01 Z-0.1000
G01 F120.00
G01 X58.4147 Y36.2463
G01 X58.4555 Y36.3558
G01 X58.4600 Y36.3975
G01 X58.4600 Y36.8900
G01 X58.1600 Y36.8900
G01 X58.1600 Y36.4400
G01 X58.1595 Y36.4302
G01 X58.1576 Y36.4181
G01 X58.1542 Y36.4063
G01 X58.1493 Y36.3950
G01 X58.1445 Y36.3865
G01 X58.1373 Y36.3766
G01 X58.1307 Y36.3693
G01 X58.1215 Y36.3612
G01 X58.1135 Y36.3555
G01 X58.1071 Y36.3518
G01 X58.1005 Y36.3486
G01 X58.0890 Y36.3443
G01 X58.0819 Y36.3424
G01 X58.0747 Y36.3411
G01 X58.0625 Y36.3400
G01 X57.6100 Y36.3400
G01 X57.6100 Y36.0400
G01 X58.1025 Y36.0400
G01 X58.1442 Y36.0445
G01 X58.2537 Y36.0853
G01 X58.3458 Y36.1543
G00 Z2.0000
G00 X65.7616 Y38.3296
G01 F60.00
G01 Z-0.1000
G01 F120.00
G01 X65.7635 Y38.3393
G01 X65.7757 Y38.4218
G01 X65.7800 Y38.5100
G01 X65.7757 Y38.5982
G01 X65.7627 Y38.6856
G01 X65.7412 Y38.7713
G01 X65.7115 Y38.8544
G01 X65.6737 Y38.9343
G01 X65.6283 Y39.0100
G01 X65.5757 Y39.0810
G01 X65.5164 Y39.1464
G01 X65.4510 Y39.2057
G01 X65.3800 Y39.2583
G01 X65.3043 Y39.3037
G01 X65.2244 Y39.3415
G01 X65.1413 Y39.3712
G01 X65.0556 Y39.3927
G01 X64.9682 Y39.4057
G01 X64.8800 Y39.4100
G01 X64.7918 Y39.4057
G01 X64.7044 Y39.3927
G01 X64.6187 Y39.3712
G01 X64.5356 Y39.3415
G01 X64.4557 Y39.3037
G01 X64.3800 Y39.2583
G01 X64.3090 Y39.2057
G01 X64.2436 Y39.1464
G01 X64.1843 Y39.0810
G01 X64.1317 Y39.0100
G01 X64.0863 Y38.9343
G01 X64.0485 Y38.8544
G01 X64.0188 Y38.7713
G01 X63.9973 Y38.6856
G01 X63.9843 Y38.5982
G01 X63.9800 Y38.5100
G01 X63.9843 Y38.4218
G01 X63.9973 Y38.3344
G01 X64.0188 Y38.2487
G01 X64.0485 Y38.1656
G01 X64.0863 Y38.0857
G01 X64.1317 Y38.0100
G01 X64.1843 Y37.9390
G01 X64.2436 Y37.8736
G01 X64.3090 Y37.8143
G01 X64.3800 Y37.7617
G01 X64.4557 Y37.7163
G01 X64.5356 Y37.6785
G01 X64.6187 Y37.6488
G01 X64.7044 Y37.6273
G01 X64.7918 Y37.6143
G01 X64.8800 Y37.6100
G01 X64.9682 Y37.6143
G01 X65.0556 Y37.6273
G01 X65.1413 Y37.6488
G01 X65.2244 Y37.6785
G01 X65.3043 Y37.7163
G01 X65.3800 Y37.7617
G01 X65.4510 Y37.8143
G01 X65.5164 Y37.8736
G01 X65.5757 Y37.9390
G01 X65.6283 Y38.0100
G01 X65.6737 Y38.0857
G01 X65.7115 Y38.1656
G01 X65.7412 Y38.2487
G01 X65.7616 Y38.3296
G00 Z2.0000
G00 X65.7616 Y40.8696
G01 F60.00
G01 Z-0.1000
G01 F120.00
G01 X65.7635 Y40.8793
G01 X65.7757 Y40.9618
G01 X65.7800 Y41.0500
G01 X65.7757 Y41.1382
G01 X65.7627 Y41.2256
G01 X65.7412 Y41.3113
G01 X65.7115 Y41.3944
G01 X65.6737 Y41.4743
G01 X65.6283 Y41.5500
G01 X65.5757 Y41.6210
G01 X65.5164 Y41.6864
G01 X65.4510 Y41.7457
G01 X65.3800 Y41.7983
G01 X65.3043 Y41.8437
G01 X65.2244 Y41.8815
G01 X65.1413 Y41.9112
G01 X65.0556 Y41.9327
G01 X64.9682 Y41.9457
G01 X64.8800 Y41.9500
G01 X64.7918 Y41.9457
G01 X64.7044 Y41.9327
G01 X64.6187 Y41.9112
G01 X64.5356 Y41.8815
G01 X64.4557 Y41.8437
G01 X64.3800 Y41.7983
G01 X64.3090 Y41.7457
G01 X64.2436 Y41.6864
G01 X64.1843 Y41.6210
G01 X64.1317 Y41.5500
G01 X64.0863 Y41.4743
G01 X64.0485 Y41.3944
G01 X64.0188 Y41.3113
G01 X63.9973 Y41.2256
G01 X63.9843 Y41.1382
G01 X63.9800 Y41.0500
G01 X63.9843 Y40.9618
G01 X63.9973 Y40.8744
G01 X64.0188 Y40.7887
G01 X64.0485 Y40.7056
G01 X64.0863 Y40.6257
G01 X64.1317 Y40.5500
G01 X64.1843 Y40.4790
G01 X64.2436 Y40.4136
G01 X64.3090 Y40.3543
G01 X64.3800 Y40.3017
G01 X64.4557 Y40.2563
G01 X64.5356 Y40.2185
G01 X64.6187 Y40.1888
G01 X64.7044 Y40.1673
G01 X64.7918 Y40.1543
G01 X64.8800 Y40.1500
G01 X64.9682 Y40.1543
G01 X65.0556 Y40.1673
G01 X65.1413 Y40.1888
G01 X65.2244 Y40.2185
G01 X65.3043 Y40.2563
G01 X65.3800 Y40.3017
G01 X65.4510 Y40.3543
G01 X65.5164 Y40.4136
G01 X65.5757 Y40.4790
G01 X65.6283 Y40.5500
G01 X65.6737 Y40.6257
G01 X65.7115 Y40.7056
G01 X65.7412 Y40.7887
G01 X65.7616 Y40.8696
G00 Z2.0000
G00 X80.8141 Y40.4772
G01 F60.00
G01 Z-0.1000
G01 F120.00
G01 X80.8187 Y40.4829
G01 X80.8682 Y40.5498
G01 X88.8028 Y40.5498
G01 X89.9413 Y39.4113
G01 X89.9777 Y39.3783
G01 X90.0131 Y39.3519
G01 X90.0213 Y39.3465
G01 X90.0592 Y39.3239
G01 X90.1036 Y39.3029
G01 X90.1498 Y39.2863
G01 X90.1926 Y39.2755
G01 X90.2023 Y39.2736
G01 X90.2460 Y39.2672
G01 X90.2925 Y39.2648
G01 X90.5750 Y39.2648
G01 X90.5750 Y38.9150
G01 X90.5758 Y38.9028
G01 X90.5780 Y38.8907
G01 X90.5800 Y38.8836
G01 X90.5826 Y38.8767
G01 X90.5880 Y38.8657
G01 X90.5947 Y38.8554
G01 X90.5993 Y38.8497
G01 X90.6043 Y38.8443
G01 X90.6135 Y38.8362
G01 X90.6236 Y38.8292
G01 X90.6345 Y38.8236
G01 X90.6460 Y38.8193
G01 X90.6555 Y38.8169
G01 X90.6652 Y38.8155
G01 X90.6750 Y38.8150
G01 X92.3799 Y38.8151
G01 X92.3872 Y38.8158
G01 X92.3969 Y38.8174
G01 X92.4064 Y38.8200
G01 X92.4133 Y38.8226
G01 X92.4200 Y38.8257
G01 X92.4285 Y38.8305
G01 X92.4365 Y38.8362
G01 X92.4422 Y38.8409
G01 X92.4474 Y38.8460
G01 X92.4538 Y38.8535
G01 X92.4595 Y38.8615
G01 X92.4632 Y38.8679
G01 X92.4674 Y38.8767
G01 X92.4707 Y38.8860
G01 X92.4726 Y38.8931
G01 X92.4742 Y38.9028
G01 X92.4750 Y38.9150
G01 X92.4750 Y40.6175
G01 X92.4742 Y40.6272
G01 X92.4720 Y40.6393
G01 X92.4692 Y40.6487
G01 X92.4643 Y40.6600
G01 X92.4581 Y40.6706
G01 X92.4523 Y40.6784
G01 X92.4440 Y40.6874
G01 X92.4365 Y40.6938
G01 X92.4285 Y40.6995
G01 X92.4221 Y40.7032
G01 X92.4155 Y40.7064
G01 X92.4087 Y40.7092
G01 X92.4017 Y40.7114
G01 X92.3921 Y40.7135
G01 X92.3848 Y40.7145
G01 X92.3750 Y40.7150
G01 X90.6750 Y40.7150
G01 X90.6628 Y40.7142
G01 X90.6531 Y40.7126
G01 X90.6460 Y40.7107
G01 X90.6390 Y40.7083
G01 X90.6322 Y40.7054
G01 X90.6257 Y40.7020
G01 X90.6194 Y40.6981
G01 X90.6135 Y40.6938
G01 X90.6078 Y40.6891
G01 X90.6026 Y40.6840
G01 X90.5977 Y40.6784
G01 X90.5932 Y40.6726
G01 X90.5892 Y40.6664
G01 X90.5857 Y40.6600
G01 X90.5826 Y40.6533
G01 X90.5800 Y40.6464
G01 X90.5780 Y40.6393
G01 X90.5765 Y40.6321
G01 X90.5755 Y40.6248
G01 X90.5750 Y40.6150
G01 X90.5750 Y40.2652
G01 X90.5022 Y40.2652
G01 X89.3637 Y41.4037
G01 X89.3310 Y41.4335
G01 X89.3235 Y41.4397
G01 X89.2919 Y41.4631
G01 X89.2837 Y41.4685
G01 X89.2458 Y41.4911
G01 X89.2014 Y41.5121
G01 X89.1599 Y41.5271
G01 X89.1505 Y41.5300
G01 X89.1076 Y41.5406
G01 X89.0615 Y41.5475
G01 X89.0100 Y41.5502
G01 X80.8682 Y41.5502
G01 X80.8187 Y41.6171
G01 X80.8125 Y41.6247
G01 X80.7564 Y41.6864
G01 X80.6947 Y41.7425
G01 X80.6871 Y41.7487
G01 X80.6200 Y41.7983
G01 X80.5443 Y41.8437
G01 X80.4689 Y41.8795
G01 X80.4598 Y41.8833
G01 X80.3813 Y41.9112
G01 X80.3004 Y41.9316
G01 X80.2907 Y41.9335
G01 X80.2082 Y41.9457
G01 X80.1200 Y41.9500
G01 X80.0318 Y41.9457
G01 X79.9493 Y41.9335
G01 X79.9396 Y41.9316
G01 X79.8635 Y41.9126
G01 X79.8541 Y41.9097
G01 X79.7756 Y41.8815
G01 X79.7001 Y41.8459
G01 X79.6915 Y41.8413
G01 X79.6200 Y41.7983
G01 X79.5490 Y41.7457
G01 X79.4836 Y41.6864
G01 X79.4243 Y41.6210
G01 X79.3717 Y41.5500
G01 X79.3263 Y41.4743
G01 X79.2885 Y41.3944
G01 X79.2588 Y41.3113
G01 X79.2373 Y41.2256
G01 X79.2243 Y41.1382
G01 X79.2200 Y41.0500
G01 X79.2243 Y40.9618
G01 X79.2373 Y40.8744
G01 X79.2588 Y40.7887
G01 X79.2885 Y40.7056
G01 X79.3263 Y40.6257
G01 X79.3717 Y40.5500
G01 X79.4243 Y40.4790
G01 X79.4836 Y40.4136
G01 X79.5490 Y40.3543
G01 X79.6200 Y40.3017
G01 X79.6957 Y40.2563
G01 X79.7756 Y40.2185
G01 X79.8587 Y40.1888
G01 X79.9444 Y40.1673
G01 X80.0318 Y40.1543
G01 X80.1200 Y40.1500
G01 X80.2082 Y40.1543
G01 X80.2956 Y40.1673
G01 X80.3813 Y40.1888
G01 X80.4644 Y40.2185
G01 X80.5443 Y40.2563
G01 X80.6200 Y40.3017
G01 X80.6910 Y40.3543
G01 X80.7564 Y40.4136
G01 X80.8141 Y40.4772
G00 Z2.0000
G00 X80.8141 Y37.9372
G01 F60.00
G01 Z-0.1000
G01 F120.00
G01 X80.8187 Y37.9429
G01 X80.8682 Y38.0098
G01 X87.5328 Y38.0098
G01 X88.6731 Y36.8696
G01 X88.7077 Y36.8383
G01 X88.7471 Y36.8091
G01 X88.7892 Y36.7839
G01 X88.8311 Y36.7639
G01 X88.8382 Y36.7611
G01 X88.8798 Y36.7463
G01 X88.9274 Y36.7344
G01 X88.9760 Y36.7272
G01 X89.0225 Y36.7248
G01 X90.7184 Y36.7248
G01 X90.7365 Y36.6952
G01 X90.7891 Y36.6242
G01 X90.7938 Y36.6186
G01 X90.8515 Y36.5550
G01 X90.8568 Y36.5499
G01 X90.9223 Y36.4906
G01 X90.9932 Y36.4379
G01 X90.9993 Y36.4338
G01 X91.0729 Y36.3896
G01 X91.0816 Y36.3850
G01 X91.1615 Y36.3473
G01 X91.2446 Y36.3174
G01 X91.2540 Y36.3146
G01 X91.3397 Y36.2933
G01 X91.4270 Y36.2802
G01 X91.4343 Y36.2794
G01 X91.5250 Y36.2750
G01 X91.6181 Y36.2796
G01 X91.7103 Y36.2933
G01 X91.8008 Y36.3159
G01 X91.8885 Y36.3473
G01 X91.9728 Y36.3872
G01 X92.0528 Y36.4351
G01 X92.1277 Y36.4906
G01 X92.1968 Y36.5532
G01 X92.2594 Y36.6223
G01 X92.3149 Y36.6972
G01 X92.3628 Y36.7771
G01 X92.4027 Y36.8615
G01 X92.4341 Y36.9492
G01 X92.4567 Y37.0397
G01 X92.4698 Y37.1270
G01 X92.4706 Y37.1343
G01 X92.4750 Y37.2250
G01 X92.4708 Y37.3132
G01 X92.4698 Y37.3230
G01 X92.4576 Y37.4055
G01 X92.4557 Y37.4151
G01 X92.4341 Y37.5008
G01 X92.4027 Y37.5885
G01 X92.3628 Y37.6728
G01 X92.3175 Y37.7486
G01 X92.3121 Y37.7568
G01 X92.2624 Y37.8238
G01 X92.2562 Y37.8314
G01 X92.1968 Y37.8968
G01 X92.1277 Y37.9594
G01 X92.0568 Y38.0121
G01 X92.0486 Y38.0175
G01 X91.9729 Y38.0628
G01 X91.8885 Y38.1027
G01 X91.8008 Y38.1341
G01 X91.7103 Y38.1567
G01 X91.6181 Y38.1704
G01 X91.5299 Y38.1749
G01 X91.5201 Y38.1749
G01 X91.4368 Y38.1708
G01 X91.4270 Y38.1698
G01 X91.3397 Y38.1567
G01 X91.2540 Y38.1354
G01 X91.2469 Y38.1334
G01 X91.1615 Y38.1027
G01 X91.0772 Y38.0628
G01 X90.9972 Y38.0149
G01 X90.9242 Y37.9609
G01 X90.9186 Y37.9562
G01 X90.8532 Y37.8968
G01 X90.7922 Y37.8296
G01 X90.7876 Y37.8238
G01 X90.7365 Y37.7548
G01 X90.7187 Y37.7257
G01 X89.2322 Y37.7252
G01 X88.0901 Y38.8671
G01 X88.0573 Y38.8967
G01 X88.0219 Y38.9231
G01 X88.0137 Y38.9285
G01 X87.9758 Y38.9511
G01 X87.9316 Y38.9721
G01 X87.8899 Y38.9871
G01 X87.8805 Y38.9900
G01 X87.8424 Y38.9995
G01 X87.8327 Y39.0014
G01 X87.7890 Y39.0078
G01 X87.7400 Y39.0102
G01 X80.8682 Y39.0102
G01 X80.8187 Y39.0771
G01 X80.8125 Y39.0847
G01 X80.7564 Y39.1464
G01 X80.6947 Y39.2025
G01 X80.6871 Y39.2087
G01 X80.6200 Y39.2583
G01 X80.5443 Y39.3037
G01 X80.4689 Y39.3395
G01 X80.4598 Y39.3433
G01 X80.3813 Y39.3712
G01 X80.3004 Y39.3916
G01 X80.2907 Y39.3935
G01 X80.2082 Y39.4057
G01 X80.1200 Y39.4100
G01 X80.0318 Y39.4057
G01 X79.9493 Y39.3935
G01 X79.9396 Y39.3916
G01 X79.8635 Y39.3726
G01 X79.8541 Y39.3697
G01 X79.7756 Y39.3415
G01 X79.7001 Y39.3059
G01 X79.6915 Y39.3013
G01 X79.6200 Y39.2583
G01 X79.5490 Y39.2057
G01 X79.4836 Y39.1464
G01 X79.4243 Y39.0810
G01 X79.3717 Y39.0100
G01 X79.3263 Y38.9343
G01 X79.2885 Y38.8544
G01 X79.2588 Y38.7713
G01 X79.2373 Y38.6856
G01 X79.2243 Y38.5982
G01 X79.2200 Y38.5100
G01 X79.2243 Y38.4218
G01 X79.2373 Y38.3344
G01 X79.2588 Y38.2487
G01 X79.2885 Y38.1656
G01 X79.3263 Y38.0857
G01 X79.3717 Y38.0100
G01 X79.4243 Y37.9390
G01 X79.4836 Y37.8736
G01 X79.5490 Y37.8143
G01 X79.6200 Y37.7617
G01 X79.6957 Y37.7163
G01 X79.7756 Y37.6785
G01 X79.8587 Y37.6488
G01 X79.9444 Y37.6273
G01 X80.0318 Y37.6143
G01 X80.1200 Y37.6100
G01 X80.2082 Y37.6143
G01 X80.2956 Y37.6273
G01 X80.3813 Y37.6488
G01 X80.4644 Y37.6785
G01 X80.5443 Y37.7163
G01 X80.6200 Y37.7617
G01 X80.6910 Y37.8143
G01 X80.7564 Y37.8736
G01 X80.8141 Y37.9372
G00 Z2.0000
G00 X80.8141 Y35.3972
G01 F60.00
G01 Z-0.1000
G01 F120.00
G01 X80.8187 Y35.4029
G01 X80.8682 Y35.4698
G01 X86.2628 Y35.4698
G01 X87.4031 Y34.3296
G01 X87.4377 Y34.2983
G01 X87.4731 Y34.2719
G01 X87.4813 Y34.2665
G01 X87.5192 Y34.2439
G01 X87.5591 Y34.2249
G01 X87.5682 Y34.2211
G01 X87.6075 Y34.2071
G01 X87.6526 Y34.1955
G01 X87.6623 Y34.1936
G01 X87.7060 Y34.1872
G01 X87.7550 Y34.1848
G01 X90.7184 Y34.1848
G01 X90.7365 Y34.1552
G01 X90.7891 Y34.0842
G01 X90.7938 Y34.0786
G01 X90.8515 Y34.0150
G01 X90.8568 Y34.0099
G01 X90.9223 Y33.9506
G01 X90.9932 Y33.8979
G01 X90.9993 Y33.8938
G01 X91.0729 Y33.8496
G01 X91.0816 Y33.8450
G01 X91.1615 Y33.8073
G01 X91.2446 Y33.7774
G01 X91.2540 Y33.7746
G01 X91.3397 Y33.7533
G01 X91.4270 Y33.7402
G01 X91.4343 Y33.7394
G01 X91.5250 Y33.7350
G01 X91.6181 Y33.7396
G01 X91.7103 Y33.7533
G01 X91.8008 Y33.7759
G01 X91.8885 Y33.8073
G01 X91.9728 Y33.8472
G01 X92.0528 Y33.8951
G01 X92.1277 Y33.9506
G01 X92.1968 Y34.0132
G01 X92.2594 Y34.0823
G01 X92.3149 Y34.1572
G01 X92.3628 Y34.2371
G01 X92.4027 Y34.3215
G01 X92.4341 Y34.4092
G01 X92.4567 Y34.4997
G01 X92.4698 Y34.5870
G01 X92.4706 Y34.5943
G01 X92.4750 Y34.6850
G01 X92.4704 Y34.7781
G01 X92.4567 Y34.8703
G01 X92.4341 Y34.9608
G01 X92.4027 Y35.0485
G01 X92.3628 Y35.1328
G01 X92.3149 Y35.2128
G01 X92.2594 Y35.2877
G01 X92.1968 Y35.3568
G01 X92.1277 Y35.4194
G01 X92.0528 Y35.4749
G01 X91.9729 Y35.5228
G01 X91.8885 Y35.5627
G01 X91.8008 Y35.5941
G01 X91.7103 Y35.6167
G01 X91.6206 Y35.6302
G01 X91.5299 Y35.6349
G01 X91.5201 Y35.6349
G01 X91.4319 Y35.6304
G01 X91.3397 Y35.6167
G01 X91.2540 Y35.5954
G01 X91.2446 Y35.5926
G01 X91.1615 Y35.5627
G01 X91.0794 Y35.5240
G01 X91.0014 Y35.4775
G01 X90.9932 Y35.4721
G01 X90.9223 Y35.4194
G01 X90.8550 Y35.3585
G01 X90.7938 Y35.2914
G01 X90.7891 Y35.2858
G01 X90.7365 Y35.2148
G01 X90.7187 Y35.1857
G01 X87.9622 Y35.1852
G01 X86.8201 Y36.3271
G01 X86.7873 Y36.3567
G01 X86.7519 Y36.3831
G01 X86.7437 Y36.3885
G01 X86.7058 Y36.4111
G01 X86.6614 Y36.4321
G01 X86.6199 Y36.4471
G01 X86.6105 Y36.4500
G01 X86.5724 Y36.4595
G01 X86.5627 Y36.4614
G01 X86.5190 Y36.4678
G01 X86.4700 Y36.4702
G01 X80.8682 Y36.4702
G01 X80.8187 Y36.5371
G01 X80.8125 Y36.5447
G01 X80.7564 Y36.6064
G01 X80.6947 Y36.6625
G01 X80.6871 Y36.6687
G01 X80.6200 Y36.7183
G01 X80.5443 Y36.7637
G01 X80.4689 Y36.7995
G01 X80.4598 Y36.8033
G01 X80.3813 Y36.8312
G01 X80.3004 Y36.8516
G01 X80.2907 Y36.8535
G01 X80.2082 Y36.8657
G01 X80.1200 Y36.8700
G01 X80.0318 Y36.8657
G01 X79.9493 Y36.8535
G01 X79.9396 Y36.8516
G01 X79.8635 Y36.8326
G01 X79.8541 Y36.8297
G01 X79.7756 Y36.8015
G01 X79.7001 Y36.7659
G01 X79.6915 Y36.7613
G01 X79.6200 Y36.7183
G01 X79.5490 Y36.6657
G01 X79.4836 Y36.6064
G01 X79.4243 Y36.5410
G01 X79.3717 Y36.4700
G01 X79.3263 Y36.3943
G01 X79.2885 Y36.3144
G01 X79.2588 Y36.2313
G01 X79.2373 Y36.1456
G01 X79.2243 Y36.0582
G01 X79.2200 Y35.9700
G01 X79.2243 Y35.8818
G01 X79.2373 Y35.7944
G01 X79.2588 Y35.7087
G01 X79.2885 Y35.6256
G01 X79.3263 Y35.5457
G01 X79.3717 Y35.4700
G01 X79.4243 Y35.3990
G01 X79.4836 Y35.3336
G01 X79.5490 Y35.2743
G01 X79.6200 Y35.2217
G01 X79.6957 Y35.1763
G01 X79.7756 Y35.1385
G01 X79.8587 Y35.1088
G01 X79.9444 Y35.0873
G01 X80.0318 Y35.0743
G01 X80.1200 Y35.0700
G01 X80.2082 Y35.0743
G01 X80.2956 Y35.0873
G01 X80.3813 Y35.1088
G01 X80.4644 Y35.1385
G01 X80.5443 Y35.1763
G01 X80.6200 Y35.2217
G01 X80.6910 Y35.2743
G01 X80.7564 Y35.3336
G01 X80.8141 Y35.3972
G00 Z2.0000
G00 X80.8141 Y43.0172
G01 F60.00
G01 Z-0.1000
G01 F120.00
G01 X80.8187 Y43.0229
G01 X80.8682 Y43.0898
G01 X90.6150 Y43.0898
G01 X90.6150 Y42.7400
G01 X90.6153 Y42.7326
G01 X90.6165 Y42.7229
G01 X90.6180 Y42.7157
G01 X90.6200 Y42.7086
G01 X90.6226 Y42.7017
G01 X90.6257 Y42.6950
G01 X90.6292 Y42.6886
G01 X90.6332 Y42.6824
G01 X90.6377 Y42.6766
G01 X90.6426 Y42.6710
G01 X90.6478 Y42.6659
G01 X90.6535 Y42.6612
G01 X90.6594 Y42.6569
G01 X90.6657 Y42.6530
G01 X90.6767 Y42.6476
G01 X90.6836 Y42.6450
G01 X90.6907 Y42.6430
G01 X90.7028 Y42.6408
G01 X90.7150 Y42.6400
G01 X92.4150 Y42.6400
G01 X92.4272 Y42.6408
G01 X92.4369 Y42.6424
G01 X92.4440 Y42.6443
G01 X92.4510 Y42.6467
G01 X92.4600 Y42.6507
G01 X92.4685 Y42.6555
G01 X92.4746 Y42.6597
G01 X92.4803 Y42.6643
G01 X92.4874 Y42.6710
G01 X92.4938 Y42.6785
G01 X92.4995 Y42.6865
G01 X92.5032 Y42.6929
G01 X92.5074 Y42.7017
G01 X92.5107 Y42.7110
G01 X92.5126 Y42.7181
G01 X92.5139 Y42.7253
G01 X92.5149 Y42.7351
G01 X92.5150 Y44.4400
G01 X92.5142 Y44.4522
G01 X92.5126 Y44.4619
G01 X92.5100 Y44.4714
G01 X92.5064 Y44.4805
G01 X92.5032 Y44.4871
G01 X92.4981 Y44.4956
G01 X92.4938 Y44.5015
G01 X92.4874 Y44.5090
G01 X92.4822 Y44.5141
G01 X92.4746 Y44.5203
G01 X92.4685 Y44.5245
G01 X92.4621 Y44.5282
G01 X92.4533 Y44.5324
G01 X92.4440 Y44.5357
G01 X92.4369 Y44.5376
G01 X92.4297 Y44.5389
G01 X92.4199 Y44.5399
G01 X90.7150 Y44.5400
G01 X90.7052 Y44.5395
G01 X90.6955 Y44.5381
G01 X90.6860 Y44.5357
G01 X90.6790 Y44.5333
G01 X90.6722 Y44.5304
G01 X90.6657 Y44.5270
G01 X90.6594 Y44.5231
G01 X90.6535 Y44.5188
G01 X90.6478 Y44.5141
G01 X90.6426 Y44.5090
G01 X90.6377 Y44.5034
G01 X90.6332 Y44.4976
G01 X90.6292 Y44.4914
G01 X90.6257 Y44.4850
G01 X90.6226 Y44.4783
G01 X90.6200 Y44.4714
G01 X90.6180 Y44.4643
G01 X90.6165 Y44.4571
G01 X90.6155 Y44.4498
G01 X90.6150 Y44.4400
G01 X90.6150 Y44.0902
G01 X80.8682 Y44.0902
G01 X80.8187 Y44.1571
G01 X80.8125 Y44.1647
G01 X80.7564 Y44.2264
G01 X80.6947 Y44.2825
G01 X80.6871 Y44.2887
G01 X80.6200 Y44.3383
G01 X80.5443 Y44.3837
G01 X80.4689 Y44.4195
G01 X80.4598 Y44.4233
G01 X80.3813 Y44.4512
G01 X80.3004 Y44.4716
G01 X80.2907 Y44.4735
G01 X80.2082 Y44.4857
G01 X80.1200 Y44.4900
G01 X80.0318 Y44.4857
G01 X79.9493 Y44.4735
G01 X79.9396 Y44.4716
G01 X79.8635 Y44.4526
G01 X79.8541 Y44.4497
G01 X79.7756 Y44.4215
G01 X79.7001 Y44.3859
G01 X79.6915 Y44.3813
G01 X79.6200 Y44.3383
G01 X79.5490 Y44.2857
G01 X79.4836 Y44.2264
G01 X79.4243 Y44.1610
G01 X79.3717 Y44.0900
G01 X79.3263 Y44.0143
G01 X79.2885 Y43.9344
G01 X79.2588 Y43.8513
G01 X79.2373 Y43.7656
G01 X79.2243 Y43.6782
G01 X79.2200 Y43.5900
G01 X79.2243 Y43.5018
G01 X79.2373 Y43.4144
G01 X79.2588 Y43.3287
G01 X79.2885 Y43.2456
G01 X79.3263 Y43.1657
G01 X79.3717 Y43.0900
G01 X79.4243 Y43.0190
G01 X79.4836 Y42.9536
G01 X79.5490 Y42.8943
G01 X79.6200 Y42.8417
G01 X79.6957 Y42.7963
G01 X79.7756 Y42.7585
G01 X79.8587 Y42.7288
G01 X79.9444 Y42.7073
G01 X80.0318 Y42.6943
G01 X80.1200 Y42.6900
G01 X80.2082 Y42.6943
G01 X80.2956 Y42.7073
G01 X80.3813 Y42.7288
G01 X80.4644 Y42.7585
G01 X80.5443 Y42.7963
G01 X80.6200 Y42.8417
G01 X80.6910 Y42.8943
G01 X80.7564 Y42.9536
G01 X80.8141 Y43.0172
G00 Z2.0000
G00 X80.8157 Y45.5590
G01 F60.00
G01 Z-0.1000
G01 F120.00
G01 X80.8682 Y45.6298
G01 X89.0100 Y45.6298
G01 X89.0590 Y45.6322
G01 X89.1100 Y45.6399
G01 X89.1552 Y45.6513
G01 X89.1968 Y45.6661
G01 X89.2059 Y45.6699
G01 X89.2458 Y45.6889
G01 X89.2837 Y45.7115
G01 X89.2919 Y45.7169
G01 X89.3273 Y45.7433
G01 X89.3601 Y45.7729
G01 X90.4872 Y46.8998
G01 X90.6000 Y46.8998
G01 X90.6000 Y46.5500
G01 X90.6003 Y46.5426
G01 X90.6015 Y46.5329
G01 X90.6030 Y46.5257
G01 X90.6050 Y46.5186
G01 X90.6076 Y46.5117
G01 X90.6107 Y46.5050
G01 X90.6142 Y46.4986
G01 X90.6182 Y46.4924
G01 X90.6227 Y46.4866
G01 X90.6276 Y46.4810
G01 X90.6328 Y46.4759
G01 X90.6385 Y46.4712
G01 X90.6444 Y46.4669
G01 X90.6507 Y46.4630
G01 X90.6572 Y46.4596
G01 X90.6640 Y46.4567
G01 X90.6710 Y46.4543
G01 X90.6781 Y46.4524
G01 X90.6902 Y46.4505
G01 X90.7000 Y46.4500
G01 X92.4000 Y46.4500
G01 X92.4074 Y46.4503
G01 X92.4171 Y46.4515
G01 X92.4243 Y46.4530
G01 X92.4314 Y46.4550
G01 X92.4405 Y46.4586
G01 X92.4471 Y46.4618
G01 X92.4535 Y46.4655
G01 X92.4615 Y46.4712
G01 X92.4690 Y46.4776
G01 X92.4773 Y46.4866
G01 X92.4845 Y46.4965
G01 X92.4893 Y46.5050
G01 X92.4942 Y46.5163
G01 X92.4970 Y46.5257
G01 X92.4989 Y46.5353
G01 X92.5000 Y46.5475
G01 X92.5000 Y48.2500
G01 X92.4992 Y48.2622
G01 X92.4976 Y48.2719
G01 X92.4950 Y48.2814
G01 X92.4924 Y48.2883
G01 X92.4882 Y48.2971
G01 X92.4845 Y48.3035
G01 X92.4803 Y48.3096
G01 X92.4757 Y48.3153
G01 X92.4690 Y48.3224
G01 X92.4634 Y48.3273
G01 X92.4576 Y48.3318
G01 X92.4514 Y48.3358
G01 X92.4450 Y48.3393
G01 X92.4360 Y48.3433
G01 X92.4290 Y48.3457
G01 X92.4219 Y48.3476
G01 X92.4147 Y48.3489
G01 X92.4049 Y48.3499
G01 X90.7000 Y48.3500
G01 X90.6878 Y48.3492
G01 X90.6781 Y48.3476
G01 X90.6686 Y48.3450
G01 X90.6595 Y48.3414
G01 X90.6529 Y48.3382
G01 X90.6465 Y48.3345
G01 X90.6366 Y48.3273
G01 X90.6276 Y48.3190
G01 X90.6197 Y48.3096
G01 X90.6130 Y48.2993
G01 X90.6076 Y48.2883
G01 X90.6036 Y48.2767
G01 X90.6019 Y48.2695
G01 X90.6008 Y48.2622
G01 X90.6000 Y48.2500
G01 X90.6000 Y47.9002
G01 X90.2800 Y47.9002
G01 X90.2359 Y47.8982
G01 X90.2261 Y47.8972
G01 X90.1873 Y47.8914
G01 X90.1776 Y47.8895
G01 X90.1348 Y47.8787
G01 X90.0932 Y47.8639
G01 X90.0841 Y47.8601
G01 X90.0442 Y47.8411
G01 X90.0001 Y47.8145
G01 X89.9627 Y47.7867
G01 X89.9263 Y47.7537
G01 X88.8028 Y46.6302
G01 X80.8682 Y46.6302
G01 X80.8187 Y46.6971
G01 X80.8125 Y46.7047
G01 X80.7564 Y46.7664
G01 X80.6947 Y46.8225
G01 X80.6871 Y46.8287
G01 X80.6200 Y46.8783
G01 X80.5443 Y46.9237
G01 X80.4689 Y46.9595
G01 X80.4598 Y46.9633
G01 X80.3813 Y46.9912
G01 X80.3004 Y47.0116
G01 X80.2907 Y47.0135
G01 X80.2082 Y47.0257
G01 X80.1200 Y47.0300
G01 X80.0318 Y47.0257
G01 X79.9493 Y47.0135
G01 X79.9396 Y47.0116
G01 X79.8635 Y46.9926
G01 X79.8541 Y46.9897
G01 X79.7756 Y46.9615
G01 X79.7001 Y46.9259
G01 X79.6915 Y46.9213
G01 X79.6200 Y46.8783
G01 X79.5490 Y46.8257
G01 X79.4836 Y46.7664
G01 X79.4243 Y46.7010
G01 X79.3717 Y46.6300
G01 X79.3263 Y46.5543
G01 X79.2885 Y46.4744
G01 X79.2588 Y46.3913
G01 X79.2373 Y46.3056
G01 X79.2243 Y46.2182
G01 X79.2200 Y46.1300
G01 X79.2243 Y46.0418
G01 X79.2373 Y45.9544
G01 X79.2588 Y45.8687
G01 X79.2885 Y45.7856
G01 X79.3263 Y45.7057
G01 X79.3717 Y45.6300
G01 X79.4243 Y45.5590
G01 X79.4836 Y45.4936
G01 X79.5490 Y45.4343
G01 X79.6200 Y45.3817
G01 X79.6957 Y45.3363
G01 X79.7756 Y45.2985
G01 X79.8587 Y45.2688
G01 X79.9444 Y45.2473
G01 X80.0318 Y45.2343
G01 X80.1200 Y45.2300
G01 X80.2082 Y45.2343
G01 X80.2956 Y45.2473
G01 X80.3813 Y45.2688
G01 X80.4644 Y45.2985
G01 X80.5443 Y45.3363
G01 X80.6200 Y45.3817
G01 X80.6910 Y45.4343
G01 X80.7564 Y45.4936
G01 X80.8157 Y45.5590
G00 Z2.0000
G00 X80.8141 Y48.0972
G01 F60.00
G01 Z-0.1000
G01 F120.00
G01 X80.8187 Y48.1029
G01 X80.8682 Y48.1698
G01 X87.7400 Y48.1698
G01 X87.7890 Y48.1722
G01 X87.8327 Y48.1786
G01 X87.8424 Y48.1805
G01 X87.8875 Y48.1921
G01 X87.9268 Y48.2061
G01 X87.9359 Y48.2099
G01 X87.9758 Y48.2289
G01 X88.0137 Y48.2515
G01 X88.0219 Y48.2569
G01 X88.0573 Y48.2833
G01 X88.0919 Y48.3146
G01 X90.4872 Y50.7098
G01 X90.6150 Y50.7098
G01 X90.6150 Y50.3600
G01 X90.6153 Y50.3526
G01 X90.6165 Y50.3429
G01 X90.6180 Y50.3357
G01 X90.6200 Y50.3286
G01 X90.6226 Y50.3217
G01 X90.6257 Y50.3150
G01 X90.6292 Y50.3086
G01 X90.6332 Y50.3024
G01 X90.6377 Y50.2966
G01 X90.6426 Y50.2910
G01 X90.6478 Y50.2859
G01 X90.6535 Y50.2812
G01 X90.6594 Y50.2769
G01 X90.6657 Y50.2730
G01 X90.6722 Y50.2696
G01 X90.6790 Y50.2667
G01 X90.6860 Y50.2643
G01 X90.6931 Y50.2624
G01 X90.7052 Y50.2605
G01 X90.7150 Y50.2600
G01 X92.4150 Y50.2600
G01 X92.4248 Y50.2605
G01 X92.4345 Y50.2619
G01 X92.4417 Y50.2636
G01 X92.4510 Y50.2667
G01 X92.4600 Y50.2707
G01 X92.4664 Y50.2742
G01 X92.4746 Y50.2797
G01 X92.4803 Y50.2843
G01 X92.4874 Y50.2910
G01 X92.4953 Y50.3004
G01 X92.5008 Y50.3086
G01 X92.5054 Y50.3172
G01 X92.5092 Y50.3263
G01 X92.5120 Y50.3357
G01 X92.5139 Y50.3453
G01 X92.5150 Y50.3575
G01 X92.5150 Y52.0600
G01 X92.5147 Y52.0674
G01 X92.5139 Y52.0747
G01 X92.5120 Y52.0843
G01 X92.5100 Y52.0914
G01 X92.5074 Y52.0983
G01 X92.5043 Y52.1050
G01 X92.5008 Y52.1114
G01 X92.4968 Y52.1176
G01 X92.4923 Y52.1234
G01 X92.4874 Y52.1290
G01 X92.4822 Y52.1341
G01 X92.4746 Y52.1403
G01 X92.4685 Y52.1445
G01 X92.4621 Y52.1482
G01 X92.4555 Y52.1514
G01 X92.4487 Y52.1542
G01 X92.4417 Y52.1564
G01 X92.4321 Y52.1585
G01 X92.4248 Y52.1595
G01 X92.4175 Y52.1600
G01 X90.7150 Y52.1600
G01 X90.7028 Y52.1592
G01 X90.6955 Y52.1581
G01 X90.6883 Y52.1564
G01 X90.6813 Y52.1542
G01 X90.6745 Y52.1514
G01 X90.6636 Y52.1458
G01 X90.6554 Y52.1403
G01 X90.6460 Y52.1324
G01 X90.6377 Y52.1234
G01 X90.6305 Y52.1135
G01 X90.6257 Y52.1050
G01 X90.6208 Y52.0937
G01 X90.6180 Y52.0843
G01 X90.6158 Y52.0722
G01 X90.6150 Y52.0600
G01 X90.6150 Y51.7102
G01 X90.2775 Y51.7102
G01 X90.2310 Y51.7078
G01 X90.1848 Y51.7010
G01 X90.1348 Y51.6887
G01 X90.0932 Y51.6739
G01 X90.0841 Y51.6701
G01 X90.0442 Y51.6511
G01 X90.0063 Y51.6285
G01 X89.9981 Y51.6231
G01 X89.9627 Y51.5967
G01 X89.9263 Y51.5637
G01 X87.5328 Y49.1702
G01 X80.8682 Y49.1702
G01 X80.8187 Y49.2371
G01 X80.8125 Y49.2447
G01 X80.7564 Y49.3064
G01 X80.6947 Y49.3625
G01 X80.6871 Y49.3687
G01 X80.6200 Y49.4183
G01 X80.5443 Y49.4637
G01 X80.4689 Y49.4995
G01 X80.4598 Y49.5033
G01 X80.3813 Y49.5312
G01 X80.3004 Y49.5516
G01 X80.2907 Y49.5535
G01 X80.2082 Y49.5657
G01 X80.1200 Y49.5700
G01 X80.0318 Y49.5657
G01 X79.9493 Y49.5535
G01 X79.9396 Y49.5516
G01 X79.8635 Y49.5326
G01 X79.8541 Y49.5297
G01 X79.7756 Y49.5015
G01 X79.7001 Y49.4659
G01 X79.6915 Y49.4613
G01 X79.6200 Y49.4183
G01 X79.5490 Y49.3657
G01 X79.4836 Y49.3064
G01 X79.4243 Y49.2410
G01 X79.3717 Y49.1700
G01 X79.3263 Y49.0943
G01 X79.2885 Y49.0144
G01 X79.2588 Y48.9313
G01 X79.2373 Y48.8456
G01 X79.2243 Y48.7582
G01 X79.2200 Y48.6700
G01 X79.2243 Y48.5818
G01 X79.2373 Y48.4944
G01 X79.2588 Y48.4087
G01 X79.2885 Y48.3256
G01 X79.3263 Y48.2457
G01 X79.3717 Y48.1700
G01 X79.4243 Y48.0990
G01 X79.4836 Y48.0336
G01 X79.5490 Y47.9743
G01 X79.6200 Y47.9217
G01 X79.6957 Y47.8763
G01 X79.7756 Y47.8385
G01 X79.8587 Y47.8088
G01 X79.9444 Y47.7873
G01 X80.0318 Y47.7743
G01 X80.1200 Y47.7700
G01 X80.2082 Y47.7743
G01 X80.2956 Y47.7873
G01 X80.3813 Y47.8088
G01 X80.4644 Y47.8385
G01 X80.5443 Y47.8763
G01 X80.6200 Y47.9217
G01 X80.6910 Y47.9743
G01 X80.7564 Y48.0336
G01 X80.8141 Y48.0972
G00 Z2.0000
G00 X80.8141 Y50.6372
G01 F60.00
G01 Z-0.1000
G01 F120.00
G01 X80.8187 Y50.6429
G01 X80.8682 Y50.7098
G01 X86.4700 Y50.7098
G01 X86.5190 Y50.7122
G01 X86.5676 Y50.7194
G01 X86.6152 Y50.7313
G01 X86.6637 Y50.7488
G01 X86.7058 Y50.7689
G01 X86.7479 Y50.7941
G01 X86.7873 Y50.8233
G01 X86.8237 Y50.8563
G01 X90.4872 Y54.5198
G01 X90.6150 Y54.5198
G01 X90.6150 Y54.1700
G01 X90.6153 Y54.1626
G01 X90.6165 Y54.1529
G01 X90.6180 Y54.1457
G01 X90.6200 Y54.1386
G01 X90.6226 Y54.1317
G01 X90.6257 Y54.1250
G01 X90.6292 Y54.1186
G01 X90.6332 Y54.1124
G01 X90.6377 Y54.1066
G01 X90.6426 Y54.1010
G01 X90.6478 Y54.0959
G01 X90.6535 Y54.0912
G01 X90.6594 Y54.0869
G01 X90.6657 Y54.0830
G01 X90.6722 Y54.0796
G01 X90.6790 Y54.0767
G01 X90.6860 Y54.0743
G01 X90.6931 Y54.0724
G01 X90.7052 Y54.0705
G01 X90.7150 Y54.0700
G01 X92.4150 Y54.0700
G01 X92.4248 Y54.0705
G01 X92.4345 Y54.0719
G01 X92.4417 Y54.0736
G01 X92.4510 Y54.0767
G01 X92.4600 Y54.0807
G01 X92.4664 Y54.0842
G01 X92.4746 Y54.0897
G01 X92.4803 Y54.0943
G01 X92.4874 Y54.1010
G01 X92.4953 Y54.1104
G01 X92.5008 Y54.1186
G01 X92.5054 Y54.1272
G01 X92.5092 Y54.1363
G01 X92.5120 Y54.1457
G01 X92.5139 Y54.1553
G01 X92.5150 Y54.1675
G01 X92.5150 Y55.8700
G01 X92.5145 Y55.8798
G01 X92.5131 Y55.8895
G01 X92.5100 Y55.9014
G01 X92.5064 Y55.9105
G01 X92.5032 Y55.9171
G01 X92.4995 Y55.9235
G01 X92.4953 Y55.9296
G01 X92.4907 Y55.9353
G01 X92.4822 Y55.9441
G01 X92.4765 Y55.9488
G01 X92.4706 Y55.9531
G01 X92.4643 Y55.9570
G01 X92.4578 Y55.9604
G01 X92.4510 Y55.9633
G01 X92.4440 Y55.9657
G01 X92.4321 Y55.9685
G01 X92.4248 Y55.9695
G01 X92.4175 Y55.9700
G01 X90.7150 Y55.9700
G01 X90.7076 Y55.9697
G01 X90.7003 Y55.9689
G01 X90.6931 Y55.9676
G01 X90.6860 Y55.9657
G01 X90.6790 Y55.9633
G01 X90.6722 Y55.9604
G01 X90.6657 Y55.9570
G01 X90.6594 Y55.9531
G01 X90.6516 Y55.9473
G01 X90.6426 Y55.9390
G01 X90.6347 Y55.9296
G01 X90.6292 Y55.9214
G01 X90.6246 Y55.9128
G01 X90.6200 Y55.9014
G01 X90.6169 Y55.8895
G01 X90.6155 Y55.8798
G01 X90.6150 Y55.8700
G01 X90.6150 Y55.5202
G01 X90.2775 Y55.5202
G01 X90.2310 Y55.5178
G01 X90.1848 Y55.5110
G01 X90.1395 Y55.5000
G01 X90.1301 Y55.4971
G01 X90.0886 Y55.4821
G01 X90.0486 Y55.4633
G01 X90.0399 Y55.4587
G01 X90.0021 Y55.4359
G01 X89.9608 Y55.4051
G01 X89.9263 Y55.3737
G01 X86.2628 Y51.7102
G01 X80.8682 Y51.7102
G01 X80.8187 Y51.7771
G01 X80.8125 Y51.7847
G01 X80.7564 Y51.8464
G01 X80.6947 Y51.9025
G01 X80.6871 Y51.9087
G01 X80.6200 Y51.9583
G01 X80.5443 Y52.0037
G01 X80.4689 Y52.0395
G01 X80.4598 Y52.0433
G01 X80.3813 Y52.0712
G01 X80.3004 Y52.0916
G01 X80.2907 Y52.0935
G01 X80.2082 Y52.1057
G01 X80.1200 Y52.1100
G01 X80.0318 Y52.1057
G01 X79.9493 Y52.0935
G01 X79.9396 Y52.0916
G01 X79.8635 Y52.0726
G01 X79.8541 Y52.0697
G01 X79.7756 Y52.0415
G01 X79.7001 Y52.0059
G01 X79.6915 Y52.0013
G01 X79.6200 Y51.9583
G01 X79.5490 Y51.9057
G01 X79.4836 Y51.8464
G01 X79.4243 Y51.7810
G01 X79.3717 Y51.7100
G01 X79.3263 Y51.6343
G01 X79.2885 Y51.5544
G01 X79.2588 Y51.4713
G01 X79.2373 Y51.3856
G01 X79.2243 Y51.2982
G01 X79.2200 Y51.2100
G01 X79.2243 Y51.1218
G01 X79.2373 Y51.0344
G01 X79.2588 Y50.9487
G01 X79.2885 Y50.8656
G01 X79.3263 Y50.7857
G01 X79.3717 Y50.7100
G01 X79.4243 Y50.6390
G01 X79.4836 Y50.5736
G01 X79.5490 Y50.5143
G01 X79.6200 Y50.4617
G01 X79.6957 Y50.4163
G01 X79.7756 Y50.3785
G01 X79.8587 Y50.3488
G01 X79.9444 Y50.3273
G01 X80.0318 Y50.3143
G01 X80.1200 Y50.3100
G01 X80.2082 Y50.3143
G01 X80.2956 Y50.3273
G01 X80.3813 Y50.3488
G01 X80.4644 Y50.3785
G01 X80.5443 Y50.4163
G01 X80.6200 Y50.4617
G01 X80.6910 Y50.5143
G01 X80.7564 Y50.5736
G01 X80.8141 Y50.6372
G00 Z2.0000
G00 X80.8157 Y53.1790
G01 F60.00
G01 Z-0.1000
G01 F120.00
G01 X80.8682 Y53.2498
G01 X85.2025 Y53.2498
G01 X85.2441 Y53.2518
G01 X85.2539 Y53.2528
G01 X85.2976 Y53.2594
G01 X85.3405 Y53.2700
G01 X85.3499 Y53.2729
G01 X85.3914 Y53.2879
G01 X85.4358 Y53.3089
G01 X85.4779 Y53.3341
G01 X85.5135 Y53.3603
G01 X85.5210 Y53.3665
G01 X85.5537 Y53.3963
G01 X90.4872 Y58.3298
G01 X90.7434 Y58.3298
G01 X90.7615 Y58.3002
G01 X90.8141 Y58.2292
G01 X90.8188 Y58.2236
G01 X90.8765 Y58.1600
G01 X90.8818 Y58.1549
G01 X90.9473 Y58.0956
G01 X91.0182 Y58.0429
G01 X91.0243 Y58.0388
G01 X91.1021 Y57.9922
G01 X91.1820 Y57.9543
G01 X91.1910 Y57.9505
G01 X91.2696 Y57.9224
G01 X91.2790 Y57.9196
G01 X91.3647 Y57.8983
G01 X91.4520 Y57.8852
G01 X91.4618 Y57.8842
G01 X91.5500 Y57.8800
G01 X91.6431 Y57.8846
G01 X91.7353 Y57.8983
G01 X91.8258 Y57.9209
G01 X91.9135 Y57.9523
G01 X91.9978 Y57.9922
G01 X92.0778 Y58.0401
G01 X92.1488 Y58.0926
G01 X92.1546 Y58.0972
G01 X92.2218 Y58.1582
G01 X92.2844 Y58.2273
G01 X92.3399 Y58.3022
G01 X92.3854 Y58.3779
G01 X92.3900 Y58.3866
G01 X92.4257 Y58.4620
G01 X92.4295 Y58.4710
G01 X92.4591 Y58.5542
G01 X92.4817 Y58.6447
G01 X92.4954 Y58.7369
G01 X92.4999 Y58.8251
G01 X92.4999 Y58.8349
G01 X92.4958 Y58.9182
G01 X92.4948 Y58.9280
G01 X92.4817 Y59.0153
G01 X92.4591 Y59.1058
G01 X92.4277 Y59.1935
G01 X92.3878 Y59.2778
G01 X92.3425 Y59.3536
G01 X92.3371 Y59.3618
G01 X92.2844 Y59.4327
G01 X92.2218 Y59.5018
G01 X92.1564 Y59.5612
G01 X92.1488 Y59.5674
G01 X92.0778 Y59.6199
G01 X92.0021 Y59.6654
G01 X91.9934 Y59.6700
G01 X91.9135 Y59.7077
G01 X91.8304 Y59.7376
G01 X91.8210 Y59.7404
G01 X91.7353 Y59.7617
G01 X91.6480 Y59.7748
G01 X91.6382 Y59.7758
G01 X91.5475 Y59.7800
G01 X91.4618 Y59.7758
G01 X91.4520 Y59.7748
G01 X91.3647 Y59.7617
G01 X91.2790 Y59.7404
G01 X91.2696 Y59.7376
G01 X91.1865 Y59.7077
G01 X91.1066 Y59.6700
G01 X91.1000 Y59.6666
G01 X91.0264 Y59.6225
G01 X91.0182 Y59.6171
G01 X90.9473 Y59.5644
G01 X90.8800 Y59.5035
G01 X90.8188 Y59.4364
G01 X90.8141 Y59.4308
G01 X90.7615 Y59.3598
G01 X90.7437 Y59.3306
G01 X90.2799 Y59.3302
G01 X90.2285 Y59.3275
G01 X90.1873 Y59.3214
G01 X90.1776 Y59.3195
G01 X90.1348 Y59.3087
G01 X90.0932 Y59.2939
G01 X90.0841 Y59.2901
G01 X90.0442 Y59.2711
G01 X90.0021 Y59.2459
G01 X89.9627 Y59.2167
G01 X89.9263 Y59.1837
G01 X84.9928 Y54.2502
G01 X80.8682 Y54.2502
G01 X80.8187 Y54.3171
G01 X80.8125 Y54.3247
G01 X80.7564 Y54.3864
G01 X80.6947 Y54.4425
G01 X80.6871 Y54.4487
G01 X80.6200 Y54.4983
G01 X80.5443 Y54.5437
G01 X80.4644 Y54.5815
G01 X80.3859 Y54.6097
G01 X80.3765 Y54.6126
G01 X80.2956 Y54.6327
G01 X80.2131 Y54.6451
G01 X80.2033 Y54.6460
G01 X80.1225 Y54.6500
G01 X80.1151 Y54.6499
G01 X80.0318 Y54.6457
G01 X79.9444 Y54.6327
G01 X79.8587 Y54.6112
G01 X79.7802 Y54.5833
G01 X79.7711 Y54.5795
G01 X79.7001 Y54.5459
G01 X79.6915 Y54.5413
G01 X79.6200 Y54.4983
G01 X79.5529 Y54.4487
G01 X79.5453 Y54.4425
G01 X79.4836 Y54.3864
G01 X79.4243 Y54.3210
G01 X79.3717 Y54.2500
G01 X79.3263 Y54.1743
G01 X79.2885 Y54.0944
G01 X79.2588 Y54.0113
G01 X79.2373 Y53.9256
G01 X79.2243 Y53.8382
G01 X79.2200 Y53.7500
G01 X79.2243 Y53.6618
G01 X79.2373 Y53.5744
G01 X79.2588 Y53.4887
G01 X79.2885 Y53.4056
G01 X79.3263 Y53.3257
G01 X79.3717 Y53.2500
G01 X79.4243 Y53.1790
G01 X79.4836 Y53.1136
G01 X79.5490 Y53.0543
G01 X79.6200 Y53.0017
G01 X79.6957 Y52.9563
G01 X79.7756 Y52.9185
G01 X79.8587 Y52.8888
G01 X79.9444 Y52.8673
G01 X80.0318 Y52.8543
G01 X80.1200 Y52.8500
G01 X80.2082 Y52.8543
G01 X80.2956 Y52.8673
G01 X80.3813 Y52.8888
G01 X80.4644 Y52.9185
G01 X80.5443 Y52.9563
G01 X80.6200 Y53.0017
G01 X80.6910 Y53.0543
G01 X80.7564 Y53.1136
G01 X80.8157 Y53.1790
G00 Z2.0000
G00 X80.8141 Y55.7172
G01 F60.00
G01 Z-0.1000
G01 F120.00
G01 X80.8187 Y55.7229
G01 X80.8682 Y55.7898
G01 X83.9325 Y55.7898
G01 X83.9790 Y55.7922
G01 X84.0227 Y55.7986
G01 X84.0324 Y55.8005
G01 X84.0752 Y55.8113
G01 X84.1168 Y55.8261
G01 X84.1259 Y55.8299
G01 X84.1658 Y55.8489
G01 X84.2037 Y55.8715
G01 X84.2119 Y55.8769
G01 X84.2473 Y55.9033
G01 X84.2837 Y55.9363
G01 X89.2172 Y60.8698
G01 X90.6000 Y60.8698
G01 X90.6000 Y60.5200
G01 X90.6005 Y60.5102
G01 X90.6019 Y60.5005
G01 X90.6036 Y60.4933
G01 X90.6058 Y60.4863
G01 X90.6086 Y60.4795
G01 X90.6118 Y60.4729
G01 X90.6169 Y60.4644
G01 X90.6212 Y60.4585
G01 X90.6259 Y60.4528
G01 X90.6310 Y60.4476
G01 X90.6366 Y60.4427
G01 X90.6424 Y60.4382
G01 X90.6507 Y60.4330
G01 X90.6572 Y60.4296
G01 X90.6640 Y60.4267
G01 X90.6710 Y60.4243
G01 X90.6805 Y60.4219
G01 X90.6878 Y60.4208
G01 X90.7000 Y60.4200
G01 X92.4000 Y60.4200
G01 X92.4122 Y60.4208
G01 X92.4243 Y60.4230
G01 X92.4360 Y60.4267
G01 X92.4428 Y60.4296
G01 X92.4493 Y60.4330
G01 X92.4596 Y60.4397
G01 X92.4690 Y60.4476
G01 X92.4773 Y60.4566
G01 X92.4818 Y60.4624
G01 X92.4858 Y60.4686
G01 X92.4893 Y60.4750
G01 X92.4924 Y60.4817
G01 X92.4964 Y60.4933
G01 X92.4989 Y60.5053
G01 X92.5000 Y60.5175
G01 X92.5000 Y62.2200
G01 X92.4992 Y62.2322
G01 X92.4970 Y62.2443
G01 X92.4933 Y62.2560
G01 X92.4904 Y62.2628
G01 X92.4870 Y62.2693
G01 X92.4803 Y62.2796
G01 X92.4724 Y62.2890
G01 X92.4672 Y62.2941
G01 X92.4615 Y62.2988
G01 X92.4514 Y62.3058
G01 X92.4405 Y62.3114
G01 X92.4337 Y62.3142
G01 X92.4267 Y62.3164
G01 X92.4147 Y62.3189
G01 X92.4025 Y62.3200
G01 X90.7000 Y62.3200
G01 X90.6878 Y62.3192
G01 X90.6781 Y62.3176
G01 X90.6710 Y62.3157
G01 X90.6640 Y62.3133
G01 X90.6572 Y62.3104
G01 X90.6507 Y62.3070
G01 X90.6444 Y62.3031
G01 X90.6366 Y62.2973
G01 X90.6310 Y62.2924
G01 X90.6243 Y62.2853
G01 X90.6197 Y62.2796
G01 X90.6155 Y62.2735
G01 X90.6118 Y62.2671
G01 X90.6086 Y62.2605
G01 X90.6058 Y62.2537
G01 X90.6036 Y62.2467
G01 X90.6019 Y62.2395
G01 X90.6005 Y62.2298
G01 X90.6000 Y62.2200
G01 X90.6000 Y61.8702
G01 X89.0051 Y61.8701
G01 X88.9610 Y61.8678
G01 X88.9173 Y61.8614
G01 X88.9076 Y61.8595
G01 X88.8648 Y61.8487
G01 X88.8232 Y61.8339
G01 X88.8141 Y61.8301
G01 X88.7742 Y61.8111
G01 X88.7342 Y61.7872
G01 X88.6927 Y61.7567
G01 X88.6563 Y61.7237
G01 X83.7228 Y56.7902
G01 X80.8682 Y56.7902
G01 X80.8187 Y56.8571
G01 X80.8125 Y56.8647
G01 X80.7564 Y56.9264
G01 X80.6947 Y56.9825
G01 X80.6871 Y56.9887
G01 X80.6200 Y57.0383
G01 X80.5443 Y57.0837
G01 X80.4644 Y57.1215
G01 X80.3859 Y57.1497
G01 X80.3765 Y57.1526
G01 X80.2956 Y57.1727
G01 X80.2131 Y57.1851
G01 X80.2033 Y57.1860
G01 X80.1225 Y57.1900
G01 X80.1151 Y57.1899
G01 X80.0318 Y57.1857
G01 X79.9444 Y57.1727
G01 X79.8587 Y57.1512
G01 X79.7802 Y57.1233
G01 X79.7711 Y57.1195
G01 X79.7001 Y57.0859
G01 X79.6915 Y57.0813
G01 X79.6200 Y57.0383
G01 X79.5529 Y56.9887
G01 X79.5453 Y56.9825
G01 X79.4836 Y56.9264
G01 X79.4243 Y56.8610
G01 X79.3717 Y56.7900
G01 X79.3263 Y56.7143
G01 X79.2885 Y56.6344
G01 X79.2588 Y56.5513
G01 X79.2373 Y56.4656
G01 X79.2243 Y56.3782
G01 X79.2200 Y56.2900
G01 X79.2243 Y56.2018
G01 X79.2373 Y56.1144
G01 X79.2588 Y56.0287
G01 X79.2885 Y55.9456
G01 X79.3263 Y55.8657
G01 X79.3717 Y55.7900
G01 X79.4243 Y55.7190
G01 X79.4836 Y55.6536
G01 X79.5490 Y55.5943
G01 X79.6200 Y55.5417
G01 X79.6957 Y55.4963
G01 X79.7756 Y55.4585
G01 X79.8587 Y55.4288
G01 X79.9444 Y55.4073
G01 X80.0318 Y55.3943
G01 X80.1200 Y55.3900
G01 X80.2082 Y55.3943
G01 X80.2956 Y55.4073
G01 X80.3813 Y55.4288
G01 X80.4644 Y55.4585
G01 X80.5443 Y55.4963
G01 X80.6200 Y55.5417
G01 X80.6910 Y55.5943
G01 X80.7564 Y55.6536
G01 X80.8141 Y55.7172
G00 Z2.0000
G00 X80.8141 Y58.2572
G01 F60.00
G01 Z-0.1000
G01 F120.00
G01 X80.8187 Y58.2629
G01 X80.8682 Y58.3298
G01 X82.6649 Y58.3299
G01 X82.7090 Y58.3322
G01 X82.7527 Y58.3386
G01 X82.7624 Y58.3405
G01 X82.8052 Y58.3513
G01 X82.8468 Y58.3661
G01 X82.8559 Y58.3699
G01 X82.8958 Y58.3889
G01 X82.9358 Y58.4128
G01 X82.9773 Y58.4433
G01 X83.0137 Y58.4763
G01 X89.2222 Y64.6848
G01 X90.7584 Y64.6848
G01 X90.7765 Y64.6552
G01 X90.8276 Y64.5862
G01 X90.8322 Y64.5804
G01 X90.8932 Y64.5132
G01 X90.9604 Y64.4522
G01 X91.0332 Y64.3979
G01 X91.0414 Y64.3925
G01 X91.1171 Y64.3472
G01 X91.1970 Y64.3093
G01 X91.2037 Y64.3064
G01 X91.2892 Y64.2759
G01 X91.3797 Y64.2533
G01 X91.4719 Y64.2396
G01 X91.5601 Y64.2351
G01 X91.5699 Y64.2351
G01 X91.6532 Y64.2392
G01 X91.6630 Y64.2402
G01 X91.7503 Y64.2533
G01 X91.8360 Y64.2746
G01 X91.8431 Y64.2766
G01 X91.9240 Y64.3055
G01 X91.9330 Y64.3093
G01 X92.0128 Y64.3472
G01 X92.0886 Y64.3925
