(G-CODE GENERATED BY FLATCAM v8.994 - www.flatcam.org - Version Date: 2020/11/7)

(Name: nanoRIghtAux.drl_edit_cnc)
(Type: G-code from Geometry)
(Units: MM)

(Created on Tuesday, 20 June 2023 at 15:08)

(This preprocessor is the default preprocessor used by FlatCAM.)
(It is made to work with MACH3 compatible motion controllers.)


(TOOLS DIAMETER: )
(Tool: 1 -> Dia: 0.8)

(FEEDRATE Z: )
(Tool: 1 -> Feedrate: 150.0)

(FEEDRATE RAPIDS: )
(Tool: 1 -> Feedrate Rapids: 1500)

(Z_CUT: )
(Tool: 1 -> Z_Cut: -2.1)

(Tools Offset: )
(Tool: 1 -> Offset Z: 0.0)

(Z_MOVE: )
(Tool: 1 -> Z_Move: 4.999999999999998)

(Z Toolchange: 15 mm)
(X,Y Toolchange: 0.0000, 0.0000 mm)
(Z Start: None mm)
(Z End: 5.0 mm)
(X,Y End: None mm)
(Steps per circle: 64)
(Preprocessor Excellon: default)

(X range:   21.3000 ...   99.5700  mm)
(Y range:   22.8700 ...   84.6300  mm)

(Spindle Speed: 0 RPM)
G21
G90
G94

G01 F150.00

M5
G00 Z15.0000
T1
G00 X0.0000 Y0.0000                
M6
(MSG, Change to Tool Dia = 0.8000 ||| Total drills for tool T1 = 115)
M0
G00 Z15.0000

G01 F150.00
M03
G00 X57.2600 Y52.4800
G01 Z-2.1000
G01 Z0
G00 Z5.0000
G00 X64.8800 Y51.2100
G01 Z-2.1000
G01 Z0
G00 Z5.0000
G00 X64.8800 Y53.7500
G01 Z-2.1000
G01 Z0
G00 Z5.0000
G00 X64.8800 Y56.2900
G01 Z-2.1000
G01 Z0
G00 Z5.0000
G00 X64.8800 Y58.8300
G01 Z-2.1000
G01 Z0
G00 Z5.0000
G00 X64.8800 Y61.3700
G01 Z-2.1000
G01 Z0
G00 Z5.0000
G00 X64.8800 Y63.9100
G01 Z-2.1000
G01 Z0
G00 Z5.0000
G00 X64.8800 Y66.4500
G01 Z-2.1000
G01 Z0
G00 Z5.0000
G00 X64.8800 Y68.9900
G01 Z-2.1000
G01 Z0
G00 Z5.0000
G00 X64.8800 Y71.5300
G01 Z-2.1000
G01 Z0
G00 Z5.0000
G00 X80.1200 Y71.5300
G01 Z-2.1000
G01 Z0
G00 Z5.0000
G00 X80.1200 Y68.9900
G01 Z-2.1000
G01 Z0
G00 Z5.0000
G00 X80.1200 Y66.4500
G01 Z-2.1000
G01 Z0
G00 Z5.0000
G00 X80.1200 Y63.9100
G01 Z-2.1000
G01 Z0
G00 Z5.0000
G00 X80.1200 Y61.3700
G01 Z-2.1000
G01 Z0
G00 Z5.0000
G00 X80.1200 Y58.8300
G01 Z-2.1000
G01 Z0
G00 Z5.0000
G00 X80.1200 Y56.2900
G01 Z-2.1000
G01 Z0
G00 Z5.0000
G00 X80.1200 Y53.7500
G01 Z-2.1000
G01 Z0
G00 Z5.0000
G00 X80.1200 Y51.2100
G01 Z-2.1000
G01 Z0
G00 Z5.0000
G00 X80.1200 Y48.6700
G01 Z-2.1000
G01 Z0
G00 Z5.0000
G00 X91.5500 Y47.4000
G01 Z-2.1000
G01 Z0
G00 Z5.0000
G00 X91.5652 Y51.2100
G01 Z-2.1000
G01 Z0
G00 Z5.0000
G00 X91.5652 Y55.0200
G01 Z-2.1000
G01 Z0
G00 Z5.0000
G00 X91.5500 Y58.8300
G01 Z-2.1000
G01 Z0
G00 Z5.0000
G00 X94.0900 Y58.8300
G01 Z-2.1000
G01 Z0
G00 Z5.0000
G00 X94.0900 Y61.3700
G01 Z-2.1000
G01 Z0
G00 Z5.0000
G00 X91.5500 Y61.3700
G01 Z-2.1000
G01 Z0
G00 Z5.0000
G00 X91.5652 Y65.1851
G01 Z-2.1000
G01 Z0
G00 Z5.0000
G00 X91.5652 Y67.7251
G01 Z-2.1000
G01 Z0
G00 Z5.0000
G00 X86.4700 Y74.0700
G01 Z-2.1000
G01 Z0
G00 Z5.0000
G00 X89.0100 Y74.0700
G01 Z-2.1000
G01 Z0
G00 Z5.0000
G00 X99.1700 Y84.2300
G01 Z-2.1000
G01 Z0
G00 Z5.0000
G00 X96.6452 Y67.7251
G01 Z-2.1000
G01 Z0
G00 Z5.0000
G00 X94.1052 Y67.7251
G01 Z-2.1000
G01 Z0
G00 Z5.0000
G00 X94.1052 Y65.1851
G01 Z-2.1000
G01 Z0
G00 Z5.0000
G00 X96.6452 Y65.1851
G01 Z-2.1000
G01 Z0
G00 Z5.0000
G00 X96.6300 Y61.3700
G01 Z-2.1000
G01 Z0
G00 Z5.0000
G00 X96.6300 Y58.8300
G01 Z-2.1000
G01 Z0
G00 Z5.0000
G00 X94.1052 Y55.0200
G01 Z-2.1000
G01 Z0
G00 Z5.0000
G00 X96.6452 Y55.0200
G01 Z-2.1000
G01 Z0
G00 Z5.0000
G00 X96.6452 Y51.2100
G01 Z-2.1000
G01 Z0
G00 Z5.0000
G00 X94.1052 Y51.2100
G01 Z-2.1000
G01 Z0
G00 Z5.0000
G00 X94.0900 Y47.4000
G01 Z-2.1000
G01 Z0
G00 Z5.0000
G00 X96.6300 Y47.4000
G01 Z-2.1000
G01 Z0
G00 Z5.0000
G00 X96.6452 Y43.5900
G01 Z-2.1000
G01 Z0
G00 Z5.0000
G00 X94.1052 Y43.5900
G01 Z-2.1000
G01 Z0
G00 Z5.0000
G00 X91.5652 Y43.5900
G01 Z-2.1000
G01 Z0
G00 Z5.0000
G00 X91.5246 Y39.7648
G01 Z-2.1000
G01 Z0
G00 Z5.0000
G00 X95.3600 Y39.7800
G01 Z-2.1000
G01 Z0
G00 Z5.0000
G00 X97.9000 Y39.7800
G01 Z-2.1000
G01 Z0
G00 Z5.0000
G00 X91.5246 Y37.2248
G01 Z-2.1000
G01 Z0
G00 Z5.0000
G00 X91.5246 Y34.6848
G01 Z-2.1000
G01 Z0
G00 Z5.0000
G00 X99.1700 Y23.2700
G01 Z-2.1000
G01 Z0
G00 Z5.0000
G00 X87.7400 Y25.8100
G01 Z-2.1000
G01 Z0
G00 Z5.0000
G00 X85.2000 Y25.8100
G01 Z-2.1000
G01 Z0
G00 Z5.0000
G00 X80.1200 Y35.9700
G01 Z-2.1000
G01 Z0
G00 Z5.0000
G00 X80.1200 Y38.5100
G01 Z-2.1000
G01 Z0
G00 Z5.0000
G00 X80.1200 Y41.0500
G01 Z-2.1000
G01 Z0
G00 Z5.0000
G00 X80.1200 Y43.5900
G01 Z-2.1000
G01 Z0
G00 Z5.0000
G00 X80.1200 Y46.1300
G01 Z-2.1000
G01 Z0
G00 Z5.0000
G00 X64.8800 Y48.6700
G01 Z-2.1000
G01 Z0
G00 Z5.0000
G00 X64.8800 Y46.1300
G01 Z-2.1000
G01 Z0
G00 Z5.0000
G00 X64.8800 Y43.5900
G01 Z-2.1000
G01 Z0
G00 Z5.0000
G00 X64.8800 Y41.0500
G01 Z-2.1000
G01 Z0
G00 Z5.0000
G00 X64.8800 Y38.5100
G01 Z-2.1000
G01 Z0
G00 Z5.0000
G00 X64.8800 Y35.9700
G01 Z-2.1000
G01 Z0
G00 Z5.0000
G00 X57.2600 Y37.2400
G01 Z-2.1000
G01 Z0
G00 Z5.0000
G00 X54.7200 Y37.2400
G01 Z-2.1000
G01 Z0
G00 Z5.0000
G00 X52.1800 Y37.2400
G01 Z-2.1000
G01 Z0
G00 Z5.0000
G00 X49.6400 Y37.2400
G01 Z-2.1000
G01 Z0
G00 Z5.0000
G00 X47.1000 Y37.2400
G01 Z-2.1000
G01 Z0
G00 Z5.0000
G00 X49.6400 Y31.3193
G01 Z-2.1000
G01 Z0
G00 Z5.0000
G00 X47.1000 Y31.3193
G01 Z-2.1000
G01 Z0
G00 Z5.0000
G00 X44.5600 Y31.3193
G01 Z-2.1000
G01 Z0
G00 Z5.0000
G00 X42.0200 Y31.3193
G01 Z-2.1000
G01 Z0
G00 Z5.0000
G00 X38.2100 Y31.3193
G01 Z-2.1000
G01 Z0
G00 Z5.0000
G00 X35.6700 Y31.3193
G01 Z-2.1000
G01 Z0
G00 Z5.0000
G00 X33.1300 Y31.3193
G01 Z-2.1000
G01 Z0
G00 Z5.0000
G00 X30.5900 Y31.3193
G01 Z-2.1000
G01 Z0
G00 Z5.0000
G00 X21.7000 Y23.2700
G01 Z-2.1000
G01 Z0
G00 Z5.0000
G00 X24.2400 Y37.2400
G01 Z-2.1000
G01 Z0
G00 Z5.0000
G00 X26.7800 Y37.2400
G01 Z-2.1000
G01 Z0
G00 Z5.0000
G00 X29.3200 Y37.2400
G01 Z-2.1000
G01 Z0
G00 Z5.0000
G00 X31.8600 Y37.2400
G01 Z-2.1000
G01 Z0
G00 Z5.0000
G00 X34.4000 Y37.2400
G01 Z-2.1000
G01 Z0
G00 Z5.0000
G00 X36.9400 Y37.2400
G01 Z-2.1000
G01 Z0
G00 Z5.0000
G00 X39.4800 Y37.2400
G01 Z-2.1000
G01 Z0
G00 Z5.0000
G00 X42.0200 Y37.2400
G01 Z-2.1000
G01 Z0
G00 Z5.0000
G00 X44.5600 Y37.2400
G01 Z-2.1000
G01 Z0
G00 Z5.0000
G00 X42.0200 Y52.4800
G01 Z-2.1000
G01 Z0
G00 Z5.0000
G00 X39.4800 Y52.4800
G01 Z-2.1000
G01 Z0
G00 Z5.0000
G00 X36.9400 Y52.4800
G01 Z-2.1000
G01 Z0
G00 Z5.0000
G00 X34.4000 Y52.4800
G01 Z-2.1000
G01 Z0
G00 Z5.0000
G00 X31.8600 Y52.4800
G01 Z-2.1000
G01 Z0
G00 Z5.0000
G00 X29.3200 Y52.4800
G01 Z-2.1000
G01 Z0
G00 Z5.0000
G00 X26.7800 Y52.4800
G01 Z-2.1000
G01 Z0
G00 Z5.0000
G00 X24.2400 Y52.4800
G01 Z-2.1000
G01 Z0
G00 Z5.0000
G00 X21.7000 Y84.2300
G01 Z-2.1000
G01 Z0
G00 Z5.0000
G00 X30.5900 Y57.9893
G01 Z-2.1000
G01 Z0
G00 Z5.0000
G00 X33.1300 Y57.9893
G01 Z-2.1000
G01 Z0
G00 Z5.0000
G00 X35.6700 Y57.9893
G01 Z-2.1000
G01 Z0
G00 Z5.0000
G00 X38.2100 Y57.9893
G01 Z-2.1000
G01 Z0
G00 Z5.0000
G00 X42.0302 Y57.9893
G01 Z-2.1000
G01 Z0
G00 Z5.0000
G00 X44.5600 Y62.6400
G01 Z-2.1000
G01 Z0
G00 Z5.0000
G00 X44.5600 Y65.1800
G01 Z-2.1000
G01 Z0
G00 Z5.0000
G00 X49.6400 Y65.1800
G01 Z-2.1000
G01 Z0
G00 Z5.0000
G00 X49.6400 Y62.6400
G01 Z-2.1000
G01 Z0
G00 Z5.0000
G00 X49.6502 Y57.9893
G01 Z-2.1000
G01 Z0
G00 Z5.0000
G00 X47.1102 Y57.9893
G01 Z-2.1000
G01 Z0
G00 Z5.0000
G00 X44.5702 Y57.9893
G01 Z-2.1000
G01 Z0
G00 Z5.0000
G00 X44.5600 Y52.4800
G01 Z-2.1000
G01 Z0
G00 Z5.0000
G00 X47.1000 Y52.4800
G01 Z-2.1000
G01 Z0
G00 Z5.0000
G00 X49.6400 Y52.4800
G01 Z-2.1000
G01 Z0
G00 Z5.0000
G00 X52.1800 Y52.4800
G01 Z-2.1000
G01 Z0
G00 Z5.0000
G00 X54.7200 Y52.4800
G01 Z-2.1000
G01 Z0
G00 Z5.0000
M05
G00 Z5.00


