(G-CODE GENERATED BY FLATCAM v8.994 - www.flatcam.org - Version Date: 2020/11/7)

(Name: nanoRIghtAux-Edge_Cuts.gbr_cutout_cnc)
(Type: G-code from Geometry)
(Units: MM)

(Created on Tuesday, 20 June 2023 at 15:11)

(This preprocessor is the default preprocessor used by FlatCAM.)
(It is made to work with MACH3 compatible motion controllers.)

(TOOL DIAMETER: 3.125 mm)
(Feedrate_XY: 120.0 mm/min)
(Feedrate_Z: 60.0 mm/min)
(Feedrate rapids 1500.0 mm/min)

(Z_Cut: -2.0 mm)
(Z_Move: 2.0 mm)
(Z Start: None mm)
(Z End: 15.0 mm)
(X,Y End: None mm)
(Steps per circle: 64)
(Preprocessor Geometry: default)

(X range:   16.1775 ...  104.6925  mm)
(Y range:   17.7475 ...   89.7525  mm)

(Spindle Speed: 0.0 RPM)
G21
G90
G94

G01 F120.00

M5
G00 Z15.0000
G00 X0.0000 Y0.0000
T1
M6    
(MSG, Change to Tool Dia = 3.1250)
M0
G00 Z15.0000

M03
G01 F120.00
G00 X56.9725 Y17.7475
G01 F60.00
G01 Z-2.0000
G01 F120.00
G01 X17.8400 Y17.7475
G01 X17.6770 Y17.7555
G01 X17.5156 Y17.7794
G01 X17.3574 Y17.8191
G01 X17.2038 Y17.8740
G01 X17.0563 Y17.9438
G01 X16.9163 Y18.0277
G01 X16.7853 Y18.1248
G01 X16.6644 Y18.2344
G01 X16.5548 Y18.3553
G01 X16.4577 Y18.4863
G01 X16.3738 Y18.6263
G01 X16.3040 Y18.7738
G01 X16.2491 Y18.9274
G01 X16.2094 Y19.0856
G01 X16.1855 Y19.2470
G01 X16.1775 Y19.4100
G01 X16.1775 Y88.0900
G01 X16.1855 Y88.2530
G01 X16.2094 Y88.4144
G01 X16.2491 Y88.5726
G01 X16.3040 Y88.7262
G01 X16.3738 Y88.8737
G01 X16.4577 Y89.0137
G01 X16.5548 Y89.1447
G01 X16.6644 Y89.2656
G01 X16.7853 Y89.3752
G01 X16.9163 Y89.4723
G01 X17.0563 Y89.5562
G01 X17.2038 Y89.6260
G01 X17.3574 Y89.6809
G01 X17.5156 Y89.7206
G01 X17.6770 Y89.7445
G01 X17.8400 Y89.7525
G01 X56.9725 Y89.7525
G00 Z2.0000
G00 X64.0975 Y89.7525
G01 F60.00
G01 Z-2.0000
G01 F120.00
G01 X103.0300 Y89.7525
G01 X103.1930 Y89.7445
G01 X103.3544 Y89.7206
G01 X103.5126 Y89.6809
G01 X103.6662 Y89.6260
G01 X103.8137 Y89.5562
G01 X103.9537 Y89.4723
G01 X104.0847 Y89.3752
G01 X104.2056 Y89.2656
G01 X104.3152 Y89.1447
G01 X104.4123 Y89.0137
G01 X104.4962 Y88.8737
G01 X104.5660 Y88.7262
G01 X104.6209 Y88.5726
G01 X104.6606 Y88.4144
G01 X104.6845 Y88.2530
G01 X104.6925 Y88.0900
G01 X104.6925 Y19.4100
G01 X104.6845 Y19.2470
G01 X104.6606 Y19.0856
G01 X104.6209 Y18.9274
G01 X104.5660 Y18.7738
G01 X104.4962 Y18.6263
G01 X104.4123 Y18.4863
G01 X104.3152 Y18.3553
G01 X104.2056 Y18.2344
G01 X104.0847 Y18.1248
G01 X103.9537 Y18.0277
G01 X103.8137 Y17.9438
G01 X103.6662 Y17.8740
G01 X103.5126 Y17.8191
G01 X103.3544 Y17.7794
G01 X103.1930 Y17.7555
G01 X103.0300 Y17.7475
G01 X64.0975 Y17.7475
G00 Z2.0000
M05
G00 Z2.0000
G00 Z15.00


